roles/videoref-engine/files/luts/bleach-bypass.cube
TITLE "Bleach Bypass Drama"
LUT_3D_SIZE 17
DOMAIN_MIN 0.0 0.0 0.0
DOMAIN_MAX 1.0 1.0 1.0
0.000000 0.000000 0.000000
0.000000 0.000000 0.000000
0.000000 0.000000 0.000000
0.000000 0.000000 0.000000
0.002790 0.000000 0.000000
0.053488 0.000000 0.000000
0.104185 0.000000 0.000000
0.154883 0.000000 0.000000
0.205580 0.000000 0.000000
0.256278 0.000000 0.000000
0.306975 0.000000 0.000000
0.357673 0.000000 0.000000
0.408370 0.000000 0.000000
0.459067 0.004068 0.004068
0.509765 0.019765 0.019765
0.560462 0.035462 0.035462
0.611160 0.051160 0.051160
0.000000 0.000000 0.000000
0.000000 0.000000 0.000000
0.000000 0.000000 0.000000
0.000000 0.000000 0.000000
0.033608 0.000000 0.000000
0.084305 0.000000 0.000000
0.135003 0.000000 0.000000
0.185700 0.000000 0.000000
0.236398 0.000000 0.000000
0.287095 0.007095 0.000000
0.337793 0.022792 0.000000
0.388490 0.038490 0.003490
0.439188 0.054187 0.019188
0.489885 0.069885 0.034885
0.540583 0.085583 0.050582
0.591280 0.101280 0.066280
0.641977 0.116977 0.081978
0.000000 0.000000 0.000000
0.000000 0.000000 0.000000
0.000000 0.000000 0.000000
0.013728 0.000000 0.000000
0.064425 0.000000 0.000000
0.115123 0.010123 0.000000
0.165820 0.025820 0.000000
0.216518 0.041518 0.000000
0.267215 0.057215 0.000000
0.317913 0.072912 0.002913
0.368610 0.088610 0.018610
0.419307 0.104307 0.034307
0.470005 0.120005 0.050005
0.520702 0.135703 0.065702
0.571400 0.151400 0.081400
0.622097 0.167097 0.097097
0.672795 0.182795 0.112795
0.000000 0.000000 0.000000
0.000000 0.013150 0.000000
0.000000 0.028848 0.000000
0.044545 0.044545 0.000000
0.095243 0.060243 0.000000
0.145940 0.075940 0.000000
0.196637 0.091638 0.000000
0.247335 0.107335 0.002335
0.298032 0.123032 0.018033
0.348730 0.138730 0.033730
0.399427 0.154427 0.049428
0.450125 0.170125 0.065125
0.500823 0.185823 0.080823
0.551520 0.201520 0.096520
0.602218 0.217218 0.112218
0.652915 0.232915 0.127915
0.703612 0.248613 0.143612
0.000000 0.063270 0.000000
0.000000 0.078968 0.000000
0.024665 0.094665 0.000000
0.075363 0.110363 0.000000
0.126060 0.126060 0.000000
0.176758 0.141758 0.001758
0.227455 0.157455 0.017455
0.278153 0.173152 0.033153
0.328850 0.188850 0.048850
0.379548 0.204548 0.064547
0.430245 0.220245 0.080245
0.480942 0.235942 0.095942
0.531640 0.251640 0.111640
0.582337 0.267337 0.127337
0.633035 0.283035 0.143035
0.683732 0.298732 0.158732
0.734430 0.314430 0.174430
0.000000 0.129087 0.000000
0.004785 0.144785 0.000000
0.055482 0.160482 0.000000
0.106180 0.176180 0.001180
0.156878 0.191878 0.016878
0.207575 0.207575 0.032575
0.258272 0.223272 0.048272
0.308970 0.238970 0.063970
0.359668 0.254667 0.079667
0.410365 0.270365 0.095365
0.461062 0.286062 0.111063
0.511760 0.301760 0.126760
0.562458 0.317458 0.142458
0.613155 0.333155 0.158155
0.663852 0.348853 0.173853
0.714550 0.364550 0.189550
0.765247 0.380247 0.205247
0.000000 0.194905 0.000000
0.035602 0.210603 0.000603
0.086300 0.226300 0.016300
0.136997 0.241998 0.031998
0.187695 0.257695 0.047695
0.238392 0.273392 0.063392
0.289090 0.289090 0.079090
0.339788 0.304787 0.094788
0.390485 0.320485 0.110485
0.441182 0.336182 0.126182
0.491880 0.351880 0.141880
0.542577 0.367578 0.157577
0.593275 0.383275 0.173275
0.643972 0.398972 0.188972
0.694670 0.414670 0.204670
0.745367 0.430368 0.220367
0.796065 0.446065 0.236065
0.015723 0.260722 0.015723
0.066420 0.276420 0.031420
0.117118 0.292118 0.047117
0.167815 0.307815 0.062815
0.218512 0.323513 0.078512
0.269210 0.339210 0.094210
0.319908 0.354908 0.109908
0.370605 0.370605 0.125605
0.421303 0.386302 0.141302
0.472000 0.402000 0.157000
0.522697 0.417697 0.172698
0.573395 0.433395 0.188395
0.624093 0.449093 0.204093
0.674790 0.464790 0.219790
0.725487 0.480487 0.235487
0.776185 0.496185 0.251185
0.826883 0.511883 0.266883
0.046540 0.326540 0.046540
0.097238 0.342238 0.062238
0.147935 0.357935 0.077935
0.198632 0.373632 0.093633
0.249330 0.389330 0.109330
0.300028 0.405027 0.125028
0.350725 0.420725 0.140725
0.401423 0.436422 0.156422
0.452120 0.452120 0.172120
0.502817 0.467817 0.187818
0.553515 0.483515 0.203515
0.604212 0.499212 0.219212
0.654910 0.514910 0.234910
0.705607 0.530608 0.250607
0.756305 0.546305 0.266305
0.807002 0.562003 0.282002
0.857700 0.577700 0.297700
0.077357 0.392358 0.077357
0.128055 0.408055 0.093055
0.178752 0.423752 0.108752
0.229450 0.439450 0.124450
0.280147 0.455147 0.140147
0.330845 0.470845 0.155845
0.381543 0.486542 0.171543
0.432240 0.502240 0.187240
0.482937 0.517938 0.202937
0.533635 0.533635 0.218635
0.584332 0.549333 0.234332
0.635030 0.565030 0.250030
0.685727 0.580727 0.265727
0.736425 0.596425 0.281425
0.787122 0.612122 0.297122
0.837820 0.627820 0.312820
0.888518 0.643517 0.328517
0.108175 0.458175 0.108175
0.158873 0.473872 0.123872
0.209570 0.489570 0.139570
0.260267 0.505267 0.155267
0.310965 0.520965 0.170965
0.361662 0.536663 0.186663
0.412360 0.552360 0.202360
0.463058 0.568057 0.218057
0.513755 0.583755 0.233755
0.564452 0.599452 0.249452
0.615150 0.615150 0.265150
0.665847 0.630848 0.280847
0.716545 0.646545 0.296545
0.767242 0.662242 0.312242
0.817940 0.677940 0.327940
0.868637 0.693637 0.343637
0.919335 0.709335 0.359335
0.138993 0.523993 0.138993
0.189690 0.539690 0.154690
0.240387 0.555387 0.170387
0.291085 0.571085 0.186085
0.341782 0.586782 0.201782
0.392480 0.602480 0.217480
0.443178 0.618178 0.233177
0.493875 0.633875 0.248875
0.544572 0.649572 0.264572
0.595270 0.665270 0.280270
0.645967 0.680968 0.295967
0.696665 0.696665 0.311665
0.747363 0.712363 0.327363
0.798060 0.728060 0.343060
0.848758 0.743758 0.358758
0.899455 0.759455 0.374455
0.950152 0.775153 0.390152
0.169810 0.589810 0.169810
0.220508 0.605507 0.185508
0.271205 0.621205 0.201205
0.321902 0.636903 0.216902
0.372600 0.652600 0.232600
0.423297 0.668298 0.248297
0.473995 0.683995 0.263995
0.524693 0.699692 0.279693
0.575390 0.715390 0.295390
0.626087 0.731088 0.311087
0.676785 0.746785 0.326785
0.727482 0.762482 0.342482
0.778180 0.778180 0.358180
0.828877 0.793877 0.373877
0.879575 0.809575 0.389575
0.930273 0.825273 0.405272
0.980970 0.840970 0.420970
0.200628 0.655628 0.200628
0.251325 0.671325 0.216325
0.302022 0.687022 0.232022
0.352720 0.702720 0.247720
0.403418 0.718417 0.263417
0.454115 0.734115 0.279115
0.504812 0.749812 0.294812
0.555510 0.765510 0.310510
0.606207 0.781207 0.326207
0.656905 0.796905 0.341905
0.707602 0.812602 0.357602
0.758300 0.828300 0.373300
0.808998 0.843997 0.388997
0.859695 0.859695 0.404695
0.910393 0.875393 0.420393
0.961090 0.891090 0.436090
1.000000 0.906787 0.451787
0.231445 0.721445 0.231445
0.282143 0.737143 0.247142
0.332840 0.752840 0.262840
0.383538 0.768538 0.278538
0.434235 0.784235 0.294235
0.484932 0.799932 0.309932
0.535630 0.815630 0.325630
0.586327 0.831327 0.341327
0.637025 0.847025 0.357025
0.687722 0.862722 0.372722
0.738420 0.878420 0.388420
0.789117 0.894118 0.404117
0.839815 0.909815 0.419815
0.890513 0.925512 0.435512
0.941210 0.941210 0.451210
0.991907 0.956908 0.466907
1.000000 0.972605 0.482605
0.262262 0.787262 0.262262
0.312960 0.802960 0.277960
0.363657 0.818658 0.293658
0.414355 0.834355 0.309355
0.465052 0.850052 0.325052
0.515750 0.865750 0.340750
0.566447 0.881448 0.356448
0.617145 0.897145 0.372145
0.667842 0.912843 0.387842
0.718540 0.928540 0.403540
0.769238 0.944237 0.419237
0.819935 0.959935 0.434935
0.870633 0.975633 0.450633
0.921330 0.991330 0.466330
0.972028 1.000000 0.482027
1.000000 1.000000 0.497725
1.000000 1.000000 0.513423
0.293080 0.853080 0.293080
0.343778 0.868777 0.308777
0.394475 0.884475 0.324475
0.445173 0.900172 0.340172
0.495870 0.915870 0.355870
0.546567 0.931567 0.371567
0.597265 0.947265 0.387265
0.647962 0.962962 0.402962
0.698660 0.978660 0.418660
0.749357 0.994357 0.434357
0.800055 1.000000 0.450055
0.850752 1.000000 0.465752
0.901450 1.000000 0.481450
0.952148 1.000000 0.497147
1.000000 1.000000 0.512845
1.000000 1.000000 0.528542
1.000000 1.000000 0.544240
0.000000 0.000000 0.000000
0.000000 0.000000 0.000000
0.000000 0.000000 0.000000
0.000000 0.000000 0.000000
0.008775 0.000000 0.000000
0.059473 0.000000 0.000000
0.110170 0.000000 0.000000
0.160868 0.000000 0.000000
0.211565 0.000000 0.000000
0.262262 0.000000 0.000000
0.312960 0.000000 0.000000
0.363658 0.000000 0.013657
0.414355 0.000000 0.029355
0.465052 0.010053 0.045053
0.515750 0.025750 0.060750
0.566447 0.041447 0.076448
0.617145 0.057145 0.092145
0.000000 0.000000 0.000000
0.000000 0.000000 0.000000
0.000000 0.000000 0.000000
0.000000 0.000000 0.000000
0.039593 0.000000 0.000000
0.090290 0.000000 0.000000
0.140988 0.000000 0.000000
0.191685 0.000000 0.000000
0.242383 0.000000 0.000000
0.293080 0.013080 0.013080
0.343778 0.028777 0.028777
0.394475 0.044475 0.044475
0.445173 0.060173 0.060173
0.495870 0.075870 0.075870
0.546567 0.091567 0.091567
0.597265 0.107265 0.107265
0.647962 0.122962 0.122962
0.000000 0.000000 0.000000
0.000000 0.000000 0.000000
0.000000 0.000000 0.000000
0.019713 0.000000 0.000000
0.070410 0.000410 0.000000
0.121107 0.016107 0.000000
0.171805 0.031805 0.000000
0.222502 0.047503 0.012502
0.273200 0.063200 0.028200
0.323897 0.078897 0.043898
0.374595 0.094595 0.059595
0.425293 0.110293 0.075292
0.475990 0.125990 0.090990
0.526687 0.141688 0.106687
0.577385 0.157385 0.122385
0.628082 0.173082 0.138082
0.678780 0.188780 0.153780
0.000000 0.003438 0.000000
0.000000 0.019135 0.000000
0.000000 0.034832 0.000000
0.050530 0.050530 0.000000
0.101227 0.066228 0.000000
0.151925 0.081925 0.011925
0.202623 0.097623 0.027623
0.253320 0.113320 0.043320
0.304017 0.129017 0.059018
0.354715 0.144715 0.074715
0.405412 0.160413 0.090412
0.456110 0.176110 0.106110
0.506807 0.191808 0.121807
0.557505 0.207505 0.137505
0.608202 0.223203 0.153203
0.658900 0.238900 0.168900
0.709597 0.254597 0.184597
0.000000 0.069255 0.000000
0.000000 0.084952 0.000000
0.030650 0.100650 0.000000
0.081348 0.116348 0.011348
0.132045 0.132045 0.027045
0.182743 0.147742 0.042743
0.233440 0.163440 0.058440
0.284137 0.179138 0.074137
0.334835 0.194835 0.089835
0.385533 0.210533 0.105532
0.436230 0.226230 0.121230
0.486928 0.241927 0.136928
0.537625 0.257625 0.152625
0.588322 0.273323 0.168322
0.639020 0.289020 0.184020
0.689717 0.304718 0.199718
0.740415 0.320415 0.215415
0.000000 0.135072 0.000000
0.010770 0.150770 0.010770
0.061468 0.166468 0.026467
0.112165 0.182165 0.042165
0.162862 0.197862 0.057862
0.213560 0.213560 0.073560
0.264257 0.229257 0.089257
0.314955 0.244955 0.104955
0.365652 0.260652 0.120653
0.416350 0.276350 0.136350
0.467047 0.292047 0.152048
0.517745 0.307745 0.167745
0.568442 0.323442 0.183443
0.619140 0.339140 0.199140
0.669837 0.354837 0.214838
0.720535 0.370535 0.230535
0.771232 0.386232 0.246233
0.000000 0.200890 0.025890
0.041587 0.216588 0.041587
0.092285 0.232285 0.057285
0.142983 0.247982 0.072983
0.193680 0.263680 0.088680
0.244377 0.279378 0.104377
0.295075 0.295075 0.120075
0.345773 0.310773 0.135773
0.396470 0.326470 0.151470
0.447167 0.342167 0.167167
0.497865 0.357865 0.182865
0.548562 0.373563 0.198562
0.599260 0.389260 0.214260
0.649957 0.404958 0.229958
0.700655 0.420655 0.245655
0.751353 0.436353 0.261353
0.802050 0.452050 0.277050
0.021707 0.266707 0.056708
0.072405 0.282405 0.072405
0.123103 0.298103 0.088103
0.173800 0.313800 0.103800
0.224498 0.329497 0.119497
0.275195 0.345195 0.135195
0.325893 0.360892 0.150893
0.376590 0.376590 0.166590
0.427287 0.392288 0.182287
0.477985 0.407985 0.197985
0.528682 0.423683 0.213683
0.579380 0.439380 0.229380
0.630077 0.455077 0.245078
0.680775 0.470775 0.260775
0.731472 0.486472 0.276473
0.782170 0.502170 0.292170
0.832868 0.517868 0.307868
0.052525 0.332525 0.087525
0.103222 0.348222 0.103222
0.153920 0.363920 0.118920
0.204618 0.379617 0.134617
0.255315 0.395315 0.150315
0.306012 0.411013 0.166013
0.356710 0.426710 0.181710
0.407408 0.442408 0.197408
0.458105 0.458105 0.213105
0.508803 0.473802 0.228803
0.559500 0.489500 0.244500
0.610197 0.505197 0.260198
0.660895 0.520895 0.275895
0.711593 0.536593 0.291593
0.762290 0.552290 0.307290
0.812987 0.567988 0.322988
0.863685 0.583685 0.338685
0.083342 0.398342 0.118342
0.134040 0.414040 0.134040
0.184737 0.429737 0.149738
0.235435 0.445435 0.165435
0.286133 0.461132 0.181132
0.336830 0.476830 0.196830
0.387528 0.492528 0.212528
0.438225 0.508225 0.228225
0.488922 0.523922 0.243922
0.539620 0.539620 0.259620
0.590317 0.555318 0.275318
0.641015 0.571015 0.291015
0.691712 0.586712 0.306712
0.742410 0.602410 0.322410
0.793107 0.618108 0.338108
0.843805 0.633805 0.353805
0.894503 0.649503 0.369503
0.114160 0.464160 0.149160
0.164857 0.479857 0.164857
0.215555 0.495555 0.180555
0.266253 0.511252 0.196252
0.316950 0.526950 0.211950
0.367647 0.542647 0.227648
0.418345 0.558345 0.243345
0.469043 0.574043 0.259043
0.519740 0.589740 0.274740
0.570437 0.605437 0.290438
0.621135 0.621135 0.306135
0.671832 0.636833 0.321833
0.722530 0.652530 0.337530
0.773227 0.668227 0.353228
0.823925 0.683925 0.368925
0.874622 0.699622 0.384622
0.925320 0.715320 0.400320
0.144977 0.529978 0.179978
0.195675 0.545675 0.195675
0.246372 0.561372 0.211372
0.297070 0.577070 0.227070
0.347767 0.592768 0.242768
0.398465 0.608465 0.258465
0.449163 0.624163 0.274163
0.499860 0.639860 0.289860
0.550558 0.655558 0.305558
0.601255 0.671255 0.321255
0.651952 0.686953 0.336953
0.702650 0.702650 0.352650
0.753348 0.718348 0.368348
0.804045 0.734045 0.384045
0.854743 0.749743 0.399743
0.905440 0.765440 0.415440
0.956138 0.781138 0.431138
0.175795 0.595795 0.210795
0.226493 0.611492 0.226493
0.277190 0.627190 0.242190
0.327887 0.642887 0.257887
0.378585 0.658585 0.273585
0.429283 0.674283 0.289282
0.479980 0.689980 0.304980
0.530678 0.705677 0.320678
0.581375 0.721375 0.336375
0.632072 0.737073 0.352073
0.682770 0.752770 0.367770
0.733467 0.768468 0.383467
0.784165 0.784165 0.399165
0.834862 0.799862 0.414863
0.885560 0.815560 0.430560
0.936258 0.831258 0.446258
0.986955 0.846955 0.461955
0.206612 0.661612 0.241613
0.257310 0.677310 0.257310
0.308007 0.693007 0.273008
0.358705 0.708705 0.288705
0.409403 0.724403 0.304403
0.460100 0.740100 0.320100
0.510798 0.755798 0.335798
0.561495 0.771495 0.351495
0.612192 0.787192 0.367193
0.662890 0.802890 0.382890
0.713587 0.818588 0.398588
0.764285 0.834285 0.414285
0.814983 0.849983 0.429983
0.865680 0.865680 0.445680
0.916378 0.881378 0.461378
0.967075 0.897075 0.477075
1.000000 0.912772 0.492773
0.237430 0.727430 0.272430
0.288128 0.743128 0.288128
0.338825 0.758825 0.303825
0.389523 0.774523 0.319523
0.440220 0.790220 0.335220
0.490917 0.805917 0.350917
0.541615 0.821615 0.366615
0.592313 0.837313 0.382313
0.643010 0.853010 0.398010
0.693707 0.868707 0.413708
0.744405 0.884405 0.429405
0.795103 0.900103 0.445103
0.845800 0.915800 0.460800
0.896498 0.931497 0.476498
0.947195 0.947195 0.492195
0.997893 0.962892 0.507892
1.000000 0.978590 0.523590
0.268247 0.793247 0.303248
0.318945 0.808945 0.318945
0.369642 0.824642 0.334643
0.420340 0.840340 0.350340
0.471038 0.856037 0.366038
0.521735 0.871735 0.381735
0.572433 0.887433 0.397433
0.623130 0.903130 0.413130
0.673827 0.918827 0.428828
0.724525 0.934525 0.444525
0.775223 0.950222 0.460223
0.825920 0.965920 0.475920
0.876618 0.981618 0.491618
0.927315 0.997315 0.507315
0.978013 1.000000 0.523012
1.000000 1.000000 0.538710
1.000000 1.000000 0.554408
0.299065 0.859065 0.334065
0.349763 0.874763 0.349763
0.400460 0.890460 0.365460
0.451158 0.906157 0.381158
0.501855 0.921855 0.396855
0.552553 0.937552 0.412552
0.603250 0.953250 0.428250
0.653947 0.968948 0.443947
0.704645 0.984645 0.459645
0.755342 1.000000 0.475342
0.806040 1.000000 0.491040
0.856737 1.000000 0.506737
0.907435 1.000000 0.522435
0.958133 1.000000 0.538133
1.000000 1.000000 0.553830
1.000000 1.000000 0.569527
1.000000 1.000000 0.585225
0.000000 0.000000 0.000000
0.000000 0.000000 0.000000
0.000000 0.000000 0.000000
0.000000 0.000000 0.000000
0.014760 0.000000 0.000000
0.065457 0.000000 0.000000
0.116155 0.000000 0.000000
0.166853 0.000000 0.000000
0.217550 0.000000 0.007550
0.268247 0.000000 0.023248
0.318945 0.000000 0.038945
0.369642 0.000000 0.054642
0.420340 0.000340 0.070340
0.471038 0.016037 0.086038
0.521735 0.031735 0.101735
0.572433 0.047433 0.117432
0.623130 0.063130 0.133130
0.000000 0.000000 0.000000
0.000000 0.000000 0.000000
0.000000 0.000000 0.000000
0.000000 0.000000 0.000000
0.045578 0.000000 0.000000
0.096275 0.000000 0.000000
0.146973 0.000000 0.006973
0.197670 0.000000 0.022670
0.248368 0.003368 0.038367
0.299065 0.019065 0.054065
0.349762 0.034763 0.069763
0.400460 0.050460 0.085460
0.451158 0.066157 0.101158
0.501855 0.081855 0.116855
0.552553 0.097552 0.132552
0.603250 0.113250 0.148250
0.653947 0.128947 0.163948
0.000000 0.000000 0.000000
0.000000 0.000000 0.000000
0.000000 0.000000 0.000000
0.025697 0.000000 0.000000
0.076395 0.006395 0.006395
0.127092 0.022093 0.022093
0.177790 0.037790 0.037790
0.228488 0.053488 0.053488
0.279185 0.069185 0.069185
0.329882 0.084883 0.084883
0.380580 0.100580 0.100580
0.431277 0.116277 0.116277
0.481975 0.131975 0.131975
0.532672 0.147672 0.147672
0.583370 0.163370 0.163370
0.634068 0.179067 0.179067
0.684765 0.194765 0.194765
0.000000 0.009423 0.000000
0.000000 0.025120 0.000000
0.005818 0.040818 0.005818
0.056515 0.056515 0.021515
0.107213 0.072213 0.037213
0.157910 0.087910 0.052910
0.208608 0.103608 0.068607
0.259305 0.119305 0.084305
0.310002 0.135003 0.100002
0.360700 0.150700 0.115700
0.411397 0.166398 0.131398
0.462095 0.182095 0.147095
0.512792 0.197793 0.162793
0.563490 0.213490 0.178490
0.614187 0.229187 0.194188
0.664885 0.244885 0.209885
0.715582 0.260582 0.225582
0.000000 0.075240 0.005240
0.000000 0.090938 0.020938
0.036635 0.106635 0.036635
0.087333 0.122333 0.052333
0.138030 0.138030 0.068030
0.188727 0.153728 0.083727
0.239425 0.169425 0.099425
0.290123 0.185123 0.115123
0.340820 0.200820 0.130820
0.391517 0.216517 0.146517
0.442215 0.232215 0.162215
0.492913 0.247912 0.177913
0.543610 0.263610 0.193610
0.594307 0.279307 0.209307
0.645005 0.295005 0.225005
0.695702 0.310702 0.240702
0.746400 0.326400 0.256400
0.000000 0.141058 0.036058
0.016755 0.156755 0.051755
0.067452 0.172453 0.067452
0.118150 0.188150 0.083150
0.168847 0.203847 0.098847
0.219545 0.219545 0.114545
0.270243 0.235243 0.130242
0.320940 0.250940 0.145940
0.371637 0.266638 0.161638
0.422335 0.282335 0.177335
0.473032 0.298032 0.193032
0.523730 0.313730 0.208730
0.574427 0.329427 0.224427
0.625125 0.345125 0.240125
0.675822 0.360822 0.255822
0.726520 0.376520 0.271520
0.777217 0.392217 0.287217
0.000000 0.206875 0.066875
0.047573 0.222573 0.082573
0.098270 0.238270 0.098270
0.148967 0.253968 0.113967
0.199665 0.269665 0.129665
0.250362 0.285362 0.145362
0.301060 0.301060 0.161060
0.351757 0.316758 0.176758
0.402455 0.332455 0.192455
0.453152 0.348152 0.208152
0.503850 0.363850 0.223850
0.554547 0.379548 0.239547
0.605245 0.395245 0.255245
0.655942 0.410942 0.270942
0.706640 0.426640 0.286640
0.757337 0.442338 0.302337
0.808035 0.458035 0.318035
0.027693 0.272693 0.097693
0.078390 0.288390 0.113390
0.129088 0.304088 0.129088
0.179785 0.319785 0.144785
0.230482 0.335483 0.160482
0.281180 0.351180 0.176180
0.331877 0.366878 0.191878
0.382575 0.382575 0.207575
0.433272 0.398272 0.223272
0.483970 0.413970 0.238970
0.534668 0.429667 0.254667
0.585365 0.445365 0.270365
0.636062 0.461062 0.286062
0.686760 0.476760 0.301760
0.737457 0.492457 0.317457
0.788155 0.508155 0.333155
0.838853 0.523853 0.348853
0.058510 0.338510 0.128510
0.109207 0.354208 0.144207
0.159905 0.369905 0.159905
0.210603 0.385603 0.175603
0.261300 0.401300 0.191300
0.311998 0.416997 0.206998
0.362695 0.432695 0.222695
0.413392 0.448392 0.238392
0.464090 0.464090 0.254090
0.514787 0.479787 0.269787
0.565485 0.495485 0.285485
0.616182 0.511183 0.301182
0.666880 0.526880 0.316880
0.717577 0.542577 0.332577
0.768275 0.558275 0.348275
0.818972 0.573972 0.363972
0.869670 0.589670 0.379670
0.089328 0.404327 0.159327
0.140025 0.420025 0.175025
0.190722 0.435722 0.190722
0.241420 0.451420 0.206420
0.292118 0.467118 0.222117
0.342815 0.482815 0.237815
0.393513 0.498513 0.253513
0.444210 0.514210 0.269210
0.494907 0.529907 0.284907
0.545605 0.545605 0.300605
0.596302 0.561302 0.316302
0.647000 0.577000 0.332000
0.697697 0.592697 0.347697
0.748395 0.608395 0.363395
0.799092 0.624092 0.379092
0.849790 0.639790 0.394790
0.900487 0.655487 0.410487
0.120145 0.470145 0.190145
0.170843 0.485842 0.205842
0.221540 0.501540 0.221540
0.272237 0.517237 0.237237
0.322935 0.532935 0.252935
0.373632 0.548632 0.268632
0.424330 0.564330 0.284330
0.475027 0.580028 0.300027
0.525725 0.595725 0.315725
0.576423 0.611422 0.331422
0.627120 0.627120 0.347120
0.677817 0.642817 0.362817
0.728515 0.658515 0.378515
0.779212 0.674212 0.394212
0.829910 0.689910 0.409910
0.880607 0.705607 0.425607
0.931305 0.721305 0.441305
0.150962 0.535963 0.220962
0.201660 0.551660 0.236660
0.252358 0.567357 0.252358
0.303055 0.583055 0.268055
0.353753 0.598752 0.283752
0.404450 0.614450 0.299450
0.455148 0.630148 0.315147
0.505845 0.645845 0.330845
0.556543 0.661542 0.346542
0.607240 0.677240 0.362240
0.657937 0.692937 0.377937
0.708635 0.708635 0.393635
0.759332 0.724333 0.409332
0.810030 0.740030 0.425030
0.860727 0.755727 0.440727
0.911425 0.771425 0.456425
0.962122 0.787122 0.472122
0.181780 0.601780 0.251780
0.232478 0.617478 0.267477
0.283175 0.633175 0.283175
0.333873 0.648872 0.298872
0.384570 0.664570 0.314570
0.435267 0.680268 0.330267
0.485965 0.695965 0.345965
0.536663 0.711663 0.361662
0.587360 0.727360 0.377360
0.638057 0.743057 0.393057
0.688755 0.758755 0.408755
0.739452 0.774452 0.424452
0.790150 0.790150 0.440150
0.840847 0.805848 0.455847
0.891545 0.821545 0.471545
0.942242 0.837243 0.487242
0.992940 0.852940 0.502940
0.212597 0.667597 0.282597
0.263295 0.683295 0.298295
0.313992 0.698993 0.313992
0.364690 0.714690 0.329690
0.415387 0.730387 0.345387
0.466085 0.746085 0.361085
0.516783 0.761783 0.376782
0.567480 0.777480 0.392480
0.618178 0.793177 0.408177
0.668875 0.808875 0.423875
0.719572 0.824572 0.439572
0.770270 0.840270 0.455270
0.820967 0.855967 0.470967
0.871665 0.871665 0.486665
0.922362 0.887362 0.502362
0.973060 0.903060 0.518060
1.000000 0.918757 0.533757
0.243415 0.733415 0.313415
0.294112 0.749112 0.329112
0.344810 0.764810 0.344810
0.395507 0.780507 0.360507
0.446205 0.796205 0.376205
0.496902 0.811902 0.391902
0.547600 0.827600 0.407600
0.598298 0.843298 0.423297
0.648995 0.858995 0.438995
0.699692 0.874692 0.454692
0.750390 0.890390 0.470390
0.801087 0.906087 0.486087
0.851785 0.921785 0.501785
0.902482 0.937482 0.517482
0.953180 0.953180 0.533180
1.000000 0.968877 0.548878
1.000000 0.984575 0.564575
0.274232 0.799232 0.344232
0.324930 0.814930 0.359930
0.375628 0.830628 0.375628
0.426325 0.846325 0.391325
0.477022 0.862022 0.407022
0.527720 0.877720 0.422720
0.578418 0.893417 0.438418
0.629115 0.909115 0.454115
0.679812 0.924813 0.469812
0.730510 0.940510 0.485510
0.781207 0.956207 0.501208
0.831905 0.971905 0.516905
0.882602 0.987602 0.532602
0.933300 1.000000 0.548300
0.983997 1.000000 0.563997
1.000000 1.000000 0.579695
1.000000 1.000000 0.595392
0.305050 0.865050 0.375050
0.355747 0.880747 0.390747
0.406445 0.896445 0.406445
0.457142 0.912143 0.422142
0.507840 0.927840 0.437840
0.558537 0.943537 0.453537
0.609235 0.959235 0.469235
0.659933 0.974932 0.484932
0.710630 0.990630 0.500630
0.761327 1.000000 0.516327
0.812025 1.000000 0.532025
0.862722 1.000000 0.547722
0.913420 1.000000 0.563420
0.964117 1.000000 0.579117
1.000000 1.000000 0.594815
1.000000 1.000000 0.610513
1.000000 1.000000 0.626210
0.000000 0.000000 0.000000
0.000000 0.000000 0.000000
0.000000 0.000000 0.000000
0.000000 0.000000 0.000000
0.020745 0.000000 0.000000
0.071443 0.000000 0.001443
0.122140 0.000000 0.017140
0.172838 0.000000 0.032838
0.223535 0.000000 0.048535
0.274233 0.000000 0.064233
0.324930 0.000000 0.079930
0.375628 0.000000 0.095628
0.426325 0.006325 0.111325
0.477023 0.022023 0.127023
0.527720 0.037720 0.142720
0.578418 0.053418 0.158417
0.629115 0.069115 0.174115
0.000000 0.000000 0.000000
