roles/videoref-engine/files/luts/bleach-bypass.cube
TITLE "Bleach Bypass Drama"
LUT_3D_SIZE 5
DOMAIN_MIN 0.0 0.0 0.0
DOMAIN_MAX 1.0 1.0 1.0
0.000000 0.000000 0.000000
0.002790 0.000000 0.000000
0.205580 0.000000 0.000000
0.408370 0.000000 0.000000
0.611160 0.051160 0.051160
0.000000 0.063270 0.000000
0.126060 0.126060 0.000000
0.328850 0.188850 0.048850
0.531640 0.251640 0.111640
0.734430 0.314430 0.174430
0.046540 0.326540 0.046540
0.249330 0.389330 0.109330
0.452120 0.452120 0.172120
0.654910 0.514910 0.234910
0.857700 0.577700 0.297700
0.169810 0.589810 0.169810
0.372600 0.652600 0.232600
0.575390 0.715390 0.295390
0.778180 0.778180 0.358180
0.980970 0.840970 0.420970
0.293080 0.853080 0.293080
0.495870 0.915870 0.355870
0.698660 0.978660 0.418660
0.901450 1.000000 0.481450
1.000000 1.000000 0.544240
0.000000 0.000000 0.000000
0.026730 0.000000 0.026730
0.229520 0.000000 0.089520
0.432310 0.012310 0.152310
0.635100 0.075100 0.215100
0.000000 0.087210 0.087210
0.150000 0.150000 0.150000
0.352790 0.212790 0.212790
0.555580 0.275580 0.275580
0.758370 0.338370 0.338370
0.070480 0.350480 0.210480
0.273270 0.413270 0.273270
0.476060 0.476060 0.336060
0.678850 0.538850 0.398850
0.881640 0.601640 0.461640
0.193750 0.613750 0.333750
0.396540 0.676540 0.396540
0.599330 0.739330 0.459330
0.802120 0.802120 0.522120
1.000000 0.864910 0.584910
0.317020 0.877020 0.457020
0.519810 0.939810 0.519810
0.722600 1.000000 0.582600
0.925390 1.000000 0.645390
1.000000 1.000000 0.708180
0.000000 0.000000 0.127880
0.050670 0.000000 0.190670
0.253460 0.000000 0.253460
0.456250 0.036250 0.316250
0.659040 0.099040 0.379040
0.000000 0.111150 0.251150
0.173940 0.173940 0.313940
0.376730 0.236730 0.376730
0.579520 0.299520 0.439520
0.782310 0.362310 0.502310
0.094420 0.374420 0.374420
0.297210 0.437210 0.437210
0.500000 0.500000 0.500000
0.702790 0.562790 0.562790
0.905580 0.625580 0.625580
0.217690 0.637690 0.497690
0.420480 0.700480 0.560480
0.623270 0.763270 0.623270
0.826060 0.826060 0.686060
1.000000 0.888850 0.748850
0.340960 0.900960 0.620960
0.543750 0.963750 0.683750
0.746540 1.000000 0.746540
0.949330 1.000000 0.809330
1.000000 1.000000 0.872120
0.000000 0.000000 0.291820
0.074610 0.000000 0.354610
0.277400 0.000000 0.417400
0.480190 0.060190 0.480190
0.682980 0.122980 0.542980
0.000000 0.135090 0.415090
0.197880 0.197880 0.477880
0.400670 0.260670 0.540670
0.603460 0.323460 0.603460
0.806250 0.386250 0.666250
0.118360 0.398360 0.538360
0.321150 0.461150 0.601150
0.523940 0.523940 0.663940
0.726730 0.586730 0.726730
0.929520 0.649520 0.789520
0.241630 0.661630 0.661630
0.444420 0.724420 0.724420
0.647210 0.787210 0.787210
0.850000 0.850000 0.850000
1.000000 0.912790 0.912790
0.364900 0.924900 0.784900
0.567690 0.987690 0.847690
0.770480 1.000000 0.910480
0.973270 1.000000 0.973270
1.000000 1.000000 1.000000
0.000000 0.000000 0.455760
0.098550 0.000000 0.518550
0.301340 0.021340 0.581340
0.504130 0.084130 0.644130
0.706920 0.146920 0.706920
0.019030 0.159030 0.579030
0.221820 0.221820 0.641820
0.424610 0.284610 0.704610
0.627400 0.347400 0.767400
0.830190 0.410190 0.830190
0.142300 0.422300 0.702300
0.345090 0.485090 0.765090
0.547880 0.547880 0.827880
0.750670 0.610670 0.890670
0.953460 0.673460 0.953460
0.265570 0.685570 0.825570
0.468360 0.748360 0.888360
0.671150 0.811150 0.951150
0.873940 0.873940 1.000000
1.000000 0.936730 1.000000
0.388840 0.948840 0.948840
0.591630 1.000000 1.000000
0.794420 1.000000 1.000000
0.997210 1.000000 1.000000
1.000000 1.000000 1.000000
