roles/videoref-engine/files/luts/bleach-bypass.cube
TITLE "Bleach Bypass Drama"
LUT_3D_SIZE 9
DOMAIN_MIN 0.0 0.0 0.0
DOMAIN_MAX 1.0 1.0 1.0
0.000000 0.000000 0.000000
0.000000 0.000000 0.000000
0.002790 0.000000 0.000000
0.104185 0.000000 0.000000
0.205580 0.000000 0.000000
0.306975 0.000000 0.000000
0.408370 0.000000 0.000000
0.509765 0.019765 0.019765
0.611160 0.051160 0.051160
0.000000 0.000000 0.000000
0.000000 0.000000 0.000000
0.064425 0.000000 0.000000
0.165820 0.025820 0.000000
0.267215 0.057215 0.000000
0.368610 0.088610 0.018610
0.470005 0.120005 0.050005
0.571400 0.151400 0.081400
0.672795 0.182795 0.112795
0.000000 0.063270 0.000000
0.024665 0.094665 0.000000
0.126060 0.126060 0.000000
0.227455 0.157455 0.017455
0.328850 0.188850 0.048850
0.430245 0.220245 0.080245
0.531640 0.251640 0.111640
0.633035 0.283035 0.143035
0.734430 0.314430 0.174430
0.000000 0.194905 0.000000
0.086300 0.226300 0.016300
0.187695 0.257695 0.047695
0.289090 0.289090 0.079090
0.390485 0.320485 0.110485
0.491880 0.351880 0.141880
0.593275 0.383275 0.173275
0.694670 0.414670 0.204670
0.796065 0.446065 0.236065
0.046540 0.326540 0.046540
0.147935 0.357935 0.077935
0.249330 0.389330 0.109330
0.350725 0.420725 0.140725
0.452120 0.452120 0.172120
0.553515 0.483515 0.203515
0.654910 0.514910 0.234910
0.756305 0.546305 0.266305
0.857700 0.577700 0.297700
0.108175 0.458175 0.108175
0.209570 0.489570 0.139570
0.310965 0.520965 0.170965
0.412360 0.552360 0.202360
0.513755 0.583755 0.233755
0.615150 0.615150 0.265150
0.716545 0.646545 0.296545
0.817940 0.677940 0.327940
0.919335 0.709335 0.359335
0.169810 0.589810 0.169810
0.271205 0.621205 0.201205
0.372600 0.652600 0.232600
0.473995 0.683995 0.263995
0.575390 0.715390 0.295390
0.676785 0.746785 0.326785
0.778180 0.778180 0.358180
0.879575 0.809575 0.389575
0.980970 0.840970 0.420970
0.231445 0.721445 0.231445
0.332840 0.752840 0.262840
0.434235 0.784235 0.294235
0.535630 0.815630 0.325630
0.637025 0.847025 0.357025
0.738420 0.878420 0.388420
0.839815 0.909815 0.419815
0.941210 0.941210 0.451210
1.000000 0.972605 0.482605
0.293080 0.853080 0.293080
0.394475 0.884475 0.324475
0.495870 0.915870 0.355870
0.597265 0.947265 0.387265
0.698660 0.978660 0.418660
0.800055 1.000000 0.450055
0.901450 1.000000 0.481450
1.000000 1.000000 0.512845
1.000000 1.000000 0.544240
0.000000 0.000000 0.000000
0.000000 0.000000 0.000000
0.014760 0.000000 0.000000
0.116155 0.000000 0.000000
0.217550 0.000000 0.007550
0.318945 0.000000 0.038945
0.420340 0.000340 0.070340
0.521735 0.031735 0.101735
0.623130 0.063130 0.133130
0.000000 0.000000 0.000000
0.000000 0.000000 0.000000
0.076395 0.006395 0.006395
0.177790 0.037790 0.037790
0.279185 0.069185 0.069185
0.380580 0.100580 0.100580
0.481975 0.131975 0.131975
0.583370 0.163370 0.163370
0.684765 0.194765 0.194765
0.000000 0.075240 0.005240
0.036635 0.106635 0.036635
0.138030 0.138030 0.068030
0.239425 0.169425 0.099425
0.340820 0.200820 0.130820
0.442215 0.232215 0.162215
0.543610 0.263610 0.193610
0.645005 0.295005 0.225005
0.746400 0.326400 0.256400
0.000000 0.206875 0.066875
0.098270 0.238270 0.098270
0.199665 0.269665 0.129665
0.301060 0.301060 0.161060
0.402455 0.332455 0.192455
0.503850 0.363850 0.223850
0.605245 0.395245 0.255245
0.706640 0.426640 0.286640
0.808035 0.458035 0.318035
0.058510 0.338510 0.128510
0.159905 0.369905 0.159905
0.261300 0.401300 0.191300
0.362695 0.432695 0.222695
0.464090 0.464090 0.254090
0.565485 0.495485 0.285485
0.666880 0.526880 0.316880
0.768275 0.558275 0.348275
0.869670 0.589670 0.379670
0.120145 0.470145 0.190145
0.221540 0.501540 0.221540
0.322935 0.532935 0.252935
0.424330 0.564330 0.284330
0.525725 0.595725 0.315725
0.627120 0.627120 0.347120
0.728515 0.658515 0.378515
0.829910 0.689910 0.409910
0.931305 0.721305 0.441305
0.181780 0.601780 0.251780
0.283175 0.633175 0.283175
0.384570 0.664570 0.314570
0.485965 0.695965 0.345965
0.587360 0.727360 0.377360
0.688755 0.758755 0.408755
0.790150 0.790150 0.440150
0.891545 0.821545 0.471545
0.992940 0.852940 0.502940
0.243415 0.733415 0.313415
0.344810 0.764810 0.344810
0.446205 0.796205 0.376205
0.547600 0.827600 0.407600
0.648995 0.858995 0.438995
0.750390 0.890390 0.470390
0.851785 0.921785 0.501785
0.953180 0.953180 0.533180
1.000000 0.984575 0.564575
0.305050 0.865050 0.375050
0.406445 0.896445 0.406445
0.507840 0.927840 0.437840
0.609235 0.959235 0.469235
0.710630 0.990630 0.500630
0.812025 1.000000 0.532025
0.913420 1.000000 0.563420
1.000000 1.000000 0.594815
1.000000 1.000000 0.626210
0.000000 0.000000 0.000000
0.000000 0.000000 0.000000
0.026730 0.000000 0.026730
0.128125 0.000000 0.058125
0.229520 0.000000 0.089520
0.330915 0.000000 0.120915
0.432310 0.012310 0.152310
0.533705 0.043705 0.183705
0.635100 0.075100 0.215100
0.000000 0.000000 0.025575
0.000000 0.000000 0.056970
0.088365 0.018365 0.088365
0.189760 0.049760 0.119760
0.291155 0.081155 0.151155
0.392550 0.112550 0.182550
0.493945 0.143945 0.213945
0.595340 0.175340 0.245340
0.696735 0.206735 0.276735
0.000000 0.087210 0.087210
0.048605 0.118605 0.118605
0.150000 0.150000 0.150000
0.251395 0.181395 0.181395
0.352790 0.212790 0.212790
0.454185 0.244185 0.244185
0.555580 0.275580 0.275580
0.656975 0.306975 0.306975
0.758370 0.338370 0.338370
0.008845 0.218845 0.148845
0.110240 0.250240 0.180240
0.211635 0.281635 0.211635
0.313030 0.313030 0.243030
0.414425 0.344425 0.274425
0.515820 0.375820 0.305820
0.617215 0.407215 0.337215
0.718610 0.438610 0.368610
0.820005 0.470005 0.400005
0.070480 0.350480 0.210480
0.171875 0.381875 0.241875
0.273270 0.413270 0.273270
0.374665 0.444665 0.304665
0.476060 0.476060 0.336060
0.577455 0.507455 0.367455
0.678850 0.538850 0.398850
0.780245 0.570245 0.430245
0.881640 0.601640 0.461640
0.132115 0.482115 0.272115
0.233510 0.513510 0.303510
0.334905 0.544905 0.334905
0.436300 0.576300 0.366300
0.537695 0.607695 0.397695
0.639090 0.639090 0.429090
0.740485 0.670485 0.460485
0.841880 0.701880 0.491880
0.943275 0.733275 0.523275
0.193750 0.613750 0.333750
0.295145 0.645145 0.365145
0.396540 0.676540 0.396540
0.497935 0.707935 0.427935
0.599330 0.739330 0.459330
0.700725 0.770725 0.490725
0.802120 0.802120 0.522120
0.903515 0.833515 0.553515
1.000000 0.864910 0.584910
0.255385 0.745385 0.395385
0.356780 0.776780 0.426780
0.458175 0.808175 0.458175
0.559570 0.839570 0.489570
0.660965 0.870965 0.520965
0.762360 0.902360 0.552360
0.863755 0.933755 0.583755
0.965150 0.965150 0.615150
1.000000 0.996545 0.646545
0.317020 0.877020 0.457020
0.418415 0.908415 0.488415
0.519810 0.939810 0.519810
0.621205 0.971205 0.551205
0.722600 1.000000 0.582600
0.823995 1.000000 0.613995
0.925390 1.000000 0.645390
1.000000 1.000000 0.676785
1.000000 1.000000 0.708180
0.000000 0.000000 0.045910
0.000000 0.000000 0.077305
0.038700 0.000000 0.108700
0.140095 0.000000 0.140095
0.241490 0.000000 0.171490
0.342885 0.000000 0.202885
0.444280 0.024280 0.234280
0.545675 0.055675 0.265675
0.647070 0.087070 0.297070
0.000000 0.000000 0.107545
0.000000 0.000000 0.138940
0.100335 0.030335 0.170335
0.201730 0.061730 0.201730
0.303125 0.093125 0.233125
0.404520 0.124520 0.264520
0.505915 0.155915 0.295915
0.607310 0.187310 0.327310
0.708705 0.218705 0.358705
0.000000 0.099180 0.169180
0.060575 0.130575 0.200575
0.161970 0.161970 0.231970
0.263365 0.193365 0.263365
0.364760 0.224760 0.294760
0.466155 0.256155 0.326155
0.567550 0.287550 0.357550
0.668945 0.318945 0.388945
0.770340 0.350340 0.420340
0.020815 0.230815 0.230815
0.122210 0.262210 0.262210
0.223605 0.293605 0.293605
0.325000 0.325000 0.325000
0.426395 0.356395 0.356395
0.527790 0.387790 0.387790
0.629185 0.419185 0.419185
0.730580 0.450580 0.450580
0.831975 0.481975 0.481975
0.082450 0.362450 0.292450
0.183845 0.393845 0.323845
0.285240 0.425240 0.355240
0.386635 0.456635 0.386635
0.488030 0.488030 0.418030
0.589425 0.519425 0.449425
0.690820 0.550820 0.480820
0.792215 0.582215 0.512215
0.893610 0.613610 0.543610
0.144085 0.494085 0.354085
0.245480 0.525480 0.385480
0.346875 0.556875 0.416875
0.448270 0.588270 0.448270
0.549665 0.619665 0.479665
0.651060 0.651060 0.511060
0.752455 0.682455 0.542455
0.853850 0.713850 0.573850
0.955245 0.745245 0.605245
0.205720 0.625720 0.415720
0.307115 0.657115 0.447115
0.408510 0.688510 0.478510
0.509905 0.719905 0.509905
0.611300 0.751300 0.541300
0.712695 0.782695 0.572695
0.814090 0.814090 0.604090
0.915485 0.845485 0.635485
1.000000 0.876880 0.666880
0.267355 0.757355 0.477355
0.368750 0.788750 0.508750
0.470145 0.820145 0.540145
0.571540 0.851540 0.571540
0.672935 0.882935 0.602935
0.774330 0.914330 0.634330
0.875725 0.945725 0.665725
0.977120 0.977120 0.697120
1.000000 1.000000 0.728515
0.328990 0.888990 0.538990
0.430385 0.920385 0.570385
0.531780 0.951780 0.601780
0.633175 0.983175 0.633175
0.734570 1.000000 0.664570
0.835965 1.000000 0.695965
0.937360 1.000000 0.727360
1.000000 1.000000 0.758755
1.000000 1.000000 0.790150
0.000000 0.000000 0.127880
0.000000 0.000000 0.159275
0.050670 0.000000 0.190670
0.152065 0.000000 0.222065
0.253460 0.000000 0.253460
0.354855 0.004855 0.284855
0.456250 0.036250 0.316250
0.557645 0.067645 0.347645
0.659040 0.099040 0.379040
0.000000 0.000000 0.189515
0.010910 0.010910 0.220910
0.112305 0.042305 0.252305
0.213700 0.073700 0.283700
0.315095 0.105095 0.315095
0.416490 0.136490 0.346490
0.517885 0.167885 0.377885
0.619280 0.199280 0.409280
0.720675 0.230675 0.440675
0.000000 0.111150 0.251150
0.072545 0.142545 0.282545
0.173940 0.173940 0.313940
0.275335 0.205335 0.345335
0.376730 0.236730 0.376730
0.478125 0.268125 0.408125
0.579520 0.299520 0.439520
0.680915 0.330915 0.470915
0.782310 0.362310 0.502310
0.032785 0.242785 0.312785
0.134180 0.274180 0.344180
0.235575 0.305575 0.375575
0.336970 0.336970 0.406970
0.438365 0.368365 0.438365
0.539760 0.399760 0.469760
0.641155 0.431155 0.501155
0.742550 0.462550 0.532550
0.843945 0.493945 0.563945
0.094420 0.374420 0.374420
0.195815 0.405815 0.405815
0.297210 0.437210 0.437210
0.398605 0.468605 0.468605
0.500000 0.500000 0.500000
0.601395 0.531395 0.531395
0.702790 0.562790 0.562790
0.804185 0.594185 0.594185
0.905580 0.625580 0.625580
0.156055 0.506055 0.436055
0.257450 0.537450 0.467450
0.358845 0.568845 0.498845
0.460240 0.600240 0.530240
0.561635 0.631635 0.561635
0.663030 0.663030 0.593030
0.764425 0.694425 0.624425
0.865820 0.725820 0.655820
0.967215 0.757215 0.687215
0.217690 0.637690 0.497690
0.319085 0.669085 0.529085
0.420480 0.700480 0.560480
0.521875 0.731875 0.591875
0.623270 0.763270 0.623270
0.724665 0.794665 0.654665
0.826060 0.826060 0.686060
0.927455 0.857455 0.717455
1.000000 0.888850 0.748850
0.279325 0.769325 0.559325
0.380720 0.800720 0.590720
0.482115 0.832115 0.622115
0.583510 0.863510 0.653510
0.684905 0.894905 0.684905
0.786300 0.926300 0.716300
0.887695 0.957695 0.747695
0.989090 0.989090 0.779090
1.000000 1.000000 0.810485
0.340960 0.900960 0.620960
0.442355 0.932355 0.652355
0.543750 0.963750 0.683750
0.645145 0.995145 0.715145
0.746540 1.000000 0.746540
0.847935 1.000000 0.777935
0.949330 1.000000 0.809330
1.000000 1.000000 0.840725
1.000000 1.000000 0.872120
0.000000 0.000000 0.209850
0.000000 0.000000 0.241245
0.062640 0.000000 0.272640
0.164035 0.000000 0.304035
0.265430 0.000000 0.335430
0.366825 0.016825 0.366825
0.468220 0.048220 0.398220
0.569615 0.079615 0.429615
0.671010 0.111010 0.461010
0.000000 0.000000 0.271485
0.022880 0.022880 0.302880
0.124275 0.054275 0.334275
0.225670 0.085670 0.365670
0.327065 0.117065 0.397065
0.428460 0.148460 0.428460
0.529855 0.179855 0.459855
0.631250 0.211250 0.491250
0.732645 0.242645 0.522645
0.000000 0.123120 0.333120
0.084515 0.154515 0.364515
0.185910 0.185910 0.395910
0.287305 0.217305 0.427305
0.388700 0.248700 0.458700
0.490095 0.280095 0.490095
0.591490 0.311490 0.521490
0.692885 0.342885 0.552885
0.794280 0.374280 0.584280
0.044755 0.254755 0.394755
0.146150 0.286150 0.426150
0.247545 0.317545 0.457545
0.348940 0.348940 0.488940
0.450335 0.380335 0.520335
0.551730 0.411730 0.551730
0.653125 0.443125 0.583125
0.754520 0.474520 0.614520
0.855915 0.505915 0.645915
0.106390 0.386390 0.456390
0.207785 0.417785 0.487785
0.309180 0.449180 0.519180
0.410575 0.480575 0.550575
0.511970 0.511970 0.581970
0.613365 0.543365 0.613365
0.714760 0.574760 0.644760
0.816155 0.606155 0.676155
0.917550 0.637550 0.707550
0.168025 0.518025 0.518025
0.269420 0.549420 0.549420
0.370815 0.580815 0.580815
0.472210 0.612210 0.612210
0.573605 0.643605 0.643605
0.675000 0.675000 0.675000
0.776395 0.706395 0.706395
0.877790 0.737790 0.737790
0.979185 0.769185 0.769185
0.229660 0.649660 0.579660
0.331055 0.681055 0.611055
0.432450 0.712450 0.642450
0.533845 0.743845 0.673845
0.635240 0.775240 0.705240
0.736635 0.806635 0.736635
0.838030 0.838030 0.768030
0.939425 0.869425 0.799425
1.000000 0.900820 0.830820
0.291295 0.781295 0.641295
0.392690 0.812690 0.672690
0.494085 0.844085 0.704085
0.595480 0.875480 0.735480
0.696875 0.906875 0.766875
0.798270 0.938270 0.798270
0.899665 0.969665 0.829665
1.000000 1.000000 0.861060
1.000000 1.000000 0.892455
0.352930 0.912930 0.702930
0.454325 0.944325 0.734325
0.555720 0.975720 0.765720
0.657115 1.000000 0.797115
0.758510 1.000000 0.828510
0.859905 1.000000 0.859905
0.961300 1.000000 0.891300
1.000000 1.000000 0.922695
1.000000 1.000000 0.954090
0.000000 0.000000 0.291820
0.000000 0.000000 0.323215
0.074610 0.000000 0.354610
0.176005 0.000000 0.386005
0.277400 0.000000 0.417400
0.378795 0.028795 0.448795
0.480190 0.060190 0.480190
0.581585 0.091585 0.511585
0.682980 0.122980 0.542980
0.000000 0.003455 0.353455
0.034850 0.034850 0.384850
0.136245 0.066245 0.416245
0.237640 0.097640 0.447640
0.339035 0.129035 0.479035
0.440430 0.160430 0.510430
0.541825 0.191825 0.541825
0.643220 0.223220 0.573220
0.744615 0.254615 0.604615
0.000000 0.135090 0.415090
0.096485 0.166485 0.446485
0.197880 0.197880 0.477880
0.299275 0.229275 0.509275
0.400670 0.260670 0.540670
0.502065 0.292065 0.572065
0.603460 0.323460 0.603460
0.704855 0.354855 0.634855
0.806250 0.386250 0.666250
0.056725 0.266725 0.476725
0.158120 0.298120 0.508120
0.259515 0.329515 0.539515
0.360910 0.360910 0.570910
0.462305 0.392305 0.602305
0.563700 0.423700 0.633700
0.665095 0.455095 0.665095
0.766490 0.486490 0.696490
0.867885 0.517885 0.727885
0.118360 0.398360 0.538360
0.219755 0.429755 0.569755
0.321150 0.461150 0.601150
0.422545 0.492545 0.632545
0.523940 0.523940 0.663940
0.625335 0.555335 0.695335
0.726730 0.586730 0.726730
0.828125 0.618125 0.758125
0.929520 0.649520 0.789520
0.179995 0.529995 0.599995
0.281390 0.561390 0.631390
0.382785 0.592785 0.662785
0.484180 0.624180 0.694180
0.585575 0.655575 0.725575
0.686970 0.686970 0.756970
0.788365 0.718365 0.788365
0.889760 0.749760 0.819760
0.991155 0.781155 0.851155
0.241630 0.661630 0.661630
0.343025 0.693025 0.693025
0.444420 0.724420 0.724420
0.545815 0.755815 0.755815
0.647210 0.787210 0.787210
0.748605 0.818605 0.818605
0.850000 0.850000 0.850000
0.951395 0.881395 0.881395
1.000000 0.912790 0.912790
0.303265 0.793265 0.723265
0.404660 0.824660 0.754660
0.506055 0.856055 0.786055
0.607450 0.887450 0.817450
0.708845 0.918845 0.848845
0.810240 0.950240 0.880240
0.911635 0.981635 0.911635
1.000000 1.000000 0.943030
1.000000 1.000000 0.974425
0.364900 0.924900 0.784900
0.466295 0.956295 0.816295
0.567690 0.987690 0.847690
0.669085 1.000000 0.879085
0.770480 1.000000 0.910480
0.871875 1.000000 0.941875
0.973270 1.000000 0.973270
1.000000 1.000000 1.000000
1.000000 1.000000 1.000000
0.000000 0.000000 0.373790
0.000000 0.000000 0.405185
0.086580 0.000000 0.436580
0.187975 0.000000 0.467975
0.289370 0.009370 0.499370
0.390765 0.040765 0.530765
0.492160 0.072160 0.562160
0.593555 0.103555 0.593555
0.694950 0.134950 0.624950
0.000000 0.015425 0.435425
0.046820 0.046820 0.466820
0.148215 0.078215 0.498215
0.249610 0.109610 0.529610
0.351005 0.141005 0.561005
0.452400 0.172400 0.592400
0.553795 0.203795 0.623795
0.655190 0.235190 0.655190
0.756585 0.266585 0.686585
0.007060 0.147060 0.497060
0.108455 0.178455 0.528455
0.209850 0.209850 0.559850
0.311245 0.241245 0.591245
0.412640 0.272640 0.622640
0.514035 0.304035 0.654035
0.615430 0.335430 0.685430
0.716825 0.366825 0.716825
0.818220 0.398220 0.748220
0.068695 0.278695 0.558695
0.170090 0.310090 0.590090
0.271485 0.341485 0.621485
0.372880 0.372880 0.652880
0.474275 0.404275 0.684275
0.575670 0.435670 0.715670
0.677065 0.467065 0.747065
0.778460 0.498460 0.778460
0.879855 0.529855 0.809855
0.130330 0.410330 0.620330
0.231725 0.441725 0.651725
0.333120 0.473120 0.683120
0.434515 0.504515 0.714515
0.535910 0.535910 0.745910
0.637305 0.567305 0.777305
0.738700 0.598700 0.808700
0.840095 0.630095 0.840095
0.941490 0.661490 0.871490
0.191965 0.541965 0.681965
0.293360 0.573360 0.713360
0.394755 0.604755 0.744755
0.496150 0.636150 0.776150
0.597545 0.667545 0.807545
0.698940 0.698940 0.838940
0.800335 0.730335 0.870335
0.901730 0.761730 0.901730
1.000000 0.793125 0.933125
0.253600 0.673600 0.743600
0.354995 0.704995 0.774995
0.456390 0.736390 0.806390
0.557785 0.767785 0.837785
0.659180 0.799180 0.869180
0.760575 0.830575 0.900575
0.861970 0.861970 0.931970
0.963365 0.893365 0.963365
1.000000 0.924760 0.994760
0.315235 0.805235 0.805235
0.416630 0.836630 0.836630
0.518025 0.868025 0.868025
0.619420 0.899420 0.899420
0.720815 0.930815 0.930815
0.822210 0.962210 0.962210
0.923605 0.993605 0.993605
1.000000 1.000000 1.000000
1.000000 1.000000 1.000000
0.376870 0.936870 0.866870
0.478265 0.968265 0.898265
0.579660 0.999660 0.929660
0.681055 1.000000 0.961055
0.782450 1.000000 0.992450
0.883845 1.000000 1.000000
0.985240 1.000000 1.000000
1.000000 1.000000 1.000000
1.000000 1.000000 1.000000
0.000000 0.000000 0.455760
0.000000 0.000000 0.487155
0.098550 0.000000 0.518550
0.199945 0.000000 0.549945
0.301340 0.021340 0.581340
0.402735 0.052735 0.612735
0.504130 0.084130 0.644130
0.605525 0.115525 0.675525
0.706920 0.146920 0.706920
0.000000 0.027395 0.517395
0.058790 0.058790 0.548790
0.160185 0.090185 0.580185
0.261580 0.121580 0.611580
0.362975 0.152975 0.642975
0.464370 0.184370 0.674370
0.565765 0.215765 0.705765
0.667160 0.247160 0.737160
0.768555 0.278555 0.768555
0.019030 0.159030 0.579030
0.120425 0.190425 0.610425
0.221820 0.221820 0.641820
0.323215 0.253215 0.673215
0.424610 0.284610 0.704610
0.526005 0.316005 0.736005
0.627400 0.347400 0.767400
0.728795 0.378795 0.798795
0.830190 0.410190 0.830190
0.080665 0.290665 0.640665
0.182060 0.322060 0.672060
0.283455 0.353455 0.703455
0.384850 0.384850 0.734850
0.486245 0.416245 0.766245
0.587640 0.447640 0.797640
0.689035 0.479035 0.829035
0.790430 0.510430 0.860430
0.891825 0.541825 0.891825
0.142300 0.422300 0.702300
0.243695 0.453695 0.733695
0.345090 0.485090 0.765090
0.446485 0.516485 0.796485
0.547880 0.547880 0.827880
0.649275 0.579275 0.859275
0.750670 0.610670 0.890670
0.852065 0.642065 0.922065
0.953460 0.673460 0.953460
0.203935 0.553935 0.763935
0.305330 0.585330 0.795330
0.406725 0.616725 0.826725
0.508120 0.648120 0.858120
0.609515 0.679515 0.889515
0.710910 0.710910 0.920910
0.812305 0.742305 0.952305
0.913700 0.773700 0.983700
1.000000 0.805095 1.000000
0.265570 0.685570 0.825570
0.366965 0.716965 0.856965
0.468360 0.748360 0.888360
0.569755 0.779755 0.919755
0.671150 0.811150 0.951150
0.772545 0.842545 0.982545
0.873940 0.873940 1.000000
0.975335 0.905335 1.000000
1.000000 0.936730 1.000000
0.327205 0.817205 0.887205
0.428600 0.848600 0.918600
0.529995 0.879995 0.949995
0.631390 0.911390 0.981390
0.732785 0.942785 1.000000
0.834180 0.974180 1.000000
0.935575 1.000000 1.000000
1.000000 1.000000 1.000000
1.000000 1.000000 1.000000
0.388840 0.948840 0.948840
0.490235 0.980235 0.980235
0.591630 1.000000 1.000000
0.693025 1.000000 1.000000
0.794420 1.000000 1.000000
0.895815 1.000000 1.000000
0.997210 1.000000 1.000000
1.000000 1.000000 1.000000
1.000000 1.000000 1.000000
