roles/videoref-engine/files/luts/cold-blue.cube
TITLE "Cold Blue Sci-Fi"
LUT_3D_SIZE 17
DOMAIN_MIN 0.0 0.0 0.0
DOMAIN_MAX 1.0 1.0 1.0
0.000000 0.000000 0.063000
0.000324 0.000000 0.068887
0.052148 0.000000 0.074773
0.103972 0.000000 0.080660
0.155796 0.003546 0.086546
0.207620 0.009433 0.092433
0.259444 0.015319 0.098319
0.311268 0.021206 0.104206
0.363092 0.027092 0.110093
0.414917 0.032979 0.115979
0.466741 0.038866 0.121866
0.518565 0.044752 0.127752
0.570389 0.050639 0.133639
0.622213 0.056525 0.139525
0.674037 0.062412 0.145412
0.725861 0.068298 0.151298
0.777685 0.074185 0.157185
0.000000 0.037494 0.074557
0.011881 0.043381 0.080443
0.063705 0.049267 0.086330
0.115529 0.055154 0.092216
0.167353 0.061040 0.098103
0.219177 0.066927 0.103989
0.271001 0.072813 0.109876
0.322825 0.078700 0.115762
0.374649 0.084587 0.121649
0.426473 0.090473 0.127536
0.478297 0.096360 0.133422
0.530121 0.102246 0.139309
0.581945 0.108133 0.145195
0.633769 0.114019 0.151082
0.685593 0.119906 0.156968
0.737417 0.125793 0.162855
0.789242 0.131679 0.168742
0.000000 0.094988 0.086113
0.023437 0.100875 0.092000
0.075261 0.106761 0.097886
0.127085 0.112648 0.103773
0.178909 0.118534 0.109659
0.230733 0.124421 0.115546
0.282557 0.130308 0.121433
0.334382 0.136194 0.127319
0.386206 0.142081 0.133206
0.438030 0.147967 0.139092
0.489854 0.153854 0.144979
0.541678 0.159740 0.150865
0.593502 0.165627 0.156752
0.645326 0.171513 0.162638
0.697150 0.177400 0.168525
0.748974 0.183287 0.174412
0.800798 0.189173 0.180298
0.000000 0.152482 0.097670
0.034994 0.158369 0.103556
0.086818 0.164255 0.109443
0.138642 0.170142 0.115329
0.190466 0.176028 0.121216
0.242290 0.181915 0.127103
0.294114 0.187802 0.132989
0.345938 0.193688 0.138876
0.397762 0.199575 0.144762
0.449586 0.205461 0.150649
0.501410 0.211348 0.156535
0.553234 0.217234 0.162422
0.605058 0.223121 0.168308
0.656882 0.229008 0.174195
0.708707 0.234894 0.180082
0.760531 0.240781 0.185968
0.812355 0.246667 0.191855
0.000000 0.209976 0.109226
0.046550 0.215863 0.115113
0.098374 0.221749 0.120999
0.150198 0.227636 0.126886
0.202023 0.233522 0.132773
0.253847 0.239409 0.138659
0.305671 0.245296 0.144546
0.357495 0.251182 0.150432
0.409319 0.257069 0.156319
0.461143 0.262955 0.162205
0.512967 0.268842 0.168092
0.564791 0.274728 0.173978
0.616615 0.280615 0.179865
0.668439 0.286502 0.185752
0.720263 0.292388 0.191638
0.772087 0.298275 0.197525
0.823911 0.304161 0.203411
0.006283 0.267470 0.120783
0.058107 0.273357 0.126669
0.109931 0.279243 0.132556
0.161755 0.285130 0.138442
0.213579 0.291017 0.144329
0.265403 0.296903 0.150216
0.317227 0.302790 0.156102
0.369051 0.308676 0.161989
0.420875 0.314563 0.167875
0.472699 0.320449 0.173762
0.524523 0.326336 0.179648
0.576348 0.332222 0.185535
0.628172 0.338109 0.191422
0.679996 0.343996 0.197308
0.731820 0.349882 0.203195
0.783644 0.355769 0.209081
0.835468 0.361655 0.214968
0.017839 0.324964 0.132339
0.069663 0.330851 0.138226
0.121488 0.336737 0.144112
0.173312 0.342624 0.149999
0.225136 0.348511 0.155886
0.276960 0.354397 0.161772
0.328784 0.360284 0.167659
0.380608 0.366170 0.173545
0.432432 0.372057 0.179432
0.484256 0.377943 0.185318
0.536080 0.383830 0.191205
0.587904 0.389717 0.197092
0.639728 0.395603 0.202978
0.691552 0.401490 0.208865
0.743376 0.407376 0.214751
0.795200 0.413263 0.220638
0.847024 0.419149 0.226524
0.029396 0.382458 0.143896
0.081220 0.388345 0.149783
0.133044 0.394232 0.155669
0.184868 0.400118 0.161556
0.236692 0.406005 0.167442
0.288516 0.411891 0.173329
0.340340 0.417778 0.179215
0.392164 0.423664 0.185102
0.443988 0.429551 0.190988
0.495812 0.435437 0.196875
0.547637 0.441324 0.202762
0.599461 0.447211 0.208648
0.651285 0.453097 0.214535
0.703109 0.458984 0.220421
0.754933 0.464870 0.226308
0.806757 0.470757 0.232194
0.858581 0.476643 0.238081
0.040952 0.439952 0.155452
0.092777 0.445839 0.161339
0.144601 0.451726 0.167226
0.196425 0.457612 0.173112
0.248249 0.463499 0.178999
0.300073 0.469385 0.184885
0.351897 0.475272 0.190772
0.403721 0.481158 0.196658
0.455545 0.487045 0.202545
0.507369 0.492932 0.208432
0.559193 0.498818 0.214318
0.611017 0.504705 0.220205
0.662841 0.510591 0.226091
0.714665 0.516478 0.231978
0.766489 0.522364 0.237864
0.818313 0.528251 0.243751
0.870137 0.534137 0.249638
0.052509 0.497447 0.167009
0.104333 0.503333 0.172896
0.156157 0.509220 0.178782
0.207981 0.515106 0.184669
0.259805 0.520993 0.190555
0.311629 0.526879 0.196442
0.363453 0.532766 0.202328
0.415277 0.538652 0.208215
0.467102 0.544539 0.214102
0.518926 0.550426 0.219988
0.570750 0.556312 0.225875
0.622574 0.562199 0.231761
0.674398 0.568085 0.237648
0.726222 0.573972 0.243534
0.778046 0.579858 0.249421
0.829870 0.585745 0.255307
0.881694 0.591632 0.261194
0.064066 0.554941 0.178566
0.115890 0.560827 0.184452
0.167714 0.566714 0.190339
0.219538 0.572600 0.196225
0.271362 0.578487 0.202112
0.323186 0.584373 0.207998
0.375010 0.590260 0.213885
0.426834 0.596147 0.219772
0.478658 0.602033 0.225658
0.530482 0.607920 0.231545
0.582306 0.613806 0.237431
0.634130 0.619693 0.243318
0.685954 0.625579 0.249204
0.737778 0.631466 0.255091
0.789602 0.637352 0.260977
0.841427 0.643239 0.266864
0.893251 0.649126 0.272751
0.075622 0.612435 0.190122
0.127446 0.618321 0.196009
0.179270 0.624208 0.201895
0.231094 0.630094 0.207782
0.282918 0.635981 0.213668
0.334742 0.641867 0.219555
0.386567 0.647754 0.225442
0.438391 0.653641 0.231328
0.490215 0.659527 0.237215
0.542039 0.665414 0.243101
0.593863 0.671300 0.248988
0.645687 0.677187 0.254874
0.697511 0.683073 0.260761
0.749335 0.688960 0.266648
0.801159 0.694847 0.272534
0.852983 0.700733 0.278421
0.904807 0.706620 0.284307
0.087179 0.669929 0.201679
0.139003 0.675815 0.207565
0.190827 0.681702 0.213452
0.242651 0.687588 0.219338
0.294475 0.693475 0.225225
0.346299 0.699362 0.231112
0.398123 0.705248 0.236998
0.449947 0.711135 0.242885
0.501771 0.717021 0.248771
0.553595 0.722908 0.254658
0.605419 0.728794 0.260544
0.657243 0.734681 0.266431
0.709067 0.740567 0.272317
0.760892 0.746454 0.278204
0.812716 0.752341 0.284091
0.864540 0.758227 0.289977
0.916364 0.764114 0.295864
0.098735 0.727423 0.213235
0.150559 0.733309 0.219122
0.202383 0.739196 0.225008
0.254207 0.745082 0.230895
0.306032 0.750969 0.236782
0.357856 0.756856 0.242668
0.409680 0.762742 0.248555
0.461504 0.768629 0.254441
0.513328 0.774515 0.260328
0.565152 0.780402 0.266214
0.616976 0.786288 0.272101
0.668800 0.792175 0.277987
0.720624 0.798062 0.283874
0.772448 0.803948 0.289761
0.824272 0.809835 0.295647
0.876096 0.815721 0.301534
0.927920 0.821608 0.307420
0.110292 0.784917 0.224792
0.162116 0.790803 0.230678
0.213940 0.796690 0.236565
0.265764 0.802577 0.242452
0.317588 0.808463 0.248338
0.369412 0.814350 0.254225
0.421236 0.820236 0.260111
0.473060 0.826123 0.265998
0.524884 0.832009 0.271884
0.576708 0.837896 0.277771
0.628533 0.843782 0.283658
0.680357 0.849669 0.289544
0.732181 0.855556 0.295431
0.784005 0.861442 0.301317
0.835829 0.867329 0.307204
0.887653 0.873215 0.313090
0.939477 0.879102 0.318977
0.121848 0.842411 0.236348
0.173672 0.848297 0.242235
0.225497 0.854184 0.248122
0.277321 0.860071 0.254008
0.329145 0.865957 0.259895
0.380969 0.871844 0.265781
0.432793 0.877730 0.271668
0.484617 0.883617 0.277554
0.536441 0.889503 0.283441
0.588265 0.895390 0.289327
0.640089 0.901277 0.295214
0.691913 0.907163 0.301101
0.743737 0.913050 0.306987
0.795561 0.918936 0.312874
0.847385 0.924823 0.318760
0.899209 0.930709 0.324647
0.951033 0.936596 0.330533
0.133405 0.899905 0.247905
0.185229 0.905792 0.253792
0.237053 0.911678 0.259678
0.288877 0.917565 0.265565
0.340701 0.923451 0.271451
0.392525 0.929338 0.277338
0.444349 0.935224 0.283224
0.496173 0.941111 0.289111
0.547997 0.946997 0.294997
0.599822 0.952884 0.300884
0.651646 0.958771 0.306771
0.703470 0.964657 0.312657
0.755294 0.970544 0.318544
0.807118 0.976430 0.324430
0.858942 0.982317 0.330317
0.910766 0.988203 0.336203
0.962590 0.994090 0.342090
0.000000 0.000000 0.111182
0.002568 0.000000 0.117068
0.054392 0.000000 0.122955
0.106217 0.000000 0.128842
0.158041 0.005791 0.134728
0.209865 0.011677 0.140615
0.261689 0.017564 0.146501
0.313513 0.023450 0.152388
0.365337 0.029337 0.158274
0.417161 0.035223 0.164161
0.468985 0.041110 0.170047
0.520809 0.046997 0.175934
0.572633 0.052883 0.181821
0.624457 0.058770 0.187707
0.676281 0.064656 0.193594
0.728105 0.070543 0.199480
0.779929 0.076429 0.205367
0.000000 0.039738 0.122738
0.014125 0.045625 0.128625
0.065949 0.051512 0.134512
0.117773 0.057398 0.140398
0.169597 0.063285 0.146285
0.221421 0.069171 0.152171
0.273245 0.075058 0.158058
0.325069 0.080944 0.163944
0.376893 0.086831 0.169831
0.428718 0.092717 0.175717
0.480542 0.098604 0.181604
0.532366 0.104491 0.187491
0.584190 0.110377 0.193377
0.636014 0.116264 0.199264
0.687838 0.122150 0.205150
0.739662 0.128037 0.211037
0.791486 0.133923 0.216923
0.000000 0.097232 0.134295
0.025682 0.103119 0.140182
0.077506 0.109006 0.146068
0.129330 0.114892 0.151955
0.181154 0.120779 0.157841
0.232978 0.126665 0.163728
0.284802 0.132552 0.169614
0.336626 0.138438 0.175501
0.388450 0.144325 0.181388
0.440274 0.150212 0.187274
0.492098 0.156098 0.193161
0.543922 0.161985 0.199047
0.595746 0.167871 0.204934
0.647570 0.173758 0.210820
0.699394 0.179644 0.216707
0.751218 0.185531 0.222593
0.803042 0.191417 0.228480
0.000000 0.154727 0.145852
0.037238 0.160613 0.151738
0.089062 0.166500 0.157625
0.140886 0.172386 0.163511
0.192710 0.178273 0.169398
0.244534 0.184159 0.175284
0.296358 0.190046 0.181171
0.348182 0.195932 0.187057
0.400007 0.201819 0.192944
0.451831 0.207706 0.198831
0.503655 0.213592 0.204717
0.555479 0.219479 0.210604
0.607303 0.225365 0.216490
0.659127 0.231252 0.222377
0.710951 0.237138 0.228263
0.762775 0.243025 0.234150
0.814599 0.248912 0.240037
0.000000 0.212221 0.157408
0.048795 0.218107 0.163295
0.100619 0.223994 0.169181
0.152443 0.229880 0.175068
0.204267 0.235767 0.180954
0.256091 0.241653 0.186841
0.307915 0.247540 0.192727
0.359739 0.253427 0.198614
0.411563 0.259313 0.204501
0.463387 0.265200 0.210387
0.515211 0.271086 0.216274
0.567035 0.276973 0.222160
0.618859 0.282859 0.228047
0.670683 0.288746 0.233933
0.722507 0.294632 0.239820
0.774332 0.300519 0.245707
0.826156 0.306406 0.251593
0.008527 0.269715 0.168965
0.060351 0.275601 0.174851
0.112175 0.281488 0.180738
0.163999 0.287374 0.186624
0.215823 0.293261 0.192511
0.267648 0.299148 0.198397
0.319472 0.305034 0.204284
0.371296 0.310921 0.210171
0.423120 0.316807 0.216057
0.474944 0.322694 0.221944
0.526768 0.328580 0.227830
0.578592 0.334467 0.233717
0.630416 0.340353 0.239603
0.682240 0.346240 0.245490
0.734064 0.352127 0.251377
0.785888 0.358013 0.257263
0.837712 0.363900 0.263150
0.020084 0.327209 0.180521
0.071908 0.333095 0.186408
0.123732 0.338982 0.192294
0.175556 0.344868 0.198181
0.227380 0.350755 0.204068
0.279204 0.356642 0.209954
0.331028 0.362528 0.215841
0.382852 0.368415 0.221727
0.434676 0.374301 0.227614
0.486500 0.380188 0.233500
0.538324 0.386074 0.239387
0.590148 0.391961 0.245273
0.641972 0.397847 0.251160
0.693797 0.403734 0.257047
0.745621 0.409621 0.262933
0.797445 0.415507 0.268820
0.849269 0.421394 0.274706
0.031640 0.384703 0.192078
0.083464 0.390589 0.197964
0.135288 0.396476 0.203851
0.187112 0.402363 0.209737
0.238937 0.408249 0.215624
0.290761 0.414136 0.221511
0.342585 0.420022 0.227397
0.394409 0.425909 0.233284
0.446233 0.431795 0.239170
0.498057 0.437682 0.245057
0.549881 0.443568 0.250943
0.601705 0.449455 0.256830
0.653529 0.455342 0.262717
0.705353 0.461228 0.268603
0.757177 0.467115 0.274490
0.809001 0.473001 0.280376
0.860825 0.478888 0.286263
0.043197 0.442197 0.203634
0.095021 0.448083 0.209521
0.146845 0.453970 0.215408
0.198669 0.459857 0.221294
0.250493 0.465743 0.227181
0.302317 0.471630 0.233067
0.354141 0.477516 0.238954
0.405965 0.483403 0.244840
0.457789 0.489289 0.250727
0.509613 0.495176 0.256613
0.561437 0.501062 0.262500
0.613262 0.506949 0.268387
0.665086 0.512836 0.274273
0.716910 0.518722 0.280160
0.768734 0.524609 0.286046
0.820558 0.530495 0.291933
0.872382 0.536382 0.297819
0.054753 0.499691 0.215191
0.106577 0.505577 0.221077
0.158402 0.511464 0.226964
0.210226 0.517351 0.232851
0.262050 0.523237 0.238737
0.313874 0.529124 0.244624
0.365698 0.535010 0.250510
0.417522 0.540897 0.256397
0.469346 0.546783 0.262283
0.521170 0.552670 0.268170
0.572994 0.558557 0.274057
0.624818 0.564443 0.279943
0.676642 0.570330 0.285830
0.728466 0.576216 0.291716
0.780290 0.582103 0.297603
0.832114 0.587989 0.303489
0.883938 0.593876 0.309376
0.066310 0.557185 0.226747
0.118134 0.563072 0.232634
0.169958 0.568958 0.238521
0.221782 0.574845 0.244407
0.273606 0.580731 0.250294
0.325430 0.586618 0.256180
0.377254 0.592504 0.262067
0.429078 0.598391 0.267953
0.480903 0.604278 0.273840
0.532727 0.610164 0.279727
0.584551 0.616051 0.285613
0.636375 0.621937 0.291500
0.688199 0.627824 0.297386
0.740023 0.633710 0.303273
0.791847 0.639597 0.309159
0.843671 0.645483 0.315046
0.895495 0.651370 0.320933
0.077867 0.614679 0.238304
0.129691 0.620566 0.244191
0.181515 0.626452 0.250077
0.233339 0.632339 0.255964
0.285163 0.638225 0.261850
0.336987 0.644112 0.267737
0.388811 0.649998 0.273623
0.440635 0.655885 0.279510
0.492459 0.661772 0.285397
0.544283 0.667658 0.291283
0.596107 0.673545 0.297170
0.647931 0.679431 0.303056
0.699755 0.685318 0.308943
0.751579 0.691204 0.314829
0.803403 0.697091 0.320716
0.855228 0.702978 0.326603
0.907052 0.708864 0.332489
0.089423 0.672173 0.249861
0.141247 0.678060 0.255747
0.193071 0.683946 0.261634
0.244895 0.689833 0.267520
0.296719 0.695719 0.273407
0.348543 0.701606 0.279293
0.400367 0.707492 0.285180
0.452192 0.713379 0.291067
0.504016 0.719266 0.296953
0.555840 0.725152 0.302840
0.607664 0.731039 0.308726
0.659488 0.736925 0.314613
0.711312 0.742812 0.320499
0.763136 0.748698 0.326386
0.814960 0.754585 0.332273
0.866784 0.760472 0.338159
0.918608 0.766358 0.344046
0.100980 0.729667 0.261417
0.152804 0.735554 0.267304
0.204628 0.741440 0.273190
0.256452 0.747327 0.279077
0.308276 0.753213 0.284963
0.360100 0.759100 0.290850
0.411924 0.764987 0.296737
0.463748 0.770873 0.302623
0.515572 0.776760 0.308510
0.567396 0.782646 0.314396
0.619220 0.788533 0.320283
0.671044 0.794419 0.326169
0.722868 0.800306 0.332056
0.774692 0.806192 0.337942
0.826517 0.812079 0.343829
0.878341 0.817966 0.349716
0.930165 0.823852 0.355602
0.112536 0.787161 0.272974
0.164360 0.793048 0.278860
0.216184 0.798934 0.284747
0.268008 0.804821 0.290633
0.319832 0.810707 0.296520
0.371657 0.816594 0.302407
0.423481 0.822481 0.308293
0.475305 0.828367 0.314180
0.527129 0.834254 0.320066
0.578953 0.840140 0.325953
0.630777 0.846027 0.331839
0.682601 0.851913 0.337726
0.734425 0.857800 0.343613
0.786249 0.863687 0.349499
0.838073 0.869573 0.355386
0.889897 0.875460 0.361272
0.941721 0.881346 0.367159
0.124093 0.844655 0.284530
0.175917 0.850542 0.290417
0.227741 0.856428 0.296303
0.279565 0.862315 0.302190
0.331389 0.868202 0.308077
0.383213 0.874088 0.313963
0.435037 0.879975 0.319850
0.486861 0.885861 0.325736
0.538685 0.891748 0.331623
0.590509 0.897634 0.337509
0.642333 0.903521 0.343396
0.694157 0.909408 0.349282
0.745982 0.915294 0.355169
0.797806 0.921181 0.361056
0.849630 0.927067 0.366942
0.901454 0.932954 0.372829
0.953278 0.938840 0.378715
0.135649 0.902149 0.296087
0.187473 0.908036 0.301973
0.239298 0.913922 0.307860
0.291122 0.919809 0.313747
0.342946 0.925696 0.319633
0.394770 0.931582 0.325520
0.446594 0.937469 0.331406
0.498418 0.943355 0.337293
0.550242 0.949242 0.343179
0.602066 0.955128 0.349066
0.653890 0.961015 0.354953
0.705714 0.966902 0.360839
0.757538 0.972788 0.366726
0.809362 0.978675 0.372612
0.861186 0.984561 0.378499
0.913010 0.990448 0.384385
0.964834 0.996334 0.390272
0.000000 0.000000 0.159364
0.004813 0.000000 0.165250
0.056637 0.000000 0.171137
0.108461 0.002148 0.177023
0.160285 0.008035 0.182910
0.212109 0.013922 0.188797
0.263933 0.019808 0.194683
0.315757 0.025695 0.200570
0.367581 0.031581 0.206456
0.419405 0.037468 0.212343
0.471229 0.043354 0.218229
0.523053 0.049241 0.224116
0.574877 0.055127 0.230002
0.626702 0.061014 0.235889
0.678526 0.066901 0.241776
0.730350 0.072787 0.247662
0.782174 0.078674 0.253549
0.000000 0.041983 0.170920
0.016369 0.047869 0.176807
0.068193 0.053756 0.182693
0.120017 0.059643 0.188580
0.171842 0.065529 0.194467
0.223666 0.071416 0.200353
0.275490 0.077302 0.206240
0.327314 0.083189 0.212126
0.379138 0.089075 0.218013
0.430962 0.094962 0.223899
0.482786 0.100848 0.229786
0.534610 0.106735 0.235672
0.586434 0.112622 0.241559
0.638258 0.118508 0.247446
0.690082 0.124395 0.253332
0.741906 0.130281 0.259219
0.793730 0.136168 0.265105
0.000000 0.099477 0.182477
0.027926 0.105363 0.188363
0.079750 0.111250 0.194250
0.131574 0.117137 0.200137
0.183398 0.123023 0.206023
0.235222 0.128910 0.211910
0.287046 0.134796 0.217796
0.338870 0.140683 0.223683
0.390694 0.146569 0.229569
0.442518 0.152456 0.235456
0.494343 0.158343 0.241343
0.546167 0.164229 0.247229
0.597991 0.170116 0.253116
0.649815 0.176002 0.259002
0.701639 0.181889 0.264889
0.753463 0.187775 0.270775
0.805287 0.193662 0.276662
0.000000 0.156971 0.194033
0.039483 0.162857 0.199920
0.091307 0.168744 0.205807
0.143131 0.174631 0.211693
0.194955 0.180517 0.217580
0.246779 0.186404 0.223466
0.298603 0.192290 0.229353
0.350427 0.198177 0.235239
0.402251 0.204063 0.241126
0.454075 0.209950 0.247012
0.505899 0.215837 0.252899
0.557723 0.221723 0.258786
0.609547 0.227610 0.264672
0.661371 0.233496 0.270559
0.713195 0.239383 0.276445
0.765019 0.245269 0.282332
0.816843 0.251156 0.288218
0.000000 0.214465 0.205590
0.051039 0.220352 0.211477
0.102863 0.226238 0.217363
0.154687 0.232125 0.223250
0.206511 0.238011 0.229136
0.258335 0.243898 0.235023
0.310159 0.249784 0.240909
0.361983 0.255671 0.246796
0.413807 0.261557 0.252682
0.465632 0.267444 0.258569
0.517456 0.273331 0.264456
0.569280 0.279217 0.270342
0.621104 0.285104 0.276229
0.672928 0.290990 0.282115
0.724752 0.296877 0.288002
0.776576 0.302763 0.293888
0.828400 0.308650 0.299775
0.010772 0.271959 0.217147
0.062596 0.277846 0.223033
0.114420 0.283732 0.228920
0.166244 0.289619 0.234806
0.218068 0.295505 0.240693
0.269892 0.301392 0.246579
0.321716 0.307278 0.252466
0.373540 0.313165 0.258352
0.425364 0.319052 0.264239
0.477188 0.324938 0.270126
0.529012 0.330825 0.276012
0.580836 0.336711 0.281899
0.632660 0.342598 0.287785
0.684484 0.348484 0.293672
0.736308 0.354371 0.299558
0.788133 0.360257 0.305445
0.839957 0.366144 0.311332
0.022328 0.329453 0.228703
0.074152 0.335340 0.234590
0.125976 0.341226 0.240476
0.177800 0.347113 0.246363
0.229624 0.352999 0.252249
0.281448 0.358886 0.258136
0.333272 0.364772 0.264022
0.385097 0.370659 0.269909
0.436921 0.376546 0.275796
0.488745 0.382432 0.281682
0.540569 0.388319 0.287569
0.592393 0.394205 0.293455
0.644217 0.400092 0.299342
0.696041 0.405978 0.305228
0.747865 0.411865 0.311115
0.799689 0.417752 0.317002
0.851513 0.423638 0.322888
0.033885 0.386947 0.240260
0.085709 0.392834 0.246146
0.137533 0.398720 0.252033
0.189357 0.404607 0.257919
0.241181 0.410493 0.263806
0.293005 0.416380 0.269693
0.344829 0.422267 0.275579
0.396653 0.428153 0.281466
0.448477 0.434040 0.287352
0.500301 0.439926 0.293239
0.552125 0.445813 0.299125
0.603949 0.451699 0.305012
0.655773 0.457586 0.310898
0.707597 0.463472 0.316785
0.759422 0.469359 0.322672
0.811246 0.475246 0.328558
0.863070 0.481132 0.334445
0.045441 0.444441 0.251816
0.097265 0.450328 0.257703
0.149089 0.456214 0.263589
0.200913 0.462101 0.269476
0.252737 0.467987 0.275363
0.304562 0.473874 0.281249
0.356386 0.479761 0.287136
0.408210 0.485647 0.293022
0.460034 0.491534 0.298909
0.511858 0.497420 0.304795
0.563682 0.503307 0.310682
0.615506 0.509193 0.316568
0.667330 0.515080 0.322455
0.719154 0.520967 0.328342
0.770978 0.526853 0.334228
0.822802 0.532740 0.340115
0.874626 0.538626 0.346001
0.056998 0.501935 0.263373
0.108822 0.507822 0.269259
0.160646 0.513708 0.275146
0.212470 0.519595 0.281032
0.264294 0.525482 0.286919
0.316118 0.531368 0.292806
0.367942 0.537255 0.298692
0.419766 0.543141 0.304579
0.471590 0.549028 0.310465
0.523414 0.554914 0.316352
0.575238 0.560801 0.322238
0.627062 0.566688 0.328125
0.678887 0.572574 0.334012
0.730711 0.578461 0.339898
0.782535 0.584347 0.345785
0.834359 0.590234 0.351671
0.886183 0.596120 0.357558
0.068554 0.559429 0.274929
0.120378 0.565316 0.280816
0.172202 0.571202 0.286702
0.224027 0.577089 0.292589
0.275851 0.582976 0.298476
0.327675 0.588862 0.304362
0.379499 0.594749 0.310249
0.431323 0.600635 0.316135
0.483147 0.606522 0.322022
0.534971 0.612408 0.327908
0.586795 0.618295 0.333795
0.638619 0.624182 0.339682
0.690443 0.630068 0.345568
0.742267 0.635955 0.351455
0.794091 0.641841 0.357341
0.845915 0.647728 0.363228
0.897739 0.653614 0.369114
0.080111 0.616923 0.286486
0.131935 0.622810 0.292372
0.183759 0.628697 0.298259
0.235583 0.634583 0.304146
0.287407 0.640470 0.310032
0.339231 0.646356 0.315919
0.391055 0.652243 0.321805
0.442879 0.658129 0.327692
0.494703 0.664016 0.333578
0.546527 0.669902 0.339465
0.598352 0.675789 0.345352
0.650176 0.681676 0.351238
0.702000 0.687562 0.357125
0.753824 0.693449 0.363011
0.805648 0.699335 0.368898
0.857472 0.705222 0.374784
0.909296 0.711108 0.380671
0.091667 0.674417 0.298042
0.143492 0.680304 0.303929
0.195316 0.686191 0.309816
0.247140 0.692077 0.315702
0.298964 0.697964 0.321589
0.350788 0.703850 0.327475
0.402612 0.709737 0.333362
0.454436 0.715623 0.339248
0.506260 0.721510 0.345135
0.558084 0.727397 0.351022
0.609908 0.733283 0.356908
0.661732 0.739170 0.362795
0.713556 0.745056 0.368681
0.765380 0.750943 0.374568
0.817204 0.756829 0.380454
0.869028 0.762716 0.386341
0.920852 0.768602 0.392228
0.103224 0.731912 0.309599
0.155048 0.737798 0.315486
0.206872 0.743685 0.321372
0.258696 0.749571 0.327259
0.310520 0.755458 0.333145
0.362344 0.761344 0.339032
0.414168 0.767231 0.344918
0.465992 0.773118 0.350805
0.517817 0.779004 0.356692
0.569641 0.784891 0.362578
0.621465 0.790777 0.368465
0.673289 0.796664 0.374351
0.725113 0.802550 0.380238
0.776937 0.808437 0.386124
0.828761 0.814323 0.392011
0.880585 0.820210 0.397897
0.932409 0.826097 0.403784
0.114781 0.789406 0.321156
0.166605 0.795292 0.327042
0.218429 0.801179 0.332929
0.270253 0.807065 0.338815
0.322077 0.812952 0.344702
0.373901 0.818838 0.350588
0.425725 0.824725 0.356475
0.477549 0.830612 0.362362
0.529373 0.836498 0.368248
0.581197 0.842385 0.374135
0.633021 0.848271 0.380021
0.684845 0.854158 0.385908
0.736669 0.860044 0.391794
0.788493 0.865931 0.397681
0.840317 0.871817 0.403567
0.892142 0.877704 0.409454
0.943966 0.883591 0.415341
0.126337 0.846900 0.332712
0.178161 0.852786 0.338599
0.229985 0.858673 0.344485
0.281809 0.864559 0.350372
0.333633 0.870446 0.356258
0.385458 0.876333 0.362145
0.437282 0.882219 0.368032
0.489106 0.888106 0.373918
0.540930 0.893992 0.379805
0.592754 0.899879 0.385691
0.644578 0.905765 0.391578
0.696402 0.911652 0.397464
0.748226 0.917538 0.403351
0.800050 0.923425 0.409237
0.851874 0.929312 0.415124
0.903698 0.935198 0.421011
0.955522 0.941085 0.426897
0.137894 0.904394 0.344269
0.189718 0.910280 0.350155
0.241542 0.916167 0.356042
0.293366 0.922053 0.361928
0.345190 0.927940 0.367815
0.397014 0.933827 0.373702
0.448838 0.939713 0.379588
0.500662 0.945600 0.385475
0.552486 0.951486 0.391361
0.604310 0.957373 0.397248
0.656134 0.963259 0.403134
0.707958 0.969146 0.409021
0.759782 0.975032 0.414907
0.811607 0.980919 0.420794
0.863431 0.986806 0.426681
0.915255 0.992692 0.432567
0.967079 0.998579 0.438454
0.000000 0.000000 0.207546
0.007057 0.000000 0.213432
0.058881 0.000000 0.219319
0.110705 0.004393 0.225205
0.162529 0.010279 0.231092
0.214353 0.016166 0.236978
0.266177 0.022053 0.242865
0.318002 0.027939 0.248752
0.369826 0.033826 0.254638
0.421650 0.039712 0.260525
0.473474 0.045599 0.266411
0.525298 0.051485 0.272298
0.577122 0.057372 0.278184
0.628946 0.063258 0.284071
0.680770 0.069145 0.289957
0.732594 0.075032 0.295844
0.784418 0.080918 0.301731
0.000000 0.044227 0.219102
