roles/videoref-engine/files/luts/cold-blue.cube
TITLE "Cold Blue Sci-Fi"
LUT_3D_SIZE 9
DOMAIN_MIN 0.0 0.0 0.0
DOMAIN_MAX 1.0 1.0 1.0
0.000000 0.000000 0.063000
0.052148 0.000000 0.074773
0.155796 0.003546 0.086546
0.259444 0.015319 0.098319
0.363092 0.027092 0.110093
0.466741 0.038866 0.121866
0.570389 0.050639 0.133639
0.674037 0.062412 0.145412
0.777685 0.074185 0.157185
0.000000 0.094988 0.086113
0.075261 0.106761 0.097886
0.178909 0.118534 0.109659
0.282557 0.130308 0.121433
0.386206 0.142081 0.133206
0.489854 0.153854 0.144979
0.593502 0.165627 0.156752
0.697150 0.177400 0.168525
0.800798 0.189173 0.180298
0.000000 0.209976 0.109226
0.098374 0.221749 0.120999
0.202023 0.233522 0.132773
0.305671 0.245296 0.144546
0.409319 0.257069 0.156319
0.512967 0.268842 0.168092
0.616615 0.280615 0.179865
0.720263 0.292388 0.191638
0.823911 0.304161 0.203411
0.017839 0.324964 0.132339
0.121488 0.336737 0.144112
0.225136 0.348511 0.155886
0.328784 0.360284 0.167659
0.432432 0.372057 0.179432
0.536080 0.383830 0.191205
0.639728 0.395603 0.202978
0.743376 0.407376 0.214751
0.847024 0.419149 0.226524
0.040952 0.439952 0.155452
0.144601 0.451726 0.167226
0.248249 0.463499 0.178999
0.351897 0.475272 0.190772
0.455545 0.487045 0.202545
0.559193 0.498818 0.214318
0.662841 0.510591 0.226091
0.766489 0.522364 0.237864
0.870137 0.534137 0.249638
0.064066 0.554941 0.178566
0.167714 0.566714 0.190339
0.271362 0.578487 0.202112
0.375010 0.590260 0.213885
0.478658 0.602033 0.225658
0.582306 0.613806 0.237431
0.685954 0.625579 0.249204
0.789602 0.637352 0.260977
0.893251 0.649126 0.272751
0.087179 0.669929 0.201679
0.190827 0.681702 0.213452
0.294475 0.693475 0.225225
0.398123 0.705248 0.236998
0.501771 0.717021 0.248771
0.605419 0.728794 0.260544
0.709067 0.740567 0.272317
0.812716 0.752341 0.284091
0.916364 0.764114 0.295864
0.110292 0.784917 0.224792
0.213940 0.796690 0.236565
0.317588 0.808463 0.248338
0.421236 0.820236 0.260111
0.524884 0.832009 0.271884
0.628533 0.843782 0.283658
0.732181 0.855556 0.295431
0.835829 0.867329 0.307204
0.939477 0.879102 0.318977
0.133405 0.899905 0.247905
0.237053 0.911678 0.259678
0.340701 0.923451 0.271451
0.444349 0.935224 0.283224
0.547997 0.946997 0.294997
0.651646 0.958771 0.306771
0.755294 0.970544 0.318544
0.858942 0.982317 0.330317
0.962590 0.994090 0.342090
0.000000 0.000000 0.159364
0.056637 0.000000 0.171137
0.160285 0.008035 0.182910
0.263933 0.019808 0.194683
0.367581 0.031581 0.206456
0.471229 0.043354 0.218229
0.574877 0.055127 0.230002
0.678526 0.066901 0.241776
0.782174 0.078674 0.253549
0.000000 0.099477 0.182477
0.079750 0.111250 0.194250
0.183398 0.123023 0.206023
0.287046 0.134796 0.217796
0.390694 0.146569 0.229569
0.494343 0.158343 0.241343
0.597991 0.170116 0.253116
0.701639 0.181889 0.264889
0.805287 0.193662 0.276662
0.000000 0.214465 0.205590
0.102863 0.226238 0.217363
0.206511 0.238011 0.229136
0.310159 0.249784 0.240909
0.413807 0.261557 0.252682
0.517456 0.273331 0.264456
0.621104 0.285104 0.276229
0.724752 0.296877 0.288002
0.828400 0.308650 0.299775
0.022328 0.329453 0.228703
0.125976 0.341226 0.240476
0.229624 0.352999 0.252249
0.333272 0.364772 0.264022
0.436921 0.376546 0.275796
0.540569 0.388319 0.287569
0.644217 0.400092 0.299342
0.747865 0.411865 0.311115
0.851513 0.423638 0.322888
0.045441 0.444441 0.251816
0.149089 0.456214 0.263589
0.252737 0.467987 0.275363
0.356386 0.479761 0.287136
0.460034 0.491534 0.298909
0.563682 0.503307 0.310682
0.667330 0.515080 0.322455
0.770978 0.526853 0.334228
0.874626 0.538626 0.346001
0.068554 0.559429 0.274929
0.172202 0.571202 0.286702
0.275851 0.582976 0.298476
0.379499 0.594749 0.310249
0.483147 0.606522 0.322022
0.586795 0.618295 0.333795
0.690443 0.630068 0.345568
0.794091 0.641841 0.357341
0.897739 0.653614 0.369114
0.091667 0.674417 0.298042
0.195316 0.686191 0.309816
0.298964 0.697964 0.321589
0.402612 0.709737 0.333362
0.506260 0.721510 0.345135
0.609908 0.733283 0.356908
0.713556 0.745056 0.368681
0.817204 0.756829 0.380454
0.920852 0.768602 0.392228
0.114781 0.789406 0.321156
0.218429 0.801179 0.332929
0.322077 0.812952 0.344702
0.425725 0.824725 0.356475
0.529373 0.836498 0.368248
0.633021 0.848271 0.380021
0.736669 0.860044 0.391794
0.840317 0.871817 0.403567
0.943966 0.883591 0.415341
0.137894 0.904394 0.344269
0.241542 0.916167 0.356042
0.345190 0.927940 0.367815
0.448838 0.939713 0.379588
0.552486 0.951486 0.391361
0.656134 0.963259 0.403134
0.759782 0.975032 0.414907
0.863431 0.986806 0.426681
0.967079 0.998579 0.438454
0.000000 0.000000 0.255727
0.061126 0.000751 0.267501
0.164774 0.012524 0.279274
0.268422 0.024297 0.291047
0.372070 0.036070 0.302820
0.475718 0.047843 0.314593
0.579366 0.059616 0.326366
0.683014 0.071389 0.338139
0.786662 0.083163 0.349913
0.000000 0.103966 0.278841
0.084239 0.115739 0.290614
0.187887 0.127512 0.302387
0.291535 0.139285 0.314160
0.395183 0.151058 0.325933
0.498831 0.162831 0.337706
0.602479 0.174604 0.349479
0.706127 0.186378 0.361252
0.809776 0.198151 0.373026
0.003704 0.218954 0.301954
0.107352 0.230727 0.313727
0.211000 0.242500 0.325500
0.314648 0.254273 0.337273
0.418296 0.266046 0.349046
0.521944 0.277819 0.360819
0.625592 0.289592 0.372592
0.729241 0.301366 0.384366
0.832889 0.313139 0.396139
0.026817 0.333942 0.325067
0.130465 0.345715 0.336840
0.234113 0.357488 0.348613
0.337761 0.369261 0.360386
0.441409 0.381034 0.372159
0.545057 0.392807 0.383933
0.648706 0.404581 0.395706
0.752354 0.416354 0.407479
0.856002 0.428127 0.419252
0.049930 0.448930 0.348180
0.153578 0.460703 0.359953
0.257226 0.472476 0.371726
0.360874 0.484249 0.383499
0.464522 0.496022 0.395273
0.568171 0.507796 0.407046
0.671819 0.519569 0.418819
0.775467 0.531342 0.430592
0.879115 0.543115 0.442365
0.073043 0.563918 0.371293
0.176691 0.575691 0.383066
0.280339 0.587464 0.394839
0.383987 0.599237 0.406612
0.487636 0.611011 0.418386
0.591284 0.622784 0.430159
0.694932 0.634557 0.441932
0.798580 0.646330 0.453705
0.902228 0.658103 0.465478
0.096156 0.678906 0.394406
0.199804 0.690679 0.406179
0.303452 0.702452 0.417952
0.407101 0.714226 0.429726
0.510749 0.725999 0.441499
0.614397 0.737772 0.453272
0.718045 0.749545 0.465045
0.821693 0.761318 0.476818
0.925341 0.773091 0.488591
0.119269 0.793894 0.417519
0.222917 0.805667 0.429293
0.326566 0.817441 0.441066
0.430214 0.829214 0.452839
0.533862 0.840987 0.464612
0.637510 0.852760 0.476385
0.741158 0.864533 0.488158
0.844806 0.876306 0.499931
0.948454 0.888079 0.511704
0.142382 0.908882 0.440632
0.246031 0.920656 0.452406
0.349679 0.932429 0.464179
0.453327 0.944202 0.475952
0.556975 0.955975 0.487725
0.660623 0.967748 0.499498
0.764271 0.979521 0.511271
0.867919 0.991294 0.523044
0.971567 1.000000 0.534817
0.000000 0.000000 0.352091
0.065614 0.005239 0.363864
0.169263 0.017012 0.375637
0.272911 0.028786 0.387411
0.376559 0.040559 0.399184
0.480207 0.052332 0.410957
0.583855 0.064105 0.422730
0.687503 0.075878 0.434503
0.791151 0.087651 0.446276
0.000000 0.108454 0.375204
0.088728 0.120228 0.386977
0.192376 0.132001 0.398751
0.296024 0.143774 0.410524
0.399672 0.155547 0.422297
0.503320 0.167320 0.434070
0.606968 0.179093 0.445843
0.710616 0.190866 0.457616
0.814264 0.202639 0.469389
0.008192 0.223443 0.398317
0.111841 0.235216 0.410091
0.215489 0.246989 0.421864
0.319137 0.258762 0.433637
0.422785 0.270535 0.445410
0.526433 0.282308 0.457183
0.630081 0.294081 0.468956
0.733729 0.305854 0.480729
0.837377 0.317628 0.492502
0.031306 0.338431 0.421431
0.134954 0.350204 0.433204
0.238602 0.361977 0.444977
0.342250 0.373750 0.456750
0.445898 0.385523 0.468523
0.549546 0.397296 0.480296
0.653194 0.409069 0.492069
0.756842 0.420842 0.503842
0.860491 0.432616 0.515616
0.054419 0.453419 0.444544
0.158067 0.465192 0.456317
0.261715 0.476965 0.468090
0.365363 0.488738 0.479863
0.469011 0.500511 0.491636
0.572659 0.512284 0.503409
0.676307 0.524057 0.515182
0.779956 0.535831 0.526956
0.883604 0.547604 0.538729
0.077532 0.568407 0.467657
0.181180 0.580180 0.479430
0.284828 0.591953 0.491203
0.388476 0.603726 0.502976
0.492124 0.615499 0.514749
0.595772 0.627272 0.526523
0.699421 0.639046 0.538296
0.803069 0.650819 0.550069
0.906717 0.662592 0.561842
0.100645 0.683395 0.490770
0.204293 0.695168 0.502543
0.307941 0.706941 0.514316
0.411589 0.718714 0.526089
0.515237 0.730487 0.537862
0.618886 0.742261 0.549636
0.722534 0.754034 0.561409
0.826182 0.765807 0.573182
0.929830 0.777580 0.584955
0.123758 0.798383 0.513883
0.227406 0.810156 0.525656
0.331054 0.821929 0.537429
0.434702 0.833702 0.549203
0.538351 0.845476 0.560976
0.641999 0.857249 0.572749
0.745647 0.869022 0.584522
0.849295 0.880795 0.596295
0.952943 0.892568 0.608068
0.146871 0.913371 0.536996
0.250519 0.925144 0.548769
0.354167 0.936917 0.560542
0.457816 0.948691 0.572316
0.561464 0.960464 0.584089
0.665112 0.972237 0.595862
0.768760 0.984010 0.607635
0.872408 0.995783 0.619408
0.976056 1.000000 0.631181
0.000000 0.000000 0.448455
0.070103 0.009728 0.460228
0.173751 0.021501 0.472001
0.277399 0.033274 0.483774
0.381048 0.045047 0.495547
0.484696 0.056821 0.507321
0.588344 0.068594 0.519094
0.691992 0.080367 0.530867
0.795640 0.092140 0.542640
0.000000 0.112943 0.471568
0.093216 0.124716 0.483341
0.196864 0.136489 0.495114
0.300512 0.148263 0.506887
0.404161 0.160036 0.518661
0.507809 0.171809 0.530434
0.611457 0.183582 0.542207
0.715105 0.195355 0.553980
0.818753 0.207128 0.565753
0.012681 0.227931 0.494681
0.116329 0.239704 0.506454
0.219977 0.251477 0.518228
0.323626 0.263251 0.530001
0.427274 0.275024 0.541774
0.530922 0.286797 0.553547
0.634570 0.298570 0.565320
0.738218 0.310343 0.577093
0.841866 0.322116 0.588866
0.035794 0.342919 0.517794
0.139443 0.354692 0.529567
0.243091 0.366466 0.541341
0.346739 0.378239 0.553114
0.450387 0.390012 0.564887
0.554035 0.401785 0.576660
0.657683 0.413558 0.588433
0.761331 0.425331 0.600206
0.864979 0.437104 0.611979
0.058907 0.457907 0.540907
0.162556 0.469681 0.552681
0.266204 0.481454 0.564454
0.369852 0.493227 0.576227
0.473500 0.505000 0.588000
0.577148 0.516773 0.599773
0.680796 0.528546 0.611546
0.784444 0.540319 0.623319
0.888092 0.552093 0.635093
0.082021 0.572896 0.564021
0.185669 0.584669 0.575794
0.289317 0.596442 0.587567
0.392965 0.608215 0.599340
0.496613 0.619988 0.611113
0.600261 0.631761 0.622886
0.703909 0.643534 0.634659
0.807557 0.655308 0.646433
0.911206 0.667081 0.658206
0.105134 0.687884 0.587134
0.208782 0.699657 0.598907
0.312430 0.711430 0.610680
0.416078 0.723203 0.622453
0.519726 0.734976 0.634226
0.623374 0.746749 0.645999
0.727022 0.758522 0.657772
0.830671 0.770296 0.669546
0.934319 0.782069 0.681319
0.128247 0.802872 0.610247
0.231895 0.814645 0.622020
0.335543 0.826418 0.633793
0.439191 0.838191 0.645566
0.542839 0.849964 0.657339
0.646487 0.861738 0.669113
0.750136 0.873511 0.680886
0.853784 0.885284 0.692659
0.957432 0.897057 0.704432
0.151360 0.917860 0.633360
0.255008 0.929633 0.645133
0.358656 0.941406 0.656906
0.462304 0.953179 0.668679
0.565952 0.964952 0.680453
0.669601 0.976726 0.692226
0.773249 0.988499 0.703999
0.876897 1.000000 0.715772
0.980545 1.000000 0.727545
0.000000 0.002444 0.544819
0.074592 0.014217 0.556592
0.178240 0.025990 0.568365
0.281888 0.037763 0.580138
0.385536 0.049536 0.591911
0.489184 0.061309 0.603684
0.592832 0.073082 0.615457
0.696481 0.084856 0.627231
0.800129 0.096629 0.639004
0.000000 0.117432 0.567932
0.097705 0.129205 0.579705
0.201353 0.140978 0.591478
0.305001 0.152751 0.603251
0.408649 0.164524 0.615024
0.512298 0.176298 0.626798
0.615946 0.188071 0.638571
0.719594 0.199844 0.650344
0.823242 0.211617 0.662117
0.017170 0.232420 0.591045
0.120818 0.244193 0.602818
0.224466 0.255966 0.614591
0.328114 0.267739 0.626364
0.431763 0.279512 0.638138
0.535411 0.291286 0.649911
0.639059 0.303059 0.661684
0.742707 0.314832 0.673457
0.846355 0.326605 0.685230
0.040283 0.347408 0.614158
0.143931 0.359181 0.625931
0.247579 0.370954 0.637704
0.351227 0.382727 0.649477
0.454876 0.394501 0.661251
0.558524 0.406274 0.673024
0.662172 0.418047 0.684797
0.765820 0.429820 0.696570
0.869468 0.441593 0.708343
0.063396 0.462396 0.637271
0.167044 0.474169 0.649044
0.270692 0.485943 0.660818
0.374341 0.497716 0.672591
0.477989 0.509489 0.684364
0.581637 0.521262 0.696137
0.685285 0.533035 0.707910
0.788933 0.544808 0.719683
0.892581 0.556581 0.731456
0.086509 0.577384 0.660384
0.190157 0.589158 0.672158
0.293806 0.600931 0.683931
0.397454 0.612704 0.695704
0.501102 0.624477 0.707477
0.604750 0.636250 0.719250
0.708398 0.648023 0.731023
0.812046 0.659796 0.742796
0.915694 0.671569 0.754569
0.109622 0.692372 0.683497
0.213271 0.704146 0.695271
0.316919 0.715919 0.707044
0.420567 0.727692 0.718817
0.524215 0.739465 0.730590
0.627863 0.751238 0.742363
0.731511 0.763011 0.754136
0.835159 0.774784 0.765909
0.938807 0.786557 0.777683
0.132736 0.807361 0.706611
0.236384 0.819134 0.718384
0.340032 0.830907 0.730157
0.443680 0.842680 0.741930
0.547328 0.854453 0.753703
0.650976 0.866226 0.765476
0.754624 0.877999 0.777249
0.858272 0.889772 0.789022
0.961921 0.901546 0.800796
0.155849 0.922349 0.729724
0.259497 0.934122 0.741497
0.363145 0.945895 0.753270
0.466793 0.957668 0.765043
0.570441 0.969441 0.776816
0.674089 0.981214 0.788589
0.777737 0.992987 0.800363
0.881386 1.000000 0.812136
0.985034 1.000000 0.823909
0.000000 0.006933 0.641182
0.079081 0.018706 0.652956
0.182729 0.030479 0.664729
0.286377 0.042252 0.676502
0.390025 0.054025 0.688275
0.493673 0.065798 0.700048
0.597321 0.077571 0.711821
0.700969 0.089344 0.723594
0.804617 0.101117 0.735367
0.000000 0.121921 0.664296
0.102194 0.133694 0.676069
0.205842 0.145467 0.687842
0.309490 0.157240 0.699615
0.413138 0.169013 0.711388
0.516786 0.180786 0.723161
0.620434 0.192559 0.734934
0.724082 0.204333 0.746707
0.827731 0.216106 0.758481
0.021659 0.236909 0.687409
0.125307 0.248682 0.699182
0.228955 0.260455 0.710955
0.332603 0.272228 0.722728
0.436251 0.284001 0.734501
0.539899 0.295774 0.746274
0.643547 0.307547 0.758047
0.747196 0.319321 0.769821
0.850844 0.331094 0.781594
0.044772 0.351897 0.710522
0.148420 0.363670 0.722295
0.252068 0.375443 0.734068
0.355716 0.387216 0.745841
0.459364 0.398989 0.757614
0.563013 0.410762 0.769388
0.666661 0.422536 0.781161
0.770309 0.434309 0.792934
0.873957 0.446082 0.804707
0.067885 0.466885 0.733635
0.171533 0.478658 0.745408
0.275181 0.490431 0.757181
0.378829 0.502204 0.768954
0.482477 0.513977 0.780727
0.586126 0.525751 0.792501
0.689774 0.537524 0.804274
0.793422 0.549297 0.816047
0.897070 0.561070 0.827820
0.090998 0.581873 0.756748
0.194646 0.593646 0.768521
0.298294 0.605419 0.780294
0.401942 0.617193 0.792067
0.505591 0.628966 0.803841
0.609239 0.640739 0.815614
0.712887 0.652512 0.827387
0.816535 0.664285 0.839160
0.920183 0.676058 0.850933
0.114111 0.696861 0.779861
0.217759 0.708634 0.791634
0.321407 0.720407 0.803408
0.425056 0.732181 0.815181
0.528704 0.743954 0.826954
0.632352 0.755727 0.838727
0.736000 0.767500 0.850500
0.839648 0.779273 0.862273
0.943296 0.791046 0.874046
0.137224 0.811849 0.802974
0.240873 0.823623 0.814747
0.344521 0.835396 0.826521
0.448169 0.847169 0.838294
0.551817 0.858942 0.850067
0.655465 0.870715 0.861840
0.759113 0.882488 0.873613
0.862761 0.894261 0.885386
0.966409 0.906034 0.897159
0.160337 0.926837 0.826087
0.263986 0.938611 0.837861
0.367634 0.950384 0.849634
0.471282 0.962157 0.861407
0.574930 0.973930 0.873180
0.678578 0.985703 0.884953
0.782226 0.997476 0.896726
0.885874 1.000000 0.908499
0.989522 1.000000 0.920272
0.000000 0.011421 0.737546
0.083569 0.023194 0.749319
0.187218 0.034967 0.761093
0.290866 0.046741 0.772866
0.394514 0.058514 0.784639
0.498162 0.070287 0.796412
0.601810 0.082060 0.808185
0.705458 0.093833 0.819958
0.809106 0.105606 0.831731
0.003034 0.126409 0.760659
0.106682 0.138183 0.772432
0.210331 0.149956 0.784206
0.313979 0.161729 0.795979
0.417627 0.173502 0.807752
0.521275 0.185275 0.819525
0.624923 0.197048 0.831298
0.728571 0.208821 0.843071
0.832219 0.220594 0.854844
0.026148 0.241398 0.783772
0.129796 0.253171 0.795546
0.233444 0.264944 0.807319
0.337092 0.276717 0.819092
0.440740 0.288490 0.830865
0.544388 0.300263 0.842638
0.648036 0.312036 0.854411
0.751684 0.323809 0.866184
0.855332 0.335583 0.877957
0.049261 0.356386 0.806886
0.152909 0.368159 0.818659
0.256557 0.379932 0.830432
0.360205 0.391705 0.842205
0.463853 0.403478 0.853978
0.567501 0.415251 0.865751
0.671149 0.427024 0.877524
0.774797 0.438797 0.889297
0.878446 0.450571 0.901071
0.072374 0.471374 0.829999
0.176022 0.483147 0.841772
0.279670 0.494920 0.853545
0.383318 0.506693 0.865318
0.486966 0.518466 0.877091
0.590614 0.530239 0.888864
0.694262 0.542013 0.900638
0.797911 0.553786 0.912411
0.901559 0.565559 0.924184
0.095487 0.586362 0.853112
0.199135 0.598135 0.864885
0.302783 0.609908 0.876658
0.406431 0.621681 0.888431
0.510079 0.633454 0.900204
0.613727 0.645227 0.911977
0.717376 0.657001 0.923751
0.821024 0.668774 0.935524
0.924672 0.680547 0.947297
0.118600 0.701350 0.876225
0.222248 0.713123 0.887998
0.325896 0.724896 0.899771
0.429544 0.736669 0.911544
0.533192 0.748442 0.923317
0.636841 0.760216 0.935091
0.740489 0.771989 0.946864
0.844137 0.783762 0.958637
0.947785 0.795535 0.970410
0.141713 0.816338 0.899338
0.245361 0.828111 0.911111
0.349009 0.839884 0.922884
0.452657 0.851657 0.934658
0.556306 0.863431 0.946431
0.659954 0.875204 0.958204
0.763602 0.886977 0.969977
0.867250 0.898750 0.981750
0.970898 0.910523 0.993523
0.164826 0.931326 0.922451
0.268474 0.943099 0.934224
0.372122 0.954873 0.945997
0.475771 0.966646 0.957771
0.579419 0.978419 0.969544
0.683067 0.990192 0.981317
0.786715 1.000000 0.993090
0.890363 1.000000 1.000000
0.994011 1.000000 1.000000
0.000000 0.015910 0.833910
0.088058 0.027683 0.845683
0.191706 0.039456 0.857456
0.295354 0.051229 0.869229
0.399003 0.063002 0.881002
0.502651 0.074776 0.892776
0.606299 0.086549 0.904549
0.709947 0.098322 0.916322
0.813595 0.110095 0.928095
0.007523 0.130898 0.857023
0.111171 0.142671 0.868796
0.214819 0.154444 0.880569
0.318467 0.166218 0.892343
0.422116 0.177991 0.904116
0.525764 0.189764 0.915889
0.629412 0.201537 0.927662
0.733060 0.213310 0.939435
0.836708 0.225083 0.951208
0.030636 0.245886 0.880136
0.134284 0.257659 0.891909
0.237932 0.269432 0.903682
0.341581 0.281206 0.915456
0.445229 0.292979 0.927229
0.548877 0.304752 0.939002
0.652525 0.316525 0.950775
0.756173 0.328298 0.962548
0.859821 0.340071 0.974321
0.053749 0.360874 0.903249
0.157397 0.372647 0.915023
0.261046 0.384421 0.926796
0.364694 0.396194 0.938569
0.468342 0.407967 0.950342
0.571990 0.419740 0.962115
0.675638 0.431513 0.973888
0.779286 0.443286 0.985661
0.882934 0.455059 0.997434
0.076862 0.475862 0.926362
0.180511 0.487636 0.938136
0.284159 0.499409 0.949909
0.387807 0.511182 0.961682
0.491455 0.522955 0.973455
0.595103 0.534728 0.985228
0.698751 0.546501 0.997001
0.802399 0.558274 1.000000
0.906047 0.570047 1.000000
0.099976 0.590851 0.949476
0.203624 0.602624 0.961249
0.307272 0.614397 0.973022
0.410920 0.626170 0.984795
0.514568 0.637943 0.996568
0.618216 0.649716 1.000000
0.721864 0.661489 1.000000
0.825512 0.673262 1.000000
0.929161 0.685036 1.000000
0.123089 0.705839 0.972589
0.226737 0.717612 0.984362
0.330385 0.729385 0.996135
0.434033 0.741158 1.000000
0.537681 0.752931 1.000000
0.641329 0.764704 1.000000
0.744977 0.776477 1.000000
0.848626 0.788251 1.000000
0.952274 0.800024 1.000000
0.146202 0.820827 0.995702
0.249850 0.832600 1.000000
0.353498 0.844373 1.000000
0.457146 0.856146 1.000000
0.560794 0.867919 1.000000
0.664442 0.879692 1.000000
0.768091 0.891466 1.000000
0.871739 0.903239 1.000000
0.975387 0.915012 1.000000
0.169315 0.935815 1.000000
0.272963 0.947588 1.000000
0.376611 0.959361 1.000000
0.480259 0.971134 1.000000
0.583907 0.982908 1.000000
0.687556 0.994681 1.000000
0.791204 1.000000 1.000000
0.894852 1.000000 1.000000
0.998500 1.000000 1.000000
