roles/videoref-engine/files/luts/cold-blue.cube
TITLE "Cold Blue Sci-Fi"
LUT_3D_SIZE 5
DOMAIN_MIN 0.0 0.0 0.0
DOMAIN_MAX 1.0 1.0 1.0
0.000000 0.000000 0.063000
0.155796 0.003546 0.086546
0.363092 0.027092 0.110093
0.570389 0.050639 0.133639
0.777685 0.074185 0.157185
0.000000 0.209976 0.109226
0.202023 0.233522 0.132773
0.409319 0.257069 0.156319
0.616615 0.280615 0.179865
0.823911 0.304161 0.203411
0.040952 0.439952 0.155452
0.248249 0.463499 0.178999
0.455545 0.487045 0.202545
0.662841 0.510591 0.226091
0.870137 0.534137 0.249638
0.087179 0.669929 0.201679
0.294475 0.693475 0.225225
0.501771 0.717021 0.248771
0.709067 0.740567 0.272317
0.916364 0.764114 0.295864
0.133405 0.899905 0.247905
0.340701 0.923451 0.271451
0.547997 0.946997 0.294997
0.755294 0.970544 0.318544
0.962590 0.994090 0.342090
0.000000 0.000000 0.255727
0.164774 0.012524 0.279274
0.372070 0.036070 0.302820
0.579366 0.059616 0.326366
0.786662 0.083163 0.349913
0.003704 0.218954 0.301954
0.211000 0.242500 0.325500
0.418296 0.266046 0.349046
0.625592 0.289592 0.372592
0.832889 0.313139 0.396139
0.049930 0.448930 0.348180
0.257226 0.472476 0.371726
0.464522 0.496022 0.395273
0.671819 0.519569 0.418819
0.879115 0.543115 0.442365
0.096156 0.678906 0.394406
0.303452 0.702452 0.417952
0.510749 0.725999 0.441499
0.718045 0.749545 0.465045
0.925341 0.773091 0.488591
0.142382 0.908882 0.440632
0.349679 0.932429 0.464179
0.556975 0.955975 0.487725
0.764271 0.979521 0.511271
0.971567 1.000000 0.534817
0.000000 0.000000 0.448455
0.173751 0.021501 0.472001
0.381048 0.045047 0.495547
0.588344 0.068594 0.519094
0.795640 0.092140 0.542640
0.012681 0.227931 0.494681
0.219977 0.251477 0.518228
0.427274 0.275024 0.541774
0.634570 0.298570 0.565320
0.841866 0.322116 0.588866
0.058907 0.457907 0.540907
0.266204 0.481454 0.564454
0.473500 0.505000 0.588000
0.680796 0.528546 0.611546
0.888092 0.552093 0.635093
0.105134 0.687884 0.587134
0.312430 0.711430 0.610680
0.519726 0.734976 0.634226
0.727022 0.758522 0.657772
0.934319 0.782069 0.681319
0.151360 0.917860 0.633360
0.358656 0.941406 0.656906
0.565952 0.964952 0.680453
0.773249 0.988499 0.703999
0.980545 1.000000 0.727545
0.000000 0.006933 0.641182
0.182729 0.030479 0.664729
0.390025 0.054025 0.688275
0.597321 0.077571 0.711821
0.804617 0.101117 0.735367
0.021659 0.236909 0.687409
0.228955 0.260455 0.710955
0.436251 0.284001 0.734501
0.643547 0.307547 0.758047
0.850844 0.331094 0.781594
0.067885 0.466885 0.733635
0.275181 0.490431 0.757181
0.482477 0.513977 0.780727
0.689774 0.537524 0.804274
0.897070 0.561070 0.827820
0.114111 0.696861 0.779861
0.321407 0.720407 0.803408
0.528704 0.743954 0.826954
0.736000 0.767500 0.850500
0.943296 0.791046 0.874046
0.160337 0.926837 0.826087
0.367634 0.950384 0.849634
0.574930 0.973930 0.873180
0.782226 0.997476 0.896726
0.989522 1.000000 0.920272
0.000000 0.015910 0.833910
0.191706 0.039456 0.857456
0.399003 0.063002 0.881002
0.606299 0.086549 0.904549
0.813595 0.110095 0.928095
0.030636 0.245886 0.880136
0.237932 0.269432 0.903682
0.445229 0.292979 0.927229
0.652525 0.316525 0.950775
0.859821 0.340071 0.974321
0.076862 0.475862 0.926362
0.284159 0.499409 0.949909
0.491455 0.522955 0.973455
0.698751 0.546501 0.997001
0.906047 0.570047 1.000000
0.123089 0.705839 0.972589
0.330385 0.729385 0.996135
0.537681 0.752931 1.000000
0.744977 0.776477 1.000000
0.952274 0.800024 1.000000
0.169315 0.935815 1.000000
0.376611 0.959361 1.000000
0.583907 0.982908 1.000000
0.791204 1.000000 1.000000
0.998500 1.000000 1.000000
