roles/videoref-engine/files/luts/golden-hour.cube
TITLE "Golden Hour Sunset"
LUT_3D_SIZE 5
DOMAIN_MIN 0.0 0.0 0.0
DOMAIN_MAX 1.0 1.0 1.0
0.040000 0.020000 0.000000
0.302500 0.020000 0.000000
0.565000 0.020000 0.000000
0.827500 0.020000 0.000000
1.000000 0.020000 0.000000
0.040000 0.265000 0.000000
0.302500 0.265000 0.000000
0.565000 0.265000 0.000000
0.827500 0.265000 0.000000
1.000000 0.265000 0.000000
0.040000 0.510000 0.000000
0.302500 0.510000 0.000000
0.565000 0.510000 0.000000
0.827500 0.510000 0.000000
1.000000 0.510000 0.000000
0.040000 0.755000 0.000000
0.302500 0.755000 0.000000
0.566818 0.756273 0.000000
0.841091 0.764514 0.000000
1.000000 0.769929 0.000000
0.040000 1.000000 0.000000
0.314117 1.000000 0.000000
0.588390 1.000000 0.000000
0.862663 1.000000 0.000000
1.000000 1.000000 0.000000
0.040000 0.020000 0.185000
0.302500 0.020000 0.185000
0.565000 0.020000 0.185000
0.827500 0.020000 0.185000
1.000000 0.020000 0.185000
0.040000 0.265000 0.185000
0.302500 0.265000 0.185000
0.565000 0.265000 0.185000
0.827500 0.265000 0.185000
1.000000 0.265000 0.185000
0.040000 0.510000 0.185000
0.302500 0.510000 0.185000
0.565000 0.510000 0.185000
0.827500 0.510000 0.185000
1.000000 0.512043 0.185000
0.040000 0.755000 0.185000
0.302500 0.755000 0.185000
0.569982 0.758487 0.185000
0.844255 0.766728 0.185000
1.000000 0.772144 0.185000
0.043008 1.000000 0.185000
0.317281 1.000000 0.185000
0.591554 1.000000 0.185000
0.865827 1.000000 0.185000
1.000000 1.000000 0.185000
0.040000 0.020000 0.390000
0.302500 0.020000 0.390000
0.565000 0.020000 0.390000
0.827500 0.020000 0.390000
1.000000 0.020000 0.390000
0.040000 0.265000 0.390000
0.302500 0.265000 0.390000
0.565000 0.265000 0.390000
0.827500 0.265000 0.390000
1.000000 0.265000 0.390000
0.040000 0.510000 0.390000
0.302500 0.510000 0.390000
0.565000 0.510000 0.390000
0.827500 0.510000 0.390000
1.000000 0.514497 0.390000
0.040000 0.755000 0.390000
0.302500 0.755000 0.390000
0.573487 0.760941 0.390000
0.847760 0.769182 0.390000
1.000000 0.774598 0.390000
0.046513 1.000000 0.390000
0.320786 1.000000 0.390000
0.595059 1.000000 0.390000
0.869332 1.000000 0.390000
1.000000 1.000000 0.390000
0.040000 0.020000 0.595000
0.302500 0.020000 0.595000
0.565000 0.020000 0.595000
0.827500 0.020000 0.595000
1.000000 0.020000 0.595000
0.040000 0.265000 0.595000
0.302500 0.265000 0.595000
0.565000 0.265000 0.595000
0.827500 0.265000 0.595000
1.000000 0.265000 0.595000
0.040000 0.510000 0.595000
0.302500 0.510000 0.595000
0.565000 0.510000 0.595000
0.829693 0.511535 0.595000
1.000000 0.516951 0.595000
0.040000 0.755000 0.595000
0.302719 0.755154 0.595000
0.576993 0.763395 0.595000
0.851266 0.771636 0.595000
1.000000 0.777052 0.595000
0.050019 1.000000 0.595000
0.324292 1.000000 0.595000
0.598565 1.000000 0.595000
0.872838 1.000000 0.595000
1.000000 1.000000 0.595000
0.040000 0.020000 0.800000
0.302500 0.020000 0.800000
0.565000 0.020000 0.800000
0.827500 0.020000 0.800000
1.000000 0.020000 0.800000
0.040000 0.265000 0.800000
0.302500 0.265000 0.800000
0.565000 0.265000 0.800000
0.827500 0.265000 0.800000
1.000000 0.265000 0.800000
0.040000 0.510000 0.800000
0.302500 0.510000 0.800000
0.565000 0.510000 0.800000
0.833199 0.513989 0.800000
1.000000 0.519405 0.800000
0.040000 0.755000 0.800000
0.306225 0.757607 0.800000
0.580498 0.765849 0.800000
0.854771 0.774090 0.800000
1.000000 0.779505 0.800000
0.053524 1.000000 0.800000
0.327797 1.000000 0.800000
0.602070 1.000000 0.800000
0.876343 1.000000 0.800000
1.000000 1.000000 0.800000
