roles/videoref-engine/files/luts/golden-hour.cube
TITLE "Golden Hour Sunset"
LUT_3D_SIZE 9
DOMAIN_MIN 0.0 0.0 0.0
DOMAIN_MAX 1.0 1.0 1.0
0.040000 0.020000 0.000000
0.171250 0.020000 0.000000
0.302500 0.020000 0.000000
0.433750 0.020000 0.000000
0.565000 0.020000 0.000000
0.696250 0.020000 0.000000
0.827500 0.020000 0.000000
0.958750 0.020000 0.000000
1.000000 0.020000 0.000000
0.040000 0.142500 0.000000
0.171250 0.142500 0.000000
0.302500 0.142500 0.000000
0.433750 0.142500 0.000000
0.565000 0.142500 0.000000
0.696250 0.142500 0.000000
0.827500 0.142500 0.000000
0.958750 0.142500 0.000000
1.000000 0.142500 0.000000
0.040000 0.265000 0.000000
0.171250 0.265000 0.000000
0.302500 0.265000 0.000000
0.433750 0.265000 0.000000
0.565000 0.265000 0.000000
0.696250 0.265000 0.000000
0.827500 0.265000 0.000000
0.958750 0.265000 0.000000
1.000000 0.265000 0.000000
0.040000 0.387500 0.000000
0.171250 0.387500 0.000000
0.302500 0.387500 0.000000
0.433750 0.387500 0.000000
0.565000 0.387500 0.000000
0.696250 0.387500 0.000000
0.827500 0.387500 0.000000
0.958750 0.387500 0.000000
1.000000 0.387500 0.000000
0.040000 0.510000 0.000000
0.171250 0.510000 0.000000
0.302500 0.510000 0.000000
0.433750 0.510000 0.000000
0.565000 0.510000 0.000000
0.696250 0.510000 0.000000
0.827500 0.510000 0.000000
0.958750 0.510000 0.000000
1.000000 0.510000 0.000000
0.040000 0.632500 0.000000
0.171250 0.632500 0.000000
0.302500 0.632500 0.000000
0.433750 0.632500 0.000000
0.565000 0.632500 0.000000
0.696250 0.632500 0.000000
0.830305 0.634464 0.000000
0.967442 0.638584 0.000000
1.000000 0.639879 0.000000
0.040000 0.755000 0.000000
0.171250 0.755000 0.000000
0.302500 0.755000 0.000000
0.433750 0.755000 0.000000
0.566818 0.756273 0.000000
0.703955 0.760393 0.000000
0.841091 0.764514 0.000000
0.978228 0.768634 0.000000
1.000000 0.769929 0.000000
0.040000 0.877500 0.000000
0.171250 0.877500 0.000000
0.303331 0.878082 0.000000
0.440468 0.882202 0.000000
0.577604 0.886323 0.000000
0.714741 0.890443 0.000000
0.851877 0.894564 0.000000
0.989014 0.898685 0.000000
1.000000 0.899980 0.000000
0.040000 1.000000 0.000000
0.176981 1.000000 0.000000
0.314117 1.000000 0.000000
0.451254 1.000000 0.000000
0.588390 1.000000 0.000000
0.725527 1.000000 0.000000
0.862663 1.000000 0.000000
0.999800 1.000000 0.000000
1.000000 1.000000 0.000000
0.040000 0.020000 0.082500
0.171250 0.020000 0.082500
0.302500 0.020000 0.082500
0.433750 0.020000 0.082500
0.565000 0.020000 0.082500
0.696250 0.020000 0.082500
0.827500 0.020000 0.082500
0.958750 0.020000 0.082500
1.000000 0.020000 0.082500
0.040000 0.142500 0.082500
0.171250 0.142500 0.082500
0.302500 0.142500 0.082500
0.433750 0.142500 0.082500
0.565000 0.142500 0.082500
0.696250 0.142500 0.082500
0.827500 0.142500 0.082500
0.958750 0.142500 0.082500
1.000000 0.142500 0.082500
0.040000 0.265000 0.082500
0.171250 0.265000 0.082500
0.302500 0.265000 0.082500
0.433750 0.265000 0.082500
0.565000 0.265000 0.082500
0.696250 0.265000 0.082500
0.827500 0.265000 0.082500
0.958750 0.265000 0.082500
1.000000 0.265000 0.082500
0.040000 0.387500 0.082500
0.171250 0.387500 0.082500
0.302500 0.387500 0.082500
0.433750 0.387500 0.082500
0.565000 0.387500 0.082500
0.696250 0.387500 0.082500
0.827500 0.387500 0.082500
0.958750 0.387500 0.082500
1.000000 0.387500 0.082500
0.040000 0.510000 0.082500
0.171250 0.510000 0.082500
0.302500 0.510000 0.082500
0.433750 0.510000 0.082500
0.565000 0.510000 0.082500
0.696250 0.510000 0.082500
0.827500 0.510000 0.082500
0.958750 0.510000 0.082500
1.000000 0.510816 0.082500
0.040000 0.632500 0.082500
0.171250 0.632500 0.082500
0.302500 0.632500 0.082500
0.433750 0.632500 0.082500
0.565000 0.632500 0.082500
0.696250 0.632500 0.082500
0.831716 0.635451 0.082500
0.968852 0.639572 0.082500
1.000000 0.640867 0.082500
0.040000 0.755000 0.082500
0.171250 0.755000 0.082500
0.302500 0.755000 0.082500
0.433750 0.755000 0.082500
0.568229 0.757260 0.082500
0.705365 0.761381 0.082500
0.842502 0.765501 0.082500
0.979638 0.769622 0.082500
1.000000 0.770917 0.082500
0.040000 0.877500 0.082500
0.171250 0.877500 0.082500
0.304742 0.879069 0.082500
0.441878 0.883190 0.082500
0.579015 0.887310 0.082500
0.716151 0.891431 0.082500
0.853288 0.895552 0.082500
0.990425 0.899672 0.082500
1.000000 0.900967 0.082500
0.041255 1.000000 0.082500
0.178391 1.000000 0.082500
0.315528 1.000000 0.082500
0.452664 1.000000 0.082500
0.589801 1.000000 0.082500
0.726938 1.000000 0.082500
0.864074 1.000000 0.082500
1.000000 1.000000 0.082500
1.000000 1.000000 0.082500
0.040000 0.020000 0.185000
0.171250 0.020000 0.185000
0.302500 0.020000 0.185000
0.433750 0.020000 0.185000
0.565000 0.020000 0.185000
0.696250 0.020000 0.185000
0.827500 0.020000 0.185000
0.958750 0.020000 0.185000
1.000000 0.020000 0.185000
0.040000 0.142500 0.185000
0.171250 0.142500 0.185000
0.302500 0.142500 0.185000
0.433750 0.142500 0.185000
0.565000 0.142500 0.185000
0.696250 0.142500 0.185000
0.827500 0.142500 0.185000
0.958750 0.142500 0.185000
1.000000 0.142500 0.185000
0.040000 0.265000 0.185000
0.171250 0.265000 0.185000
0.302500 0.265000 0.185000
0.433750 0.265000 0.185000
0.565000 0.265000 0.185000
0.696250 0.265000 0.185000
0.827500 0.265000 0.185000
0.958750 0.265000 0.185000
1.000000 0.265000 0.185000
0.040000 0.387500 0.185000
0.171250 0.387500 0.185000
0.302500 0.387500 0.185000
0.433750 0.387500 0.185000
0.565000 0.387500 0.185000
0.696250 0.387500 0.185000
0.827500 0.387500 0.185000
0.958750 0.387500 0.185000
1.000000 0.387500 0.185000
0.040000 0.510000 0.185000
0.171250 0.510000 0.185000
0.302500 0.510000 0.185000
0.433750 0.510000 0.185000
0.565000 0.510000 0.185000
0.696250 0.510000 0.185000
0.827500 0.510000 0.185000
0.959819 0.510748 0.185000
1.000000 0.512043 0.185000
0.040000 0.632500 0.185000
0.171250 0.632500 0.185000
0.302500 0.632500 0.185000
0.433750 0.632500 0.185000
0.565000 0.632500 0.185000
0.696332 0.632557 0.185000
0.833469 0.636678 0.185000
0.970605 0.640799 0.185000
1.000000 0.642094 0.185000
0.040000 0.755000 0.185000
0.171250 0.755000 0.185000
0.302500 0.755000 0.185000
0.433750 0.755000 0.185000
0.569982 0.758487 0.185000
0.707118 0.762608 0.185000
0.844255 0.766728 0.185000
0.981391 0.770849 0.185000
1.000000 0.772144 0.185000
0.040000 0.877500 0.185000
0.171250 0.877500 0.185000
0.306495 0.880296 0.185000
0.443631 0.884417 0.185000
0.580768 0.888537 0.185000
0.717904 0.892658 0.185000
0.855041 0.896779 0.185000
0.992177 0.900899 0.185000
1.000000 0.902194 0.185000
0.043008 1.000000 0.185000
0.180144 1.000000 0.185000
0.317281 1.000000 0.185000
0.454417 1.000000 0.185000
0.591554 1.000000 0.185000
0.728690 1.000000 0.185000
0.865827 1.000000 0.185000
1.000000 1.000000 0.185000
1.000000 1.000000 0.185000
0.040000 0.020000 0.287500
0.171250 0.020000 0.287500
0.302500 0.020000 0.287500
0.433750 0.020000 0.287500
0.565000 0.020000 0.287500
0.696250 0.020000 0.287500
0.827500 0.020000 0.287500
0.958750 0.020000 0.287500
1.000000 0.020000 0.287500
0.040000 0.142500 0.287500
0.171250 0.142500 0.287500
0.302500 0.142500 0.287500
0.433750 0.142500 0.287500
0.565000 0.142500 0.287500
0.696250 0.142500 0.287500
0.827500 0.142500 0.287500
0.958750 0.142500 0.287500
1.000000 0.142500 0.287500
0.040000 0.265000 0.287500
0.171250 0.265000 0.287500
0.302500 0.265000 0.287500
0.433750 0.265000 0.287500
0.565000 0.265000 0.287500
0.696250 0.265000 0.287500
0.827500 0.265000 0.287500
0.958750 0.265000 0.287500
1.000000 0.265000 0.287500
0.040000 0.387500 0.287500
0.171250 0.387500 0.287500
0.302500 0.387500 0.287500
0.433750 0.387500 0.287500
0.565000 0.387500 0.287500
0.696250 0.387500 0.287500
0.827500 0.387500 0.287500
0.958750 0.387500 0.287500
1.000000 0.387500 0.287500
0.040000 0.510000 0.287500
0.171250 0.510000 0.287500
0.302500 0.510000 0.287500
0.433750 0.510000 0.287500
0.565000 0.510000 0.287500
0.696250 0.510000 0.287500
0.827500 0.510000 0.287500
0.961572 0.511975 0.287500
1.000000 0.513270 0.287500
0.040000 0.632500 0.287500
0.171250 0.632500 0.287500
0.302500 0.632500 0.287500
0.433750 0.632500 0.287500
0.565000 0.632500 0.287500
0.698085 0.633784 0.287500
0.835221 0.637905 0.287500
0.972358 0.642025 0.287500
1.000000 0.643321 0.287500
0.040000 0.755000 0.287500
0.171250 0.755000 0.287500
0.302500 0.755000 0.287500
0.434598 0.755593 0.287500
0.571734 0.759714 0.287500
0.708871 0.763835 0.287500
0.846007 0.767955 0.287500
0.983144 0.772076 0.287500
1.000000 0.773371 0.287500
0.040000 0.877500 0.287500
0.171250 0.877500 0.287500
0.308247 0.881523 0.287500
0.445384 0.885644 0.287500
0.582520 0.889764 0.287500
0.719657 0.893885 0.287500
0.856794 0.898005 0.287500
0.993930 0.902126 0.287500
1.000000 0.903421 0.287500
0.044760 1.000000 0.287500
0.181897 1.000000 0.287500
0.319033 1.000000 0.287500
0.456170 1.000000 0.287500
0.593307 1.000000 0.287500
0.730443 1.000000 0.287500
0.867580 1.000000 0.287500
1.000000 1.000000 0.287500
1.000000 1.000000 0.287500
0.040000 0.020000 0.390000
0.171250 0.020000 0.390000
0.302500 0.020000 0.390000
0.433750 0.020000 0.390000
0.565000 0.020000 0.390000
0.696250 0.020000 0.390000
0.827500 0.020000 0.390000
0.958750 0.020000 0.390000
1.000000 0.020000 0.390000
0.040000 0.142500 0.390000
0.171250 0.142500 0.390000
0.302500 0.142500 0.390000
0.433750 0.142500 0.390000
0.565000 0.142500 0.390000
0.696250 0.142500 0.390000
0.827500 0.142500 0.390000
0.958750 0.142500 0.390000
1.000000 0.142500 0.390000
0.040000 0.265000 0.390000
0.171250 0.265000 0.390000
0.302500 0.265000 0.390000
0.433750 0.265000 0.390000
0.565000 0.265000 0.390000
0.696250 0.265000 0.390000
0.827500 0.265000 0.390000
0.958750 0.265000 0.390000
1.000000 0.265000 0.390000
0.040000 0.387500 0.390000
0.171250 0.387500 0.390000
0.302500 0.387500 0.390000
0.433750 0.387500 0.390000
0.565000 0.387500 0.390000
0.696250 0.387500 0.390000
0.827500 0.387500 0.390000
0.958750 0.387500 0.390000
1.000000 0.387500 0.390000
0.040000 0.510000 0.390000
0.171250 0.510000 0.390000
0.302500 0.510000 0.390000
0.433750 0.510000 0.390000
0.565000 0.510000 0.390000
0.696250 0.510000 0.390000
0.827500 0.510000 0.390000
0.963324 0.513202 0.390000
1.000000 0.514497 0.390000
0.040000 0.632500 0.390000
0.171250 0.632500 0.390000
0.302500 0.632500 0.390000
0.433750 0.632500 0.390000
0.565000 0.632500 0.390000
0.699837 0.635011 0.390000
0.836974 0.639132 0.390000
0.974111 0.643252 0.390000
1.000000 0.644547 0.390000
0.040000 0.755000 0.390000
0.171250 0.755000 0.390000
0.302500 0.755000 0.390000
0.436350 0.756820 0.390000
0.573487 0.760941 0.390000
0.710624 0.765061 0.390000
0.847760 0.769182 0.390000
0.984897 0.773303 0.390000
1.000000 0.774598 0.390000
0.040000 0.877500 0.390000
0.172863 0.878629 0.390000
0.310000 0.882750 0.390000
0.447137 0.886871 0.390000
0.584273 0.890991 0.390000
0.721410 0.895112 0.390000
0.858546 0.899232 0.390000
0.995683 0.903353 0.390000
1.000000 0.904648 0.390000
0.046513 1.000000 0.390000
0.183650 1.000000 0.390000
0.320786 1.000000 0.390000
0.457923 1.000000 0.390000
0.595059 1.000000 0.390000
0.732196 1.000000 0.390000
0.869332 1.000000 0.390000
1.000000 1.000000 0.390000
1.000000 1.000000 0.390000
0.040000 0.020000 0.492500
0.171250 0.020000 0.492500
0.302500 0.020000 0.492500
0.433750 0.020000 0.492500
0.565000 0.020000 0.492500
0.696250 0.020000 0.492500
0.827500 0.020000 0.492500
0.958750 0.020000 0.492500
1.000000 0.020000 0.492500
0.040000 0.142500 0.492500
0.171250 0.142500 0.492500
0.302500 0.142500 0.492500
0.433750 0.142500 0.492500
0.565000 0.142500 0.492500
0.696250 0.142500 0.492500
0.827500 0.142500 0.492500
0.958750 0.142500 0.492500
1.000000 0.142500 0.492500
0.040000 0.265000 0.492500
0.171250 0.265000 0.492500
0.302500 0.265000 0.492500
0.433750 0.265000 0.492500
0.565000 0.265000 0.492500
0.696250 0.265000 0.492500
0.827500 0.265000 0.492500
0.958750 0.265000 0.492500
1.000000 0.265000 0.492500
0.040000 0.387500 0.492500
0.171250 0.387500 0.492500
0.302500 0.387500 0.492500
0.433750 0.387500 0.492500
0.565000 0.387500 0.492500
0.696250 0.387500 0.492500
0.827500 0.387500 0.492500
0.958750 0.387500 0.492500
1.000000 0.387500 0.492500
0.040000 0.510000 0.492500
0.171250 0.510000 0.492500
0.302500 0.510000 0.492500
0.433750 0.510000 0.492500
0.565000 0.510000 0.492500
0.696250 0.510000 0.492500
0.827941 0.510308 0.492500
0.965077 0.514429 0.492500
1.000000 0.515724 0.492500
0.040000 0.632500 0.492500
0.171250 0.632500 0.492500
0.302500 0.632500 0.492500
0.433750 0.632500 0.492500
0.565000 0.632500 0.492500
0.701590 0.636238 0.492500
0.838727 0.640359 0.492500
0.975863 0.644479 0.492500
1.000000 0.645774 0.492500
0.040000 0.755000 0.492500
0.171250 0.755000 0.492500
0.302500 0.755000 0.492500
0.438103 0.758047 0.492500
0.575240 0.762168 0.492500
0.712376 0.766288 0.492500
0.849513 0.770409 0.492500
0.986649 0.774530 0.492500
1.000000 0.775825 0.492500
0.040000 0.877500 0.492500
0.174616 0.879856 0.492500
0.311753 0.883977 0.492500
0.448889 0.888098 0.492500
0.586026 0.892218 0.492500
0.723162 0.896339 0.492500
0.860299 0.900459 0.492500
0.997436 0.904580 0.492500
1.000000 0.905875 0.492500
0.048266 1.000000 0.492500
0.185402 1.000000 0.492500
0.322539 1.000000 0.492500
0.459675 1.000000 0.492500
0.596812 1.000000 0.492500
0.733949 1.000000 0.492500
0.871085 1.000000 0.492500
1.000000 1.000000 0.492500
1.000000 1.000000 0.492500
0.040000 0.020000 0.595000
0.171250 0.020000 0.595000
0.302500 0.020000 0.595000
0.433750 0.020000 0.595000
0.565000 0.020000 0.595000
0.696250 0.020000 0.595000
0.827500 0.020000 0.595000
0.958750 0.020000 0.595000
1.000000 0.020000 0.595000
0.040000 0.142500 0.595000
0.171250 0.142500 0.595000
0.302500 0.142500 0.595000
0.433750 0.142500 0.595000
0.565000 0.142500 0.595000
0.696250 0.142500 0.595000
0.827500 0.142500 0.595000
0.958750 0.142500 0.595000
1.000000 0.142500 0.595000
0.040000 0.265000 0.595000
0.171250 0.265000 0.595000
0.302500 0.265000 0.595000
0.433750 0.265000 0.595000
0.565000 0.265000 0.595000
0.696250 0.265000 0.595000
0.827500 0.265000 0.595000
0.958750 0.265000 0.595000
1.000000 0.265000 0.595000
0.040000 0.387500 0.595000
0.171250 0.387500 0.595000
0.302500 0.387500 0.595000
0.433750 0.387500 0.595000
0.565000 0.387500 0.595000
0.696250 0.387500 0.595000
0.827500 0.387500 0.595000
0.958750 0.387500 0.595000
1.000000 0.387500 0.595000
0.040000 0.510000 0.595000
0.171250 0.510000 0.595000
0.302500 0.510000 0.595000
0.433750 0.510000 0.595000
0.565000 0.510000 0.595000
0.696250 0.510000 0.595000
0.829693 0.511535 0.595000
0.966830 0.515656 0.595000
1.000000 0.516951 0.595000
0.040000 0.632500 0.595000
0.171250 0.632500 0.595000
0.302500 0.632500 0.595000
0.433750 0.632500 0.595000
0.566206 0.633344 0.595000
0.703343 0.637465 0.595000
0.840480 0.641586 0.595000
0.977616 0.645706 0.595000
1.000000 0.647001 0.595000
0.040000 0.755000 0.595000
0.171250 0.755000 0.595000
0.302719 0.755154 0.595000
0.439856 0.759274 0.595000
0.576993 0.763395 0.595000
0.714129 0.767515 0.595000
0.851266 0.771636 0.595000
0.988402 0.775757 0.595000
1.000000 0.777052 0.595000
0.040000 0.877500 0.595000
0.176369 0.881083 0.595000
0.313505 0.885204 0.595000
0.450642 0.889324 0.595000
0.587779 0.893445 0.595000
0.724915 0.897566 0.595000
0.862052 0.901686 0.595000
0.999188 0.905807 0.595000
1.000000 0.907102 0.595000
0.050019 1.000000 0.595000
0.187155 1.000000 0.595000
0.324292 1.000000 0.595000
0.461428 1.000000 0.595000
0.598565 1.000000 0.595000
0.735701 1.000000 0.595000
0.872838 1.000000 0.595000
1.000000 1.000000 0.595000
1.000000 1.000000 0.595000
0.040000 0.020000 0.697500
0.171250 0.020000 0.697500
0.302500 0.020000 0.697500
0.433750 0.020000 0.697500
0.565000 0.020000 0.697500
0.696250 0.020000 0.697500
0.827500 0.020000 0.697500
0.958750 0.020000 0.697500
1.000000 0.020000 0.697500
0.040000 0.142500 0.697500
0.171250 0.142500 0.697500
0.302500 0.142500 0.697500
0.433750 0.142500 0.697500
0.565000 0.142500 0.697500
0.696250 0.142500 0.697500
0.827500 0.142500 0.697500
0.958750 0.142500 0.697500
1.000000 0.142500 0.697500
0.040000 0.265000 0.697500
0.171250 0.265000 0.697500
0.302500 0.265000 0.697500
0.433750 0.265000 0.697500
0.565000 0.265000 0.697500
0.696250 0.265000 0.697500
0.827500 0.265000 0.697500
0.958750 0.265000 0.697500
1.000000 0.265000 0.697500
0.040000 0.387500 0.697500
0.171250 0.387500 0.697500
0.302500 0.387500 0.697500
0.433750 0.387500 0.697500
0.565000 0.387500 0.697500
0.696250 0.387500 0.697500
0.827500 0.387500 0.697500
0.958750 0.387500 0.697500
1.000000 0.388128 0.697500
0.040000 0.510000 0.697500
0.171250 0.510000 0.697500
0.302500 0.510000 0.697500
0.433750 0.510000 0.697500
0.565000 0.510000 0.697500
0.696250 0.510000 0.697500
0.831446 0.512762 0.697500
0.968583 0.516883 0.697500
1.000000 0.518178 0.697500
0.040000 0.632500 0.697500
0.171250 0.632500 0.697500
0.302500 0.632500 0.697500
0.433750 0.632500 0.697500
0.567959 0.634571 0.697500
0.705096 0.638692 0.697500
0.842232 0.642813 0.697500
0.979369 0.646933 0.697500
1.000000 0.648228 0.697500
0.040000 0.755000 0.697500
0.171250 0.755000 0.697500
0.304472 0.756380 0.697500
0.441609 0.760501 0.697500
0.578745 0.764622 0.697500
0.715882 0.768742 0.697500
0.853018 0.772863 0.697500
0.990155 0.776983 0.697500
1.000000 0.778278 0.697500
0.040985 0.878190 0.697500
0.178122 0.882310 0.697500
0.315258 0.886431 0.697500
0.452395 0.890551 0.697500
0.589531 0.894672 0.697500
0.726668 0.898793 0.697500
0.863805 0.902913 0.697500
1.000000 0.907034 0.697500
1.000000 0.908329 0.697500
0.051771 1.000000 0.697500
0.188908 1.000000 0.697500
0.326044 1.000000 0.697500
0.463181 1.000000 0.697500
0.600318 1.000000 0.697500
0.737454 1.000000 0.697500
0.874591 1.000000 0.697500
1.000000 1.000000 0.697500
1.000000 1.000000 0.697500
0.040000 0.020000 0.800000
0.171250 0.020000 0.800000
0.302500 0.020000 0.800000
0.433750 0.020000 0.800000
0.565000 0.020000 0.800000
0.696250 0.020000 0.800000
0.827500 0.020000 0.800000
0.958750 0.020000 0.800000
1.000000 0.020000 0.800000
0.040000 0.142500 0.800000
0.171250 0.142500 0.800000
0.302500 0.142500 0.800000
0.433750 0.142500 0.800000
0.565000 0.142500 0.800000
0.696250 0.142500 0.800000
0.827500 0.142500 0.800000
0.958750 0.142500 0.800000
1.000000 0.142500 0.800000
0.040000 0.265000 0.800000
0.171250 0.265000 0.800000
0.302500 0.265000 0.800000
0.433750 0.265000 0.800000
0.565000 0.265000 0.800000
0.696250 0.265000 0.800000
0.827500 0.265000 0.800000
0.958750 0.265000 0.800000
1.000000 0.265000 0.800000
0.040000 0.387500 0.800000
0.171250 0.387500 0.800000
0.302500 0.387500 0.800000
0.433750 0.387500 0.800000
0.565000 0.387500 0.800000
0.696250 0.387500 0.800000
0.827500 0.387500 0.800000
0.959549 0.388060 0.800000
1.000000 0.389355 0.800000
0.040000 0.510000 0.800000
0.171250 0.510000 0.800000
0.302500 0.510000 0.800000
0.433750 0.510000 0.800000
0.565000 0.510000 0.800000
0.696250 0.510000 0.800000
0.833199 0.513989 0.800000
0.970335 0.518110 0.800000
1.000000 0.519405 0.800000
0.040000 0.632500 0.800000
0.171250 0.632500 0.800000
0.302500 0.632500 0.800000
0.433750 0.632500 0.800000
0.569712 0.635798 0.800000
0.706848 0.639919 0.800000
0.843985 0.644040 0.800000
0.981122 0.648160 0.800000
1.000000 0.649455 0.800000
0.040000 0.755000 0.800000
0.171250 0.755000 0.800000
0.306225 0.757607 0.800000
0.443361 0.761728 0.800000
0.580498 0.765849 0.800000
0.717635 0.769969 0.800000
0.854771 0.774090 0.800000
0.991908 0.778210 0.800000
1.000000 0.779505 0.800000
0.042738 0.879417 0.800000
0.179874 0.883537 0.800000
0.317011 0.887658 0.800000
0.454148 0.891778 0.800000
0.591284 0.895899 0.800000
0.728421 0.900019 0.800000
0.865557 0.904140 0.800000
1.000000 0.908261 0.800000
1.000000 0.909556 0.800000
0.053524 1.000000 0.800000
0.190661 1.000000 0.800000
0.327797 1.000000 0.800000
0.464934 1.000000 0.800000
0.602070 1.000000 0.800000
0.739207 1.000000 0.800000
0.876343 1.000000 0.800000
1.000000 1.000000 0.800000
1.000000 1.000000 0.800000
