roles/videoref-engine/files/luts/golden-hour.cube
TITLE "Golden Hour Sunset"
LUT_3D_SIZE 17
DOMAIN_MIN 0.0 0.0 0.0
DOMAIN_MAX 1.0 1.0 1.0
0.040000 0.020000 0.000000
0.105625 0.020000 0.000000
0.171250 0.020000 0.000000
0.236875 0.020000 0.000000
0.302500 0.020000 0.000000
0.368125 0.020000 0.000000
0.433750 0.020000 0.000000
0.499375 0.020000 0.000000
0.565000 0.020000 0.000000
0.630625 0.020000 0.000000
0.696250 0.020000 0.000000
0.761875 0.020000 0.000000
0.827500 0.020000 0.000000
0.893125 0.020000 0.000000
0.958750 0.020000 0.000000
1.000000 0.020000 0.000000
1.000000 0.020000 0.000000
0.040000 0.081250 0.000000
0.105625 0.081250 0.000000
0.171250 0.081250 0.000000
0.236875 0.081250 0.000000
0.302500 0.081250 0.000000
0.368125 0.081250 0.000000
0.433750 0.081250 0.000000
0.499375 0.081250 0.000000
0.565000 0.081250 0.000000
0.630625 0.081250 0.000000
0.696250 0.081250 0.000000
0.761875 0.081250 0.000000
0.827500 0.081250 0.000000
0.893125 0.081250 0.000000
0.958750 0.081250 0.000000
1.000000 0.081250 0.000000
1.000000 0.081250 0.000000
0.040000 0.142500 0.000000
0.105625 0.142500 0.000000
0.171250 0.142500 0.000000
0.236875 0.142500 0.000000
0.302500 0.142500 0.000000
0.368125 0.142500 0.000000
0.433750 0.142500 0.000000
0.499375 0.142500 0.000000
0.565000 0.142500 0.000000
0.630625 0.142500 0.000000
0.696250 0.142500 0.000000
0.761875 0.142500 0.000000
0.827500 0.142500 0.000000
0.893125 0.142500 0.000000
0.958750 0.142500 0.000000
1.000000 0.142500 0.000000
1.000000 0.142500 0.000000
0.040000 0.203750 0.000000
0.105625 0.203750 0.000000
0.171250 0.203750 0.000000
0.236875 0.203750 0.000000
0.302500 0.203750 0.000000
0.368125 0.203750 0.000000
0.433750 0.203750 0.000000
0.499375 0.203750 0.000000
0.565000 0.203750 0.000000
0.630625 0.203750 0.000000
0.696250 0.203750 0.000000
0.761875 0.203750 0.000000
0.827500 0.203750 0.000000
0.893125 0.203750 0.000000
0.958750 0.203750 0.000000
1.000000 0.203750 0.000000
1.000000 0.203750 0.000000
0.040000 0.265000 0.000000
0.105625 0.265000 0.000000
0.171250 0.265000 0.000000
0.236875 0.265000 0.000000
0.302500 0.265000 0.000000
0.368125 0.265000 0.000000
0.433750 0.265000 0.000000
0.499375 0.265000 0.000000
0.565000 0.265000 0.000000
0.630625 0.265000 0.000000
0.696250 0.265000 0.000000
0.761875 0.265000 0.000000
0.827500 0.265000 0.000000
0.893125 0.265000 0.000000
0.958750 0.265000 0.000000
1.000000 0.265000 0.000000
1.000000 0.265000 0.000000
0.040000 0.326250 0.000000
0.105625 0.326250 0.000000
0.171250 0.326250 0.000000
0.236875 0.326250 0.000000
0.302500 0.326250 0.000000
0.368125 0.326250 0.000000
0.433750 0.326250 0.000000
0.499375 0.326250 0.000000
0.565000 0.326250 0.000000
0.630625 0.326250 0.000000
0.696250 0.326250 0.000000
0.761875 0.326250 0.000000
0.827500 0.326250 0.000000
0.893125 0.326250 0.000000
0.958750 0.326250 0.000000
1.000000 0.326250 0.000000
1.000000 0.326250 0.000000
0.040000 0.387500 0.000000
0.105625 0.387500 0.000000
0.171250 0.387500 0.000000
0.236875 0.387500 0.000000
0.302500 0.387500 0.000000
0.368125 0.387500 0.000000
0.433750 0.387500 0.000000
0.499375 0.387500 0.000000
0.565000 0.387500 0.000000
0.630625 0.387500 0.000000
0.696250 0.387500 0.000000
0.761875 0.387500 0.000000
0.827500 0.387500 0.000000
0.893125 0.387500 0.000000
0.958750 0.387500 0.000000
1.000000 0.387500 0.000000
1.000000 0.387500 0.000000
0.040000 0.448750 0.000000
0.105625 0.448750 0.000000
0.171250 0.448750 0.000000
0.236875 0.448750 0.000000
0.302500 0.448750 0.000000
0.368125 0.448750 0.000000
0.433750 0.448750 0.000000
0.499375 0.448750 0.000000
0.565000 0.448750 0.000000
0.630625 0.448750 0.000000
0.696250 0.448750 0.000000
0.761875 0.448750 0.000000
0.827500 0.448750 0.000000
0.893125 0.448750 0.000000
0.958750 0.448750 0.000000
1.000000 0.448750 0.000000
1.000000 0.448750 0.000000
0.040000 0.510000 0.000000
0.105625 0.510000 0.000000
0.171250 0.510000 0.000000
0.236875 0.510000 0.000000
0.302500 0.510000 0.000000
0.368125 0.510000 0.000000
0.433750 0.510000 0.000000
0.499375 0.510000 0.000000
0.565000 0.510000 0.000000
0.630625 0.510000 0.000000
0.696250 0.510000 0.000000
0.761875 0.510000 0.000000
0.827500 0.510000 0.000000
0.893125 0.510000 0.000000
0.958750 0.510000 0.000000
1.000000 0.510000 0.000000
1.000000 0.510000 0.000000
0.040000 0.571250 0.000000
0.105625 0.571250 0.000000
0.171250 0.571250 0.000000
0.236875 0.571250 0.000000
0.302500 0.571250 0.000000
0.368125 0.571250 0.000000
0.433750 0.571250 0.000000
0.499375 0.571250 0.000000
0.565000 0.571250 0.000000
0.630625 0.571250 0.000000
0.696250 0.571250 0.000000
0.761875 0.571250 0.000000
0.827500 0.571250 0.000000
0.893480 0.571499 0.000000
0.962049 0.573559 0.000000
1.000000 0.574854 0.000000
1.000000 0.574854 0.000000
0.040000 0.632500 0.000000
0.105625 0.632500 0.000000
0.171250 0.632500 0.000000
0.236875 0.632500 0.000000
0.302500 0.632500 0.000000
0.368125 0.632500 0.000000
0.433750 0.632500 0.000000
0.499375 0.632500 0.000000
0.565000 0.632500 0.000000
0.630625 0.632500 0.000000
0.696250 0.632500 0.000000
0.761875 0.632500 0.000000
0.830305 0.634464 0.000000
0.898873 0.636524 0.000000
0.967442 0.638584 0.000000
1.000000 0.639879 0.000000
1.000000 0.639879 0.000000
0.040000 0.693750 0.000000
0.105625 0.693750 0.000000
0.171250 0.693750 0.000000
0.236875 0.693750 0.000000
0.302500 0.693750 0.000000
0.368125 0.693750 0.000000
0.433750 0.693750 0.000000
0.499375 0.693750 0.000000
0.565000 0.693750 0.000000
0.630625 0.693750 0.000000
0.698562 0.695368 0.000000
0.767130 0.697428 0.000000
0.835698 0.699489 0.000000
0.904266 0.701549 0.000000
0.972835 0.703609 0.000000
1.000000 0.704904 0.000000
1.000000 0.704904 0.000000
0.040000 0.755000 0.000000
0.105625 0.755000 0.000000
0.171250 0.755000 0.000000
0.236875 0.755000 0.000000
0.302500 0.755000 0.000000
0.368125 0.755000 0.000000
0.433750 0.755000 0.000000
0.499375 0.755000 0.000000
0.566818 0.756273 0.000000
0.635386 0.758333 0.000000
0.703955 0.760393 0.000000
0.772523 0.762453 0.000000
0.841091 0.764514 0.000000
0.909659 0.766574 0.000000
0.978228 0.768634 0.000000
1.000000 0.769929 0.000000
1.000000 0.769929 0.000000
0.040000 0.816250 0.000000
0.105625 0.816250 0.000000
0.171250 0.816250 0.000000
0.236875 0.816250 0.000000
0.302500 0.816250 0.000000
0.368125 0.816250 0.000000
0.435075 0.817177 0.000000
0.503643 0.819237 0.000000
0.572211 0.821298 0.000000
0.640779 0.823358 0.000000
0.709348 0.825418 0.000000
0.777916 0.827479 0.000000
0.846484 0.829539 0.000000
0.915052 0.831599 0.000000
0.983621 0.833660 0.000000
1.000000 0.834955 0.000000
1.000000 0.834955 0.000000
0.040000 0.877500 0.000000
0.105625 0.877500 0.000000
0.171250 0.877500 0.000000
0.236875 0.877500 0.000000
0.303331 0.878082 0.000000
0.371899 0.880142 0.000000
0.440468 0.882202 0.000000
0.509036 0.884263 0.000000
0.577604 0.886323 0.000000
0.646172 0.888383 0.000000
0.714741 0.890443 0.000000
0.783309 0.892504 0.000000
0.851877 0.894564 0.000000
0.920446 0.896624 0.000000
0.989014 0.898685 0.000000
1.000000 0.899980 0.000000
1.000000 0.899980 0.000000
0.040000 0.938750 0.000000
0.105625 0.938750 0.000000
0.171588 0.938986 0.000000
0.240156 0.941047 0.000000
0.308724 0.943107 0.000000
0.377292 0.945167 0.000000
0.445861 0.947227 0.000000
0.514429 0.949288 0.000000
0.582997 0.951348 0.000000
0.651565 0.953408 0.000000
0.720134 0.955469 0.000000
0.788702 0.957529 0.000000
0.857270 0.959589 0.000000
0.925839 0.961650 0.000000
0.994407 0.963710 0.000000
1.000000 0.965005 0.000000
1.000000 0.965005 0.000000
0.040000 1.000000 0.000000
0.108412 1.000000 0.000000
0.176981 1.000000 0.000000
0.245549 1.000000 0.000000
0.314117 1.000000 0.000000
0.382685 1.000000 0.000000
0.451254 1.000000 0.000000
0.519822 1.000000 0.000000
0.588390 1.000000 0.000000
0.656959 1.000000 0.000000
0.725527 1.000000 0.000000
0.794095 1.000000 0.000000
0.862663 1.000000 0.000000
0.931232 1.000000 0.000000
0.999800 1.000000 0.000000
1.000000 1.000000 0.000000
1.000000 1.000000 0.000000
0.040000 0.020000 0.031250
0.105625 0.020000 0.031250
0.171250 0.020000 0.031250
0.236875 0.020000 0.031250
0.302500 0.020000 0.031250
0.368125 0.020000 0.031250
0.433750 0.020000 0.031250
0.499375 0.020000 0.031250
0.565000 0.020000 0.031250
0.630625 0.020000 0.031250
0.696250 0.020000 0.031250
0.761875 0.020000 0.031250
0.827500 0.020000 0.031250
0.893125 0.020000 0.031250
0.958750 0.020000 0.031250
1.000000 0.020000 0.031250
1.000000 0.020000 0.031250
0.040000 0.081250 0.031250
0.105625 0.081250 0.031250
0.171250 0.081250 0.031250
0.236875 0.081250 0.031250
0.302500 0.081250 0.031250
0.368125 0.081250 0.031250
0.433750 0.081250 0.031250
0.499375 0.081250 0.031250
0.565000 0.081250 0.031250
0.630625 0.081250 0.031250
0.696250 0.081250 0.031250
0.761875 0.081250 0.031250
0.827500 0.081250 0.031250
0.893125 0.081250 0.031250
0.958750 0.081250 0.031250
1.000000 0.081250 0.031250
1.000000 0.081250 0.031250
0.040000 0.142500 0.031250
0.105625 0.142500 0.031250
0.171250 0.142500 0.031250
0.236875 0.142500 0.031250
0.302500 0.142500 0.031250
0.368125 0.142500 0.031250
0.433750 0.142500 0.031250
0.499375 0.142500 0.031250
0.565000 0.142500 0.031250
0.630625 0.142500 0.031250
0.696250 0.142500 0.031250
0.761875 0.142500 0.031250
0.827500 0.142500 0.031250
0.893125 0.142500 0.031250
0.958750 0.142500 0.031250
1.000000 0.142500 0.031250
1.000000 0.142500 0.031250
0.040000 0.203750 0.031250
0.105625 0.203750 0.031250
0.171250 0.203750 0.031250
0.236875 0.203750 0.031250
0.302500 0.203750 0.031250
0.368125 0.203750 0.031250
0.433750 0.203750 0.031250
0.499375 0.203750 0.031250
0.565000 0.203750 0.031250
0.630625 0.203750 0.031250
0.696250 0.203750 0.031250
0.761875 0.203750 0.031250
0.827500 0.203750 0.031250
0.893125 0.203750 0.031250
0.958750 0.203750 0.031250
1.000000 0.203750 0.031250
1.000000 0.203750 0.031250
0.040000 0.265000 0.031250
0.105625 0.265000 0.031250
0.171250 0.265000 0.031250
0.236875 0.265000 0.031250
0.302500 0.265000 0.031250
0.368125 0.265000 0.031250
0.433750 0.265000 0.031250
0.499375 0.265000 0.031250
0.565000 0.265000 0.031250
0.630625 0.265000 0.031250
0.696250 0.265000 0.031250
0.761875 0.265000 0.031250
0.827500 0.265000 0.031250
0.893125 0.265000 0.031250
0.958750 0.265000 0.031250
1.000000 0.265000 0.031250
1.000000 0.265000 0.031250
0.040000 0.326250 0.031250
0.105625 0.326250 0.031250
0.171250 0.326250 0.031250
0.236875 0.326250 0.031250
0.302500 0.326250 0.031250
0.368125 0.326250 0.031250
0.433750 0.326250 0.031250
0.499375 0.326250 0.031250
0.565000 0.326250 0.031250
0.630625 0.326250 0.031250
0.696250 0.326250 0.031250
0.761875 0.326250 0.031250
0.827500 0.326250 0.031250
0.893125 0.326250 0.031250
0.958750 0.326250 0.031250
1.000000 0.326250 0.031250
1.000000 0.326250 0.031250
0.040000 0.387500 0.031250
0.105625 0.387500 0.031250
0.171250 0.387500 0.031250
0.236875 0.387500 0.031250
0.302500 0.387500 0.031250
0.368125 0.387500 0.031250
0.433750 0.387500 0.031250
0.499375 0.387500 0.031250
0.565000 0.387500 0.031250
0.630625 0.387500 0.031250
0.696250 0.387500 0.031250
0.761875 0.387500 0.031250
0.827500 0.387500 0.031250
0.893125 0.387500 0.031250
0.958750 0.387500 0.031250
1.000000 0.387500 0.031250
1.000000 0.387500 0.031250
0.040000 0.448750 0.031250
0.105625 0.448750 0.031250
0.171250 0.448750 0.031250
0.236875 0.448750 0.031250
0.302500 0.448750 0.031250
0.368125 0.448750 0.031250
0.433750 0.448750 0.031250
0.499375 0.448750 0.031250
0.565000 0.448750 0.031250
0.630625 0.448750 0.031250
0.696250 0.448750 0.031250
0.761875 0.448750 0.031250
0.827500 0.448750 0.031250
0.893125 0.448750 0.031250
0.958750 0.448750 0.031250
1.000000 0.448750 0.031250
1.000000 0.448750 0.031250
0.040000 0.510000 0.031250
0.105625 0.510000 0.031250
0.171250 0.510000 0.031250
0.236875 0.510000 0.031250
0.302500 0.510000 0.031250
0.368125 0.510000 0.031250
0.433750 0.510000 0.031250
0.499375 0.510000 0.031250
0.565000 0.510000 0.031250
0.630625 0.510000 0.031250
0.696250 0.510000 0.031250
0.761875 0.510000 0.031250
0.827500 0.510000 0.031250
0.893125 0.510000 0.031250
0.958750 0.510000 0.031250
1.000000 0.510203 0.031250
1.000000 0.510203 0.031250
0.040000 0.571250 0.031250
0.105625 0.571250 0.031250
0.171250 0.571250 0.031250
0.236875 0.571250 0.031250
0.302500 0.571250 0.031250
0.368125 0.571250 0.031250
0.433750 0.571250 0.031250
0.499375 0.571250 0.031250
0.565000 0.571250 0.031250
0.630625 0.571250 0.031250
0.696250 0.571250 0.031250
0.761875 0.571250 0.031250
0.827500 0.571250 0.031250
0.894015 0.571873 0.031250
0.962583 0.573933 0.031250
1.000000 0.575228 0.031250
1.000000 0.575228 0.031250
0.040000 0.632500 0.031250
0.105625 0.632500 0.031250
0.171250 0.632500 0.031250
0.236875 0.632500 0.031250
0.302500 0.632500 0.031250
0.368125 0.632500 0.031250
0.433750 0.632500 0.031250
0.499375 0.632500 0.031250
0.565000 0.632500 0.031250
0.630625 0.632500 0.031250
0.696250 0.632500 0.031250
0.762271 0.632777 0.031250
0.830839 0.634838 0.031250
0.899408 0.636898 0.031250
0.967976 0.638958 0.031250
1.000000 0.640253 0.031250
1.000000 0.640253 0.031250
0.040000 0.693750 0.031250
0.105625 0.693750 0.031250
0.171250 0.693750 0.031250
0.236875 0.693750 0.031250
0.302500 0.693750 0.031250
0.368125 0.693750 0.031250
0.433750 0.693750 0.031250
0.499375 0.693750 0.031250
0.565000 0.693750 0.031250
0.630625 0.693750 0.031250
0.699096 0.695742 0.031250
0.767664 0.697802 0.031250
0.836232 0.699863 0.031250
0.904801 0.701923 0.031250
0.973369 0.703983 0.031250
1.000000 0.705278 0.031250
1.000000 0.705278 0.031250
0.040000 0.755000 0.031250
0.105625 0.755000 0.031250
0.171250 0.755000 0.031250
0.236875 0.755000 0.031250
0.302500 0.755000 0.031250
0.368125 0.755000 0.031250
0.433750 0.755000 0.031250
0.499375 0.755000 0.031250
0.567352 0.756647 0.031250
0.635921 0.758707 0.031250
0.704489 0.760767 0.031250
0.773057 0.762828 0.031250
0.841626 0.764888 0.031250
0.910194 0.766948 0.031250
0.978762 0.769008 0.031250
1.000000 0.770303 0.031250
1.000000 0.770303 0.031250
0.040000 0.816250 0.031250
0.105625 0.816250 0.031250
0.171250 0.816250 0.031250
0.236875 0.816250 0.031250
0.302500 0.816250 0.031250
0.368125 0.816250 0.031250
0.435609 0.817551 0.031250
0.504177 0.819612 0.031250
0.572745 0.821672 0.031250
0.641314 0.823732 0.031250
0.709882 0.825792 0.031250
0.778450 0.827853 0.031250
0.847019 0.829913 0.031250
0.915587 0.831973 0.031250
0.984155 0.834034 0.031250
1.000000 0.835329 0.031250
1.000000 0.835329 0.031250
0.040000 0.877500 0.031250
0.105625 0.877500 0.031250
0.171250 0.877500 0.031250
0.236875 0.877500 0.031250
0.303865 0.878456 0.031250
0.372434 0.880516 0.031250
0.441002 0.882576 0.031250
0.509570 0.884637 0.031250
0.578139 0.886697 0.031250
0.646707 0.888757 0.031250
0.715275 0.890818 0.031250
0.783843 0.892878 0.031250
0.852412 0.894938 0.031250
0.920980 0.896998 0.031250
0.989548 0.899059 0.031250
1.000000 0.900354 0.031250
1.000000 0.900354 0.031250
0.040000 0.938750 0.031250
0.105625 0.938750 0.031250
0.172122 0.939360 0.031250
0.240690 0.941421 0.031250
0.309258 0.943481 0.031250
0.377827 0.945541 0.031250
0.446395 0.947601 0.031250
0.514963 0.949662 0.031250
0.583532 0.951722 0.031250
0.652100 0.953782 0.031250
0.720668 0.955843 0.031250
0.789236 0.957903 0.031250
0.857805 0.959963 0.031250
0.926373 0.962024 0.031250
0.994941 0.964084 0.031250
1.000000 0.965379 0.031250
1.000000 0.965379 0.031250
0.040378 1.000000 0.031250
0.108947 1.000000 0.031250
0.177515 1.000000 0.031250
0.246083 1.000000 0.031250
0.314651 1.000000 0.031250
0.383220 1.000000 0.031250
0.451788 1.000000 0.031250
0.520356 1.000000 0.031250
0.588925 1.000000 0.031250
0.657493 1.000000 0.031250
0.726061 1.000000 0.031250
0.794629 1.000000 0.031250
0.863198 1.000000 0.031250
0.931766 1.000000 0.031250
1.000000 1.000000 0.031250
1.000000 1.000000 0.031250
1.000000 1.000000 0.031250
0.040000 0.020000 0.082500
0.105625 0.020000 0.082500
0.171250 0.020000 0.082500
0.236875 0.020000 0.082500
0.302500 0.020000 0.082500
0.368125 0.020000 0.082500
0.433750 0.020000 0.082500
0.499375 0.020000 0.082500
0.565000 0.020000 0.082500
0.630625 0.020000 0.082500
0.696250 0.020000 0.082500
0.761875 0.020000 0.082500
0.827500 0.020000 0.082500
0.893125 0.020000 0.082500
0.958750 0.020000 0.082500
1.000000 0.020000 0.082500
1.000000 0.020000 0.082500
0.040000 0.081250 0.082500
0.105625 0.081250 0.082500
0.171250 0.081250 0.082500
0.236875 0.081250 0.082500
0.302500 0.081250 0.082500
0.368125 0.081250 0.082500
0.433750 0.081250 0.082500
0.499375 0.081250 0.082500
0.565000 0.081250 0.082500
0.630625 0.081250 0.082500
0.696250 0.081250 0.082500
0.761875 0.081250 0.082500
0.827500 0.081250 0.082500
0.893125 0.081250 0.082500
0.958750 0.081250 0.082500
1.000000 0.081250 0.082500
1.000000 0.081250 0.082500
0.040000 0.142500 0.082500
0.105625 0.142500 0.082500
0.171250 0.142500 0.082500
0.236875 0.142500 0.082500
0.302500 0.142500 0.082500
0.368125 0.142500 0.082500
0.433750 0.142500 0.082500
0.499375 0.142500 0.082500
0.565000 0.142500 0.082500
0.630625 0.142500 0.082500
0.696250 0.142500 0.082500
0.761875 0.142500 0.082500
0.827500 0.142500 0.082500
0.893125 0.142500 0.082500
0.958750 0.142500 0.082500
1.000000 0.142500 0.082500
1.000000 0.142500 0.082500
0.040000 0.203750 0.082500
0.105625 0.203750 0.082500
0.171250 0.203750 0.082500
0.236875 0.203750 0.082500
0.302500 0.203750 0.082500
0.368125 0.203750 0.082500
0.433750 0.203750 0.082500
0.499375 0.203750 0.082500
0.565000 0.203750 0.082500
0.630625 0.203750 0.082500
0.696250 0.203750 0.082500
0.761875 0.203750 0.082500
0.827500 0.203750 0.082500
0.893125 0.203750 0.082500
0.958750 0.203750 0.082500
1.000000 0.203750 0.082500
1.000000 0.203750 0.082500
0.040000 0.265000 0.082500
0.105625 0.265000 0.082500
0.171250 0.265000 0.082500
0.236875 0.265000 0.082500
0.302500 0.265000 0.082500
0.368125 0.265000 0.082500
0.433750 0.265000 0.082500
0.499375 0.265000 0.082500
0.565000 0.265000 0.082500
0.630625 0.265000 0.082500
0.696250 0.265000 0.082500
0.761875 0.265000 0.082500
0.827500 0.265000 0.082500
0.893125 0.265000 0.082500
0.958750 0.265000 0.082500
1.000000 0.265000 0.082500
1.000000 0.265000 0.082500
0.040000 0.326250 0.082500
0.105625 0.326250 0.082500
0.171250 0.326250 0.082500
0.236875 0.326250 0.082500
0.302500 0.326250 0.082500
0.368125 0.326250 0.082500
0.433750 0.326250 0.082500
0.499375 0.326250 0.082500
0.565000 0.326250 0.082500
0.630625 0.326250 0.082500
0.696250 0.326250 0.082500
0.761875 0.326250 0.082500
0.827500 0.326250 0.082500
0.893125 0.326250 0.082500
0.958750 0.326250 0.082500
1.000000 0.326250 0.082500
1.000000 0.326250 0.082500
0.040000 0.387500 0.082500
0.105625 0.387500 0.082500
0.171250 0.387500 0.082500
0.236875 0.387500 0.082500
0.302500 0.387500 0.082500
0.368125 0.387500 0.082500
0.433750 0.387500 0.082500
0.499375 0.387500 0.082500
0.565000 0.387500 0.082500
0.630625 0.387500 0.082500
0.696250 0.387500 0.082500
0.761875 0.387500 0.082500
0.827500 0.387500 0.082500
0.893125 0.387500 0.082500
0.958750 0.387500 0.082500
1.000000 0.387500 0.082500
1.000000 0.387500 0.082500
0.040000 0.448750 0.082500
0.105625 0.448750 0.082500
0.171250 0.448750 0.082500
0.236875 0.448750 0.082500
0.302500 0.448750 0.082500
0.368125 0.448750 0.082500
0.433750 0.448750 0.082500
0.499375 0.448750 0.082500
0.565000 0.448750 0.082500
0.630625 0.448750 0.082500
0.696250 0.448750 0.082500
0.761875 0.448750 0.082500
0.827500 0.448750 0.082500
0.893125 0.448750 0.082500
0.958750 0.448750 0.082500
1.000000 0.448750 0.082500
1.000000 0.448750 0.082500
0.040000 0.510000 0.082500
0.105625 0.510000 0.082500
0.171250 0.510000 0.082500
0.236875 0.510000 0.082500
0.302500 0.510000 0.082500
0.368125 0.510000 0.082500
0.433750 0.510000 0.082500
0.499375 0.510000 0.082500
0.565000 0.510000 0.082500
0.630625 0.510000 0.082500
0.696250 0.510000 0.082500
0.761875 0.510000 0.082500
0.827500 0.510000 0.082500
0.893125 0.510000 0.082500
0.958750 0.510000 0.082500
1.000000 0.510816 0.082500
1.000000 0.510816 0.082500
0.040000 0.571250 0.082500
0.105625 0.571250 0.082500
0.171250 0.571250 0.082500
0.236875 0.571250 0.082500
0.302500 0.571250 0.082500
0.368125 0.571250 0.082500
0.433750 0.571250 0.082500
0.499375 0.571250 0.082500
0.565000 0.571250 0.082500
0.630625 0.571250 0.082500
0.696250 0.571250 0.082500
0.761875 0.571250 0.082500
0.827500 0.571250 0.082500
0.894891 0.572486 0.082500
0.963459 0.574546 0.082500
1.000000 0.575842 0.082500
1.000000 0.575842 0.082500
0.040000 0.632500 0.082500
0.105625 0.632500 0.082500
0.171250 0.632500 0.082500
0.236875 0.632500 0.082500
0.302500 0.632500 0.082500
0.368125 0.632500 0.082500
0.433750 0.632500 0.082500
0.499375 0.632500 0.082500
0.565000 0.632500 0.082500
0.630625 0.632500 0.082500
0.696250 0.632500 0.082500
0.763147 0.633391 0.082500
0.831716 0.635451 0.082500
0.900284 0.637511 0.082500
0.968852 0.639572 0.082500
1.000000 0.640867 0.082500
1.000000 0.640867 0.082500
0.040000 0.693750 0.082500
0.105625 0.693750 0.082500
0.171250 0.693750 0.082500
0.236875 0.693750 0.082500
0.302500 0.693750 0.082500
0.368125 0.693750 0.082500
0.433750 0.693750 0.082500
0.499375 0.693750 0.082500
0.565000 0.693750 0.082500
0.631404 0.694295 0.082500
0.699972 0.696356 0.082500
0.768541 0.698416 0.082500
0.837109 0.700476 0.082500
0.905677 0.702536 0.082500
0.974245 0.704597 0.082500
1.000000 0.705892 0.082500
1.000000 0.705892 0.082500
0.040000 0.755000 0.082500
0.105625 0.755000 0.082500
0.171250 0.755000 0.082500
0.236875 0.755000 0.082500
0.302500 0.755000 0.082500
0.368125 0.755000 0.082500
0.433750 0.755000 0.082500
0.499660 0.755200 0.082500
0.568229 0.757260 0.082500
0.636797 0.759320 0.082500
0.705365 0.761381 0.082500
0.773934 0.763441 0.082500
0.842502 0.765501 0.082500
0.911070 0.767562 0.082500
0.979638 0.769622 0.082500
1.000000 0.770917 0.082500
1.000000 0.770917 0.082500
0.040000 0.816250 0.082500
0.105625 0.816250 0.082500
0.171250 0.816250 0.082500
0.236875 0.816250 0.082500
0.302500 0.816250 0.082500
0.368125 0.816250 0.082500
0.436485 0.818165 0.082500
0.505054 0.820225 0.082500
0.573622 0.822285 0.082500
0.642190 0.824346 0.082500
0.710758 0.826406 0.082500
0.779327 0.828466 0.082500
0.847895 0.830526 0.082500
0.916463 0.832587 0.082500
0.985032 0.834647 0.082500
1.000000 0.835942 0.082500
1.000000 0.835942 0.082500
0.040000 0.877500 0.082500
0.105625 0.877500 0.082500
0.171250 0.877500 0.082500
0.236875 0.877500 0.082500
0.304742 0.879069 0.082500
0.373310 0.881130 0.082500
0.441878 0.883190 0.082500
0.510447 0.885250 0.082500
0.579015 0.887310 0.082500
0.647583 0.889371 0.082500
0.716151 0.891431 0.082500
0.784720 0.893491 0.082500
0.853288 0.895552 0.082500
0.921856 0.897612 0.082500
0.990425 0.899672 0.082500
1.000000 0.900967 0.082500
1.000000 0.900967 0.082500
0.040000 0.938750 0.082500
0.105625 0.938750 0.082500
0.172998 0.939974 0.082500
0.241567 0.942034 0.082500
0.310135 0.944094 0.082500
0.378703 0.946155 0.082500
0.447271 0.948215 0.082500
0.515840 0.950275 0.082500
0.584408 0.952336 0.082500
0.652976 0.954396 0.082500
0.721545 0.956456 0.082500
0.790113 0.958516 0.082500
0.858681 0.960577 0.082500
0.927249 0.962637 0.082500
0.995818 0.964697 0.082500
1.000000 0.965992 0.082500
1.000000 0.965992 0.082500
0.041255 1.000000 0.082500
0.109823 1.000000 0.082500
0.178391 1.000000 0.082500
0.246960 1.000000 0.082500
0.315528 1.000000 0.082500
0.384096 1.000000 0.082500
0.452664 1.000000 0.082500
0.521233 1.000000 0.082500
0.589801 1.000000 0.082500
0.658369 1.000000 0.082500
0.726938 1.000000 0.082500
0.795506 1.000000 0.082500
0.864074 1.000000 0.082500
0.932642 1.000000 0.082500
1.000000 1.000000 0.082500
1.000000 1.000000 0.082500
1.000000 1.000000 0.082500
0.040000 0.020000 0.133750
0.105625 0.020000 0.133750
0.171250 0.020000 0.133750
0.236875 0.020000 0.133750
0.302500 0.020000 0.133750
0.368125 0.020000 0.133750
0.433750 0.020000 0.133750
0.499375 0.020000 0.133750
0.565000 0.020000 0.133750
0.630625 0.020000 0.133750
0.696250 0.020000 0.133750
0.761875 0.020000 0.133750
0.827500 0.020000 0.133750
0.893125 0.020000 0.133750
0.958750 0.020000 0.133750
1.000000 0.020000 0.133750
1.000000 0.020000 0.133750
0.040000 0.081250 0.133750
