roles/videoref-engine/files/luts/teal-orange.cube
TITLE "Teal Orange Blockbuster"
LUT_3D_SIZE 5
DOMAIN_MIN 0.0 0.0 0.0
DOMAIN_MAX 1.0 1.0 1.0
0.000000 0.000000 0.038000
0.196933 0.000000 0.024844
0.476867 0.000000 0.011688
0.756800 0.000000 0.000000
1.000000 0.000000 0.000000
0.000000 0.252336 0.012172
0.206619 0.249197 0.000000
0.486552 0.246057 0.000000
0.766486 0.242918 0.000000
1.000000 0.239779 0.000000
0.000000 0.508673 0.000000
0.216304 0.505533 0.000000
0.496238 0.502394 0.000000
0.778124 0.499254 0.000000
1.000000 0.496115 0.000000
0.000000 0.765010 0.000000
0.227640 0.761870 0.000000
0.515796 0.758730 0.000000
0.803952 0.755591 0.000000
1.000000 0.752452 0.000000
0.000000 1.000000 0.000000
0.253468 1.000000 0.000000
0.541624 1.000000 0.000000
0.829780 1.000000 0.000000
1.000000 1.000000 0.000000
0.000000 0.000000 0.307984
0.198815 0.000000 0.294828
0.478748 0.000000 0.281672
0.758682 0.000000 0.268516
1.000000 0.000000 0.255360
0.000000 0.251139 0.282156
0.208500 0.248000 0.269000
0.488434 0.244860 0.255844
0.768367 0.241721 0.242688
1.000000 0.238581 0.229532
0.000000 0.507476 0.256328
0.218185 0.504336 0.243172
0.498119 0.501197 0.230016
0.783140 0.498057 0.218895
1.000000 0.494918 0.209028
0.000000 0.763813 0.230500
0.232656 0.760673 0.219258
0.520812 0.757533 0.209391
0.808968 0.754394 0.199524
1.000000 0.751254 0.189657
0.000000 1.000000 0.209754
0.258484 1.000000 0.199887
0.546640 1.000000 0.190020
0.834796 1.000000 0.180153
1.000000 1.000000 0.170286
0.000000 0.000000 0.577968
0.200696 0.000000 0.564812
0.480629 0.000000 0.551656
0.760563 0.000000 0.538500
1.000000 0.000000 0.525344
0.000000 0.249943 0.552140
0.210381 0.246803 0.538984
0.490314 0.243663 0.525828
0.770248 0.240524 0.512672
1.000000 0.237384 0.499637
0.000000 0.506279 0.526312
0.220066 0.503140 0.513156
0.500000 0.500000 0.500000
0.788156 0.496860 0.490133
1.000000 0.493721 0.480266
0.000000 0.762616 0.500484
0.237672 0.759476 0.490496
0.525828 0.756336 0.480629
0.813984 0.753197 0.470762
1.000000 0.750058 0.460895
0.000000 1.000000 0.480992
0.263500 1.000000 0.471125
0.551656 1.000000 0.461258
0.839812 1.000000 0.451391
1.000000 1.000000 0.441524
0.000000 0.000000 0.847952
0.202576 0.000000 0.834796
0.482510 0.000000 0.821640
0.762444 0.000000 0.808484
1.000000 0.000000 0.795328
0.000000 0.248746 0.822124
0.212262 0.245606 0.808968
0.492195 0.242467 0.795812
0.772129 0.239327 0.782656
1.000000 0.236187 0.770875
0.000000 0.505082 0.796296
0.221948 0.501943 0.783140
0.505016 0.498803 0.771238
0.793172 0.495663 0.761371
1.000000 0.492524 0.751504
0.000000 0.761418 0.771601
0.242688 0.758279 0.761734
0.530844 0.755140 0.751867
0.819000 0.752000 0.742000
1.000000 0.748861 0.732133
0.000000 1.000000 0.752230
0.268516 1.000000 0.742363
0.556672 1.000000 0.732496
0.844828 1.000000 0.722629
1.000000 1.000000 0.712762
0.000000 0.000000 1.000000
0.204457 0.000000 1.000000
0.484391 0.000000 1.000000
0.764325 0.000000 1.000000
1.000000 0.000000 1.000000
0.000000 0.247549 1.000000
0.214143 0.244409 1.000000
0.494077 0.241269 1.000000
0.774010 0.238130 1.000000
1.000000 0.234990 1.000000
0.000000 0.503885 1.000000
0.223828 0.500745 1.000000
0.510032 0.497606 1.000000
0.798188 0.494467 1.000000
1.000000 0.491327 1.000000
0.000000 0.760221 1.000000
0.247704 0.757082 1.000000
0.535860 0.753942 1.000000
0.824016 0.750803 1.000000
1.000000 0.747664 1.000000
0.000000 1.000000 1.000000
0.273532 1.000000 1.000000
0.561688 1.000000 1.000000
0.849844 1.000000 0.993867
1.000000 1.000000 0.984000
