roles/videoref-engine/files/luts/teal-orange.cube
TITLE "Teal Orange Blockbuster"
LUT_3D_SIZE 9
DOMAIN_MIN 0.0 0.0 0.0
DOMAIN_MAX 1.0 1.0 1.0
0.000000 0.000000 0.038000
0.056967 0.000000 0.031422
0.196933 0.000000 0.024844
0.336900 0.000000 0.018266
0.476867 0.000000 0.011688
0.616834 0.000000 0.005110
0.756800 0.000000 0.000000
0.896767 0.000000 0.000000
1.000000 0.000000 0.000000
0.000000 0.124168 0.025086
0.061809 0.122598 0.018508
0.201776 0.121029 0.011930
0.341743 0.119459 0.005352
0.481710 0.117889 0.000000
0.621677 0.116319 0.000000
0.761643 0.114750 0.000000
0.901610 0.113180 0.000000
1.000000 0.111610 0.000000
0.000000 0.252336 0.012172
0.066652 0.250767 0.005594
0.206619 0.249197 0.000000
0.346586 0.247627 0.000000
0.486552 0.246057 0.000000
0.626519 0.244488 0.000000
0.766486 0.242918 0.000000
0.906453 0.241348 0.000000
1.000000 0.239779 0.000000
0.000000 0.380505 0.000000
0.071495 0.378935 0.000000
0.211462 0.377365 0.000000
0.351429 0.375796 0.000000
0.491395 0.374226 0.000000
0.631362 0.372656 0.000000
0.771329 0.371086 0.000000
0.911296 0.369517 0.000000
1.000000 0.367947 0.000000
0.000000 0.508673 0.000000
0.076338 0.507103 0.000000
0.216304 0.505533 0.000000
0.356271 0.503964 0.000000
0.496238 0.502394 0.000000
0.636205 0.500824 0.000000
0.778124 0.499254 0.000000
0.922202 0.497685 0.000000
1.000000 0.496115 0.000000
0.000000 0.636841 0.000000
0.081180 0.635271 0.000000
0.221147 0.633702 0.000000
0.361114 0.632132 0.000000
0.502882 0.630562 0.000000
0.646960 0.628993 0.000000
0.791038 0.627423 0.000000
0.935116 0.625853 0.000000
1.000000 0.624283 0.000000
0.000000 0.765010 0.000000
0.086023 0.763440 0.000000
0.227640 0.761870 0.000000
0.371718 0.760300 0.000000
0.515796 0.758730 0.000000
0.659874 0.757161 0.000000
0.803952 0.755591 0.000000
0.948030 0.754021 0.000000
1.000000 0.752452 0.000000
0.000000 0.893178 0.000000
0.096476 0.891608 0.000000
0.240554 0.890038 0.000000
0.384632 0.888469 0.000000
0.528710 0.886899 0.000000
0.672788 0.885329 0.000000
0.816866 0.883759 0.000000
0.960944 0.882190 0.000000
1.000000 0.880620 0.000000
0.000000 1.000000 0.000000
0.109390 1.000000 0.000000
0.253468 1.000000 0.000000
0.397546 1.000000 0.000000
0.541624 1.000000 0.000000
0.685702 1.000000 0.000000
0.829780 1.000000 0.000000
0.973858 1.000000 0.000000
1.000000 1.000000 0.000000
0.000000 0.000000 0.172992
0.057907 0.000000 0.166414
0.197874 0.000000 0.159836
0.337841 0.000000 0.153258
0.477807 0.000000 0.146680
0.617774 0.000000 0.140102
0.757741 0.000000 0.133524
0.897708 0.000000 0.126946
1.000000 0.000000 0.120368
0.000000 0.123570 0.160078
0.062750 0.122000 0.153500
0.202717 0.120430 0.146922
0.342683 0.118860 0.140344
0.482650 0.117291 0.133766
0.622617 0.115721 0.127188
0.762584 0.114151 0.120610
0.902551 0.112581 0.114032
1.000000 0.111012 0.107454
0.000000 0.251738 0.147164
0.067593 0.250168 0.140586
0.207559 0.248599 0.134008
0.347526 0.247029 0.127430
0.487493 0.245459 0.120852
0.627460 0.243889 0.114274
0.767427 0.242319 0.107696
0.907393 0.240750 0.101118
1.000000 0.239180 0.094540
0.000000 0.379906 0.134250
0.072435 0.378337 0.127672
0.212402 0.376767 0.121094
0.352369 0.375197 0.114516
0.492336 0.373627 0.107938
0.632302 0.372057 0.101360
0.772269 0.370488 0.094782
0.912236 0.368918 0.088204
1.000000 0.367348 0.083094
0.000000 0.508074 0.121336
0.077278 0.506505 0.114758
0.217245 0.504935 0.108180
0.357212 0.503365 0.101602
0.497179 0.501795 0.095024
0.637145 0.500226 0.088446
0.780632 0.498656 0.083276
0.924710 0.497086 0.078342
1.000000 0.495517 0.073409
0.000000 0.636243 0.108422
0.082121 0.634673 0.101844
0.222088 0.633103 0.095266
0.362055 0.631533 0.088688
0.505390 0.629964 0.083457
0.649468 0.628394 0.078524
0.793546 0.626824 0.073590
0.937624 0.625255 0.068657
1.000000 0.623685 0.063723
0.000000 0.764411 0.095508
0.086964 0.762841 0.088930
0.230148 0.761271 0.083639
0.374226 0.759702 0.078705
0.518304 0.758132 0.073772
0.662382 0.756562 0.068838
0.806460 0.754992 0.063905
0.950538 0.753423 0.058971
1.000000 0.751853 0.054038
0.000000 0.892579 0.083820
0.098984 0.891010 0.078887
0.243062 0.889440 0.073954
0.387140 0.887870 0.069020
0.531218 0.886300 0.064086
0.675296 0.884731 0.059153
0.819374 0.883161 0.054219
0.963452 0.881591 0.049286
1.000000 0.880021 0.044353
0.000000 1.000000 0.074135
0.111898 1.000000 0.069201
0.255976 1.000000 0.064268
0.400054 1.000000 0.059334
0.544132 1.000000 0.054401
0.688210 1.000000 0.049467
0.832288 1.000000 0.044534
0.976366 1.000000 0.039600
1.000000 1.000000 0.034667
0.000000 0.000000 0.307984
0.058848 0.000000 0.301406
0.198815 0.000000 0.294828
0.338781 0.000000 0.288250
0.478748 0.000000 0.281672
0.618715 0.000000 0.275094
0.758682 0.000000 0.268516
0.898648 0.000000 0.261938
1.000000 0.000000 0.255360
0.000000 0.122971 0.295070
0.063690 0.121401 0.288492
0.203657 0.119832 0.281914
0.343624 0.118262 0.275336
0.483591 0.116692 0.268758
0.623557 0.115123 0.262180
0.763524 0.113553 0.255602
0.903491 0.111983 0.249024
1.000000 0.110413 0.242446
0.000000 0.251139 0.282156
0.068533 0.249570 0.275578
0.208500 0.248000 0.269000
0.348467 0.246430 0.262422
0.488434 0.244860 0.255844
0.628400 0.243291 0.249266
0.768367 0.241721 0.242688
0.908334 0.240151 0.236110
1.000000 0.238581 0.229532
0.000000 0.379308 0.269242
0.073376 0.377738 0.262664
0.213343 0.376168 0.256086
0.353309 0.374599 0.249508
0.493276 0.373029 0.242930
0.633243 0.371459 0.236352
0.773210 0.369889 0.229774
0.914304 0.368319 0.223647
1.000000 0.366750 0.218713
0.000000 0.507476 0.256328
0.078219 0.505906 0.249750
0.218185 0.504336 0.243172
0.358152 0.502767 0.236594
0.498119 0.501197 0.230016
0.639062 0.499627 0.223828
0.783140 0.498057 0.218895
0.927218 0.496488 0.213961
1.000000 0.494918 0.209028
0.000000 0.635644 0.243414
0.083061 0.634074 0.236836
0.223028 0.632505 0.230258
0.363820 0.630935 0.224010
0.507898 0.629365 0.219077
0.651976 0.627795 0.214143
0.796054 0.626226 0.209209
0.940132 0.624656 0.204276
1.000000 0.623086 0.199342
0.000000 0.763813 0.230500
0.088578 0.762243 0.224191
0.232656 0.760673 0.219258
0.376734 0.759103 0.214325
0.520812 0.757533 0.209391
0.664890 0.755964 0.204457
0.808968 0.754394 0.199524
0.953046 0.752824 0.194590
1.000000 0.751254 0.189657
0.000000 0.891981 0.219439
0.101492 0.890411 0.214506
0.245570 0.888841 0.209573
0.389648 0.887271 0.204639
0.533726 0.885702 0.199705
0.677804 0.884132 0.194772
0.821882 0.882562 0.189838
0.965960 0.880993 0.184905
1.000000 0.879423 0.179971
0.000000 1.000000 0.209754
0.114406 1.000000 0.204820
0.258484 1.000000 0.199887
0.402562 1.000000 0.194954
0.546640 1.000000 0.190020
0.690718 1.000000 0.185086
0.834796 1.000000 0.180153
0.978874 1.000000 0.175219
1.000000 1.000000 0.170286
0.000000 0.000000 0.442976
0.059788 0.000000 0.436398
0.199755 0.000000 0.429820
0.339722 0.000000 0.423242
0.479688 0.000000 0.416664
0.619655 0.000000 0.410086
0.759622 0.000000 0.403508
0.899589 0.000000 0.396930
1.000000 0.000000 0.390352
0.000000 0.122373 0.430062
0.064631 0.120803 0.423484
0.204598 0.119233 0.416906
0.344564 0.117663 0.410328
0.484531 0.116094 0.403750
0.624498 0.114524 0.397172
0.764465 0.112954 0.390594
0.904432 0.111384 0.384016
1.000000 0.109815 0.377438
0.000000 0.250541 0.417148
0.069474 0.248971 0.410570
0.209441 0.247401 0.403992
0.349407 0.245832 0.397414
0.489374 0.244262 0.390836
0.629341 0.242692 0.384258
0.769308 0.241123 0.377680
0.909274 0.239553 0.371102
1.000000 0.237983 0.364524
0.000000 0.378709 0.404234
0.074316 0.377139 0.397656
0.214283 0.375570 0.391078
0.354250 0.374000 0.384500
0.494217 0.372430 0.377922
0.634184 0.370861 0.371344
0.774150 0.369291 0.364766
0.916812 0.367721 0.359266
1.000000 0.366151 0.354332
0.000000 0.506878 0.391320
0.079159 0.505308 0.384742
0.219126 0.503738 0.378164
0.359093 0.502168 0.371586
0.499059 0.500598 0.365008
0.641570 0.499029 0.359448
0.785648 0.497459 0.354514
0.929726 0.495889 0.349580
1.000000 0.494319 0.344647
0.000000 0.635046 0.378406
0.084002 0.633476 0.371828
0.223969 0.631906 0.365250
0.366328 0.630336 0.359629
0.510406 0.628767 0.354696
0.654484 0.627197 0.349762
0.798562 0.625627 0.344828
0.942640 0.624057 0.339895
1.000000 0.622488 0.334962
0.000000 0.763214 0.365492
0.091086 0.761644 0.359811
0.235164 0.760074 0.354877
0.379242 0.758505 0.349943
0.523320 0.756935 0.345010
0.667398 0.755365 0.340077
0.811476 0.753796 0.335143
0.955554 0.752226 0.330209
1.000000 0.750656 0.325276
0.000000 0.891382 0.355058
0.104000 0.889813 0.350125
0.248078 0.888243 0.345191
0.392156 0.886673 0.340258
0.536234 0.885103 0.335325
0.680312 0.883533 0.330391
0.824390 0.881964 0.325457
0.968468 0.880394 0.320524
1.000000 0.878824 0.315590
0.000000 1.000000 0.345373
0.116914 1.000000 0.340440
0.260992 1.000000 0.335506
0.405070 1.000000 0.330573
0.549148 1.000000 0.325639
0.693226 1.000000 0.320705
0.837304 1.000000 0.315772
0.981382 1.000000 0.310839
1.000000 1.000000 0.305905
0.000000 0.000000 0.577968
0.060729 0.000000 0.571390
0.200696 0.000000 0.564812
0.340662 0.000000 0.558234
0.480629 0.000000 0.551656
0.620596 0.000000 0.545078
0.760563 0.000000 0.538500
0.900529 0.000000 0.531922
1.000000 0.000000 0.525344
0.000000 0.121774 0.565054
0.065571 0.120204 0.558476
0.205538 0.118635 0.551898
0.345505 0.117065 0.545320
0.485472 0.115495 0.538742
0.625439 0.113926 0.532164
0.765405 0.112356 0.525586
0.905372 0.110786 0.519008
1.000000 0.109216 0.512430
0.000000 0.249943 0.552140
0.070414 0.248373 0.545562
0.210381 0.246803 0.538984
0.350348 0.245233 0.532406
0.490314 0.243663 0.525828
0.630281 0.242094 0.519250
0.770248 0.240524 0.512672
0.910215 0.238954 0.506094
1.000000 0.237384 0.499637
0.000000 0.378111 0.539226
0.075257 0.376541 0.532648
0.215224 0.374971 0.526070
0.355190 0.373401 0.519492
0.495157 0.371832 0.512914
0.635124 0.370262 0.506336
0.775242 0.368692 0.499818
0.919320 0.367123 0.494885
1.000000 0.365553 0.489951
0.000000 0.506279 0.526312
0.080100 0.504709 0.519734
0.220066 0.503140 0.513156
0.360033 0.501570 0.506578
0.500000 0.500000 0.500000
0.644078 0.498430 0.495066
0.788156 0.496860 0.490133
0.932234 0.495291 0.485200
1.000000 0.493721 0.480266
0.000000 0.634447 0.513398
0.084942 0.632878 0.506820
0.224909 0.631308 0.500242
0.368836 0.629738 0.495248
0.512914 0.628168 0.490314
0.656992 0.626598 0.485381
0.801070 0.625029 0.480448
0.945148 0.623459 0.475514
1.000000 0.621889 0.470580
0.000000 0.762616 0.500484
0.093594 0.761046 0.495429
0.237672 0.759476 0.490496
0.381750 0.757906 0.485563
0.525828 0.756336 0.480629
0.669906 0.754767 0.475696
0.813984 0.753197 0.470762
0.958062 0.751627 0.465828
1.000000 0.750058 0.460895
0.000000 0.890784 0.490677
0.106508 0.889214 0.485744
0.250586 0.887644 0.480811
0.394664 0.886074 0.475877
0.538742 0.884505 0.470943
0.682820 0.882935 0.466010
0.826898 0.881365 0.461077
0.970976 0.879795 0.456143
1.000000 0.878226 0.451210
0.000000 1.000000 0.480992
0.119422 1.000000 0.476058
0.263500 1.000000 0.471125
0.407578 1.000000 0.466191
0.551656 1.000000 0.461258
0.695734 1.000000 0.456325
0.839812 1.000000 0.451391
0.983890 1.000000 0.446457
1.000000 1.000000 0.441524
0.000000 0.000000 0.712960
0.061669 0.000000 0.706382
0.201636 0.000000 0.699804
0.341603 0.000000 0.693226
0.481569 0.000000 0.686648
0.621536 0.000000 0.680070
0.761503 0.000000 0.673492
0.901470 0.000000 0.666914
1.000000 0.000000 0.660336
0.000000 0.121176 0.700046
0.066512 0.119606 0.693468
0.206479 0.118036 0.686890
0.346445 0.116467 0.680312
0.486412 0.114897 0.673734
0.626379 0.113327 0.667156
0.766346 0.111757 0.660578
0.906313 0.110187 0.654000
1.000000 0.108618 0.647422
0.000000 0.249344 0.687132
0.071355 0.247774 0.680554
0.211321 0.246204 0.673976
0.351288 0.244635 0.667398
0.491255 0.243065 0.660820
0.631222 0.241495 0.654242
0.771188 0.239925 0.647664
0.911155 0.238356 0.641086
1.000000 0.236786 0.635256
0.000000 0.377512 0.674218
0.076197 0.375943 0.667640
0.216164 0.374373 0.661062
0.356131 0.372803 0.654484
0.496098 0.371233 0.647906
0.636065 0.369663 0.641328
0.777750 0.368094 0.635438
0.921828 0.366524 0.630504
1.000000 0.364954 0.625571
0.000000 0.505680 0.661304
0.081040 0.504111 0.654726
0.221007 0.502541 0.648148
0.360974 0.500971 0.641570
0.502508 0.499401 0.635619
0.646586 0.497832 0.630686
0.790664 0.496262 0.625752
0.934742 0.494692 0.620819
1.000000 0.493123 0.615885
0.000000 0.633849 0.648390
0.085883 0.632279 0.641812
0.227266 0.630709 0.635800
0.371344 0.629140 0.630867
0.515422 0.627570 0.625934
0.659500 0.626000 0.621000
0.803578 0.624430 0.616067
0.947656 0.622860 0.611133
1.000000 0.621291 0.606200
0.000000 0.762017 0.635982
0.096102 0.760447 0.631049
0.240180 0.758878 0.626115
0.384258 0.757308 0.621181
0.528336 0.755738 0.616248
0.672414 0.754168 0.611315
0.816492 0.752598 0.606381
0.960570 0.751029 0.601448
1.000000 0.749459 0.596514
0.000000 0.890185 0.626297
0.109016 0.888616 0.621363
0.253094 0.887046 0.616429
0.397172 0.885476 0.611496
0.541250 0.883906 0.606563
0.685328 0.882336 0.601629
0.829406 0.880767 0.596696
0.973484 0.879197 0.591762
1.000000 0.877627 0.586828
0.000000 1.000000 0.616611
0.121930 1.000000 0.611677
0.266008 1.000000 0.606744
0.410086 1.000000 0.601810
0.554164 1.000000 0.596877
0.698242 1.000000 0.591944
0.842320 1.000000 0.587010
0.986398 1.000000 0.582076
1.000000 1.000000 0.577143
0.000000 0.000000 0.847952
0.062610 0.000000 0.841374
0.202576 0.000000 0.834796
0.342543 0.000000 0.828218
0.482510 0.000000 0.821640
0.622477 0.000000 0.815062
0.762444 0.000000 0.808484
0.902410 0.000000 0.801906
1.000000 0.000000 0.795328
0.000000 0.120577 0.835038
0.067452 0.119007 0.828460
0.207419 0.117438 0.821882
0.347386 0.115868 0.815304
0.487353 0.114298 0.808726
0.627320 0.112729 0.802148
0.767286 0.111159 0.795570
0.907253 0.109589 0.788992
1.000000 0.108019 0.782414
0.000000 0.248746 0.822124
0.072295 0.247176 0.815546
0.212262 0.245606 0.808968
0.352229 0.244036 0.802390
0.492195 0.242467 0.795812
0.632162 0.240897 0.789234
0.772129 0.239327 0.782656
0.912096 0.237757 0.776078
1.000000 0.236187 0.770875
0.000000 0.376914 0.809210
0.077138 0.375344 0.802632
0.217105 0.373774 0.796054
0.357071 0.372205 0.789476
0.497038 0.370635 0.782898
0.637005 0.369065 0.776320
0.780258 0.367495 0.771057
0.924336 0.365925 0.766123
1.000000 0.364356 0.761189
0.000000 0.505082 0.796296
0.081981 0.503512 0.789718
0.221948 0.501943 0.783140
0.361914 0.500373 0.776562
0.505016 0.498803 0.771238
0.649094 0.497233 0.766304
0.793172 0.495663 0.761371
0.937250 0.494094 0.756438
1.000000 0.492524 0.751504
0.000000 0.633250 0.783382
0.086823 0.631681 0.776804
0.229774 0.630111 0.771420
0.373852 0.628541 0.766486
0.517930 0.626971 0.761552
0.662008 0.625402 0.756619
0.806086 0.623832 0.751686
0.950164 0.622262 0.746752
1.000000 0.620692 0.741819
0.000000 0.761418 0.771601
0.098610 0.759849 0.766668
0.242688 0.758279 0.761734
0.386766 0.756709 0.756800
0.530844 0.755140 0.751867
0.674922 0.753570 0.746934
0.819000 0.752000 0.742000
0.963078 0.750430 0.737067
1.000000 0.748861 0.732133
0.000000 0.889587 0.761915
0.111524 0.888017 0.756982
0.255602 0.886447 0.752049
0.399680 0.884877 0.747115
0.543758 0.883308 0.742182
0.687836 0.881738 0.737248
0.831914 0.880168 0.732314
0.975992 0.878598 0.727381
1.000000 0.877029 0.722448
0.000000 1.000000 0.752230
0.124438 1.000000 0.747297
0.268516 1.000000 0.742363
0.412594 1.000000 0.737429
0.556672 1.000000 0.732496
0.700750 1.000000 0.727563
0.844828 1.000000 0.722629
0.988906 1.000000 0.717696
1.000000 1.000000 0.712762
0.000000 0.000000 0.982944
0.063550 0.000000 0.976366
0.203517 0.000000 0.969788
0.343484 0.000000 0.963210
0.483451 0.000000 0.956632
0.623417 0.000000 0.950054
0.763384 0.000000 0.943476
0.903351 0.000000 0.936898
1.000000 0.000000 0.930320
0.000000 0.119979 0.970030
0.068393 0.118409 0.963452
0.208360 0.116839 0.956874
0.348326 0.115269 0.950296
0.488293 0.113700 0.943718
0.628260 0.112130 0.937140
0.768227 0.110560 0.930562
0.908194 0.108990 0.923984
1.000000 0.107421 0.917406
0.000000 0.248147 0.957116
0.073236 0.246577 0.950538
0.213203 0.245007 0.943960
0.353169 0.243438 0.937382
0.493136 0.241868 0.930804
0.633103 0.240298 0.924226
0.773070 0.238729 0.917648
0.913930 0.237159 0.911428
1.000000 0.235589 0.906494
0.000000 0.376315 0.944202
0.078078 0.374745 0.937624
0.218045 0.373176 0.931046
0.358012 0.371606 0.924468
0.497979 0.370036 0.917890
0.638688 0.368467 0.911609
0.782766 0.366897 0.906675
0.926844 0.365327 0.901742
1.000000 0.363757 0.896809
0.000000 0.504483 0.931288
0.082921 0.502914 0.924710
0.222888 0.501344 0.918132
0.363446 0.499774 0.911790
0.507524 0.498204 0.906857
0.651602 0.496635 0.901923
0.795680 0.495065 0.896990
0.939758 0.493495 0.892057
1.000000 0.491926 0.887123
0.000000 0.632652 0.918374
0.088204 0.631082 0.911972
0.232282 0.629512 0.907039
0.376360 0.627943 0.902105
0.520438 0.626373 0.897172
0.664516 0.624803 0.892238
0.808594 0.623233 0.887305
0.952672 0.621664 0.882371
1.000000 0.620094 0.877438
0.000000 0.760820 0.907220
0.101118 0.759250 0.902286
0.245196 0.757680 0.897353
0.389274 0.756111 0.892420
0.533352 0.754541 0.887486
0.677430 0.752971 0.882553
0.821508 0.751402 0.877619
0.965586 0.749832 0.872686
1.000000 0.748262 0.867752
0.000000 0.888988 0.897535
0.114032 0.887419 0.892601
0.258110 0.885849 0.887668
0.402188 0.884279 0.882734
0.546266 0.882709 0.877800
0.690344 0.881140 0.872867
0.834422 0.879570 0.867934
0.978500 0.878000 0.863000
1.000000 0.876430 0.858067
0.000000 1.000000 0.887849
0.126946 1.000000 0.882915
0.271024 1.000000 0.877982
0.415102 1.000000 0.873049
0.559180 1.000000 0.868115
0.703258 1.000000 0.863182
0.847336 1.000000 0.858248
0.991414 1.000000 0.853314
1.000000 1.000000 0.848381
0.000000 0.000000 1.000000
0.064491 0.000000 1.000000
0.204457 0.000000 1.000000
0.344424 0.000000 1.000000
0.484391 0.000000 1.000000
0.624358 0.000000 1.000000
0.764325 0.000000 1.000000
0.904291 0.000000 1.000000
1.000000 0.000000 1.000000
0.000000 0.119380 1.000000
0.069333 0.117810 1.000000
0.209300 0.116241 1.000000
0.349267 0.114671 1.000000
0.489234 0.113101 1.000000
0.629201 0.111531 1.000000
0.769167 0.109962 1.000000
0.909134 0.108392 1.000000
1.000000 0.106822 1.000000
0.000000 0.247549 1.000000
0.074176 0.245979 1.000000
0.214143 0.244409 1.000000
0.354110 0.242839 1.000000
0.494077 0.241269 1.000000
0.634043 0.239700 1.000000
0.774010 0.238130 1.000000
0.916438 0.236560 1.000000
1.000000 0.234990 1.000000
0.000000 0.375717 1.000000
0.079019 0.374147 1.000000
0.218986 0.372577 1.000000
0.358953 0.371007 1.000000
0.498919 0.369438 1.000000
0.641196 0.367868 1.000000
0.785274 0.366298 1.000000
0.929352 0.364729 1.000000
1.000000 0.363159 1.000000
0.000000 0.503885 1.000000
0.083862 0.502315 1.000000
0.223828 0.500745 1.000000
0.365954 0.499176 1.000000
0.510032 0.497606 1.000000
0.654110 0.496036 1.000000
0.798188 0.494467 1.000000
0.942266 0.492897 1.000000
1.000000 0.491327 1.000000
0.000000 0.632053 1.000000
0.090712 0.630483 1.000000
0.234790 0.628914 1.000000
0.378868 0.627344 1.000000
0.522946 0.625774 1.000000
0.667024 0.624205 1.000000
0.811102 0.622635 1.000000
0.955180 0.621065 1.000000
1.000000 0.619495 1.000000
0.000000 0.760221 1.000000
0.103626 0.758652 1.000000
0.247704 0.757082 1.000000
0.391782 0.755512 1.000000
0.535860 0.753942 1.000000
0.679938 0.752373 1.000000
0.824016 0.750803 1.000000
0.968094 0.749233 1.000000
1.000000 0.747664 1.000000
0.000000 0.888390 1.000000
0.116540 0.886820 1.000000
0.260618 0.885250 1.000000
0.404696 0.883681 1.000000
0.548774 0.882111 1.000000
0.692852 0.880541 1.000000
0.836930 0.878971 1.000000
0.981008 0.877402 0.998619
1.000000 0.875832 0.993685
0.000000 1.000000 1.000000
0.129454 1.000000 1.000000
0.273532 1.000000 1.000000
0.417610 1.000000 1.000000
0.561688 1.000000 1.000000
0.705766 1.000000 0.998801
0.849844 1.000000 0.993867
0.993922 1.000000 0.988934
1.000000 1.000000 0.984000
