roles/videoref-engine/files/luts/teal-orange.cube
TITLE "Teal Orange Blockbuster"
LUT_3D_SIZE 17
DOMAIN_MIN 0.0 0.0 0.0
DOMAIN_MAX 1.0 1.0 1.0
0.000000 0.000000 0.038000
0.000000 0.000000 0.034711
0.056967 0.000000 0.031422
0.126950 0.000000 0.028133
0.196933 0.000000 0.024844
0.266917 0.000000 0.021555
0.336900 0.000000 0.018266
0.406884 0.000000 0.014977
0.476867 0.000000 0.011688
0.546850 0.000000 0.008399
0.616834 0.000000 0.005110
0.686817 0.000000 0.001821
0.756800 0.000000 0.000000
0.826784 0.000000 0.000000
0.896767 0.000000 0.000000
0.966751 0.000000 0.000000
1.000000 0.000000 0.000000
0.000000 0.060084 0.031543
0.000000 0.059299 0.028254
0.059388 0.058514 0.024965
0.129371 0.057729 0.021676
0.199355 0.056945 0.018387
0.269338 0.056160 0.015098
0.339322 0.055375 0.011809
0.409305 0.054590 0.008520
0.479288 0.053805 0.005231
0.549272 0.053020 0.001942
0.619255 0.052235 0.000000
0.689239 0.051450 0.000000
0.759222 0.050666 0.000000
0.829205 0.049881 0.000000
0.899189 0.049096 0.000000
0.969172 0.048311 0.000000
1.000000 0.047526 0.000000
0.000000 0.124168 0.025086
0.000000 0.123383 0.021797
0.061809 0.122598 0.018508
0.131793 0.121814 0.015219
0.201776 0.121029 0.011930
0.271760 0.120244 0.008641
0.341743 0.119459 0.005352
0.411726 0.118674 0.002063
0.481710 0.117889 0.000000
0.551693 0.117104 0.000000
0.621677 0.116319 0.000000
0.691660 0.115535 0.000000
0.761643 0.114750 0.000000
0.831627 0.113965 0.000000
0.901610 0.113180 0.000000
0.971593 0.112395 0.000000
1.000000 0.111610 0.000000
0.000000 0.188252 0.018629
0.000000 0.187468 0.015340
0.064231 0.186683 0.012051
0.134214 0.185898 0.008762
0.204198 0.185113 0.005473
0.274181 0.184328 0.002184
0.344164 0.183543 0.000000
0.414148 0.182758 0.000000
0.484131 0.181973 0.000000
0.554114 0.181188 0.000000
0.624098 0.180404 0.000000
0.694081 0.179619 0.000000
0.764065 0.178834 0.000000
0.834048 0.178049 0.000000
0.904031 0.177264 0.000000
0.974015 0.176479 0.000000
1.000000 0.175694 0.000000
0.000000 0.252336 0.012172
0.000000 0.251552 0.008883
0.066652 0.250767 0.005594
0.136636 0.249982 0.002305
0.206619 0.249197 0.000000
0.276602 0.248412 0.000000
0.346586 0.247627 0.000000
0.416569 0.246842 0.000000
0.486552 0.246057 0.000000
0.556536 0.245273 0.000000
0.626519 0.244488 0.000000
0.696503 0.243703 0.000000
0.766486 0.242918 0.000000
0.836469 0.242133 0.000000
0.906453 0.241348 0.000000
0.976436 0.240563 0.000000
1.000000 0.239779 0.000000
0.000000 0.316421 0.005715
0.000000 0.315636 0.002426
0.069074 0.314851 0.000000
0.139057 0.314066 0.000000
0.209040 0.313281 0.000000
0.279024 0.312496 0.000000
0.349007 0.311711 0.000000
0.418990 0.310926 0.000000
0.488974 0.310142 0.000000
0.558957 0.309357 0.000000
0.628941 0.308572 0.000000
0.698924 0.307787 0.000000
0.768907 0.307002 0.000000
0.838891 0.306217 0.000000
0.908874 0.305432 0.000000
0.978857 0.304647 0.000000
1.000000 0.303863 0.000000
0.000000 0.380505 0.000000
0.001512 0.379720 0.000000
0.071495 0.378935 0.000000
0.141478 0.378150 0.000000
0.211462 0.377365 0.000000
0.281445 0.376580 0.000000
0.351429 0.375796 0.000000
0.421412 0.375011 0.000000
0.491395 0.374226 0.000000
0.561379 0.373441 0.000000
0.631362 0.372656 0.000000
0.701345 0.371871 0.000000
0.771329 0.371086 0.000000
0.841312 0.370301 0.000000
0.911296 0.369517 0.000000
0.981327 0.368732 0.000000
1.000000 0.367947 0.000000
0.000000 0.444589 0.000000
0.003933 0.443804 0.000000
0.073916 0.443019 0.000000
0.143900 0.442234 0.000000
0.213883 0.441449 0.000000
0.283866 0.440665 0.000000
0.353850 0.439880 0.000000
0.423833 0.439095 0.000000
0.493817 0.438310 0.000000
0.563800 0.437525 0.000000
0.633783 0.436740 0.000000
0.703767 0.435955 0.000000
0.773750 0.435170 0.000000
0.843734 0.434385 0.000000
0.915745 0.433601 0.000000
0.987784 0.432816 0.000000
1.000000 0.432031 0.000000
0.000000 0.508673 0.000000
0.006354 0.507888 0.000000
0.076338 0.507103 0.000000
0.146321 0.506318 0.000000
0.216304 0.505533 0.000000
0.286288 0.504749 0.000000
0.356271 0.503964 0.000000
0.426255 0.503179 0.000000
0.496238 0.502394 0.000000
0.566221 0.501609 0.000000
0.636205 0.500824 0.000000
0.706188 0.500039 0.000000
0.778124 0.499254 0.000000
0.850163 0.498470 0.000000
0.922202 0.497685 0.000000
0.994241 0.496900 0.000000
1.000000 0.496115 0.000000
0.000000 0.572757 0.000000
0.008776 0.571972 0.000000
0.078759 0.571187 0.000000
0.148742 0.570403 0.000000
0.218726 0.569618 0.000000
0.288709 0.568833 0.000000
0.358693 0.568048 0.000000
0.428676 0.567263 0.000000
0.498659 0.566478 0.000000
0.568643 0.565693 0.000000
0.640503 0.564908 0.000000
0.712542 0.564123 0.000000
0.784581 0.563339 0.000000
0.856620 0.562554 0.000000
0.928659 0.561769 0.000000
1.000000 0.560984 0.000000
1.000000 0.560199 0.000000
0.000000 0.636841 0.000000
0.011197 0.636056 0.000000
0.081180 0.635271 0.000000
0.151164 0.634487 0.000000
0.221147 0.633702 0.000000
0.291131 0.632917 0.000000
0.361114 0.632132 0.000000
0.431097 0.631347 0.000000
0.502882 0.630562 0.000000
0.574921 0.629777 0.000000
0.646960 0.628993 0.000000
0.718999 0.628208 0.000000
0.791038 0.627423 0.000000
0.863077 0.626638 0.000000
0.935116 0.625853 0.000000
1.000000 0.625068 0.000000
1.000000 0.624283 0.000000
0.000000 0.700925 0.000000
0.013618 0.700140 0.000000
0.083602 0.699356 0.000000
0.153585 0.698571 0.000000
0.223569 0.697786 0.000000
0.293552 0.697001 0.000000
0.365261 0.696216 0.000000
0.437300 0.695431 0.000000
0.509339 0.694646 0.000000
0.581378 0.693861 0.000000
0.653417 0.693077 0.000000
0.725456 0.692292 0.000000
0.797495 0.691507 0.000000
0.869534 0.690722 0.000000
0.941573 0.689937 0.000000
1.000000 0.689152 0.000000
1.000000 0.688367 0.000000
0.000000 0.765010 0.000000
0.016040 0.764225 0.000000
0.086023 0.763440 0.000000
0.156007 0.762655 0.000000
0.227640 0.761870 0.000000
0.299679 0.761085 0.000000
0.371718 0.760300 0.000000
0.443757 0.759515 0.000000
0.515796 0.758730 0.000000
0.587835 0.757946 0.000000
0.659874 0.757161 0.000000
0.731913 0.756376 0.000000
0.803952 0.755591 0.000000
0.875991 0.754806 0.000000
0.948030 0.754021 0.000000
1.000000 0.753236 0.000000
1.000000 0.752452 0.000000
0.000000 0.829094 0.000000
0.018461 0.828309 0.000000
0.090019 0.827524 0.000000
0.162058 0.826739 0.000000
0.234097 0.825954 0.000000
0.306136 0.825169 0.000000
0.378175 0.824384 0.000000
0.450214 0.823600 0.000000
0.522253 0.822815 0.000000
0.594292 0.822030 0.000000
0.666331 0.821245 0.000000
0.738370 0.820460 0.000000
0.810409 0.819675 0.000000
0.882448 0.818890 0.000000
0.954487 0.818105 0.000000
1.000000 0.817321 0.000000
1.000000 0.816536 0.000000
0.000000 0.893178 0.000000
0.024437 0.892393 0.000000
0.096476 0.891608 0.000000
0.168515 0.890823 0.000000
0.240554 0.890038 0.000000
0.312593 0.889253 0.000000
0.384632 0.888469 0.000000
0.456671 0.887684 0.000000
0.528710 0.886899 0.000000
0.600749 0.886114 0.000000
0.672788 0.885329 0.000000
0.744827 0.884544 0.000000
0.816866 0.883759 0.000000
0.888905 0.882974 0.000000
0.960944 0.882190 0.000000
1.000000 0.881405 0.000000
1.000000 0.880620 0.000000
0.000000 0.957262 0.000000
0.030894 0.956477 0.000000
0.102933 0.955692 0.000000
0.174972 0.954907 0.000000
0.247011 0.954122 0.000000
0.319050 0.953337 0.000000
0.391089 0.952553 0.000000
0.463128 0.951768 0.000000
0.535167 0.950983 0.000000
0.607206 0.950198 0.000000
0.679245 0.949413 0.000000
0.751284 0.948628 0.000000
0.823323 0.947843 0.000000
0.895362 0.947059 0.000000
0.967401 0.946274 0.000000
1.000000 0.945489 0.000000
1.000000 0.944704 0.000000
0.000000 1.000000 0.000000
0.037351 1.000000 0.000000
0.109390 1.000000 0.000000
0.181429 1.000000 0.000000
0.253468 1.000000 0.000000
0.325507 1.000000 0.000000
0.397546 1.000000 0.000000
0.469585 1.000000 0.000000
0.541624 1.000000 0.000000
0.613663 1.000000 0.000000
0.685702 1.000000 0.000000
0.757741 1.000000 0.000000
0.829780 1.000000 0.000000
0.901819 1.000000 0.000000
0.973858 1.000000 0.000000
1.000000 1.000000 0.000000
1.000000 1.000000 0.000000
0.000000 0.000000 0.105496
0.000000 0.000000 0.102207
0.057437 0.000000 0.098918
0.127420 0.000000 0.095629
0.197404 0.000000 0.092340
0.267387 0.000000 0.089051
0.337371 0.000000 0.085762
0.407354 0.000000 0.082473
0.477337 0.000000 0.079184
0.547321 0.000000 0.075895
0.617304 0.000000 0.072606
0.687287 0.000000 0.069317
0.757271 0.000000 0.066028
0.827254 0.000000 0.062739
0.897238 0.000000 0.059450
0.967221 0.000000 0.056161
1.000000 0.000000 0.052872
0.000000 0.059785 0.099039
0.000000 0.059000 0.095750
0.059858 0.058215 0.092461
0.129842 0.057430 0.089172
0.199825 0.056645 0.085883
0.269809 0.055860 0.082594
0.339792 0.055076 0.079305
0.409775 0.054291 0.076016
0.479759 0.053506 0.072727
0.549742 0.052721 0.069438
0.619725 0.051936 0.066149
0.689709 0.051151 0.062860
0.759692 0.050366 0.059571
0.829676 0.049581 0.056282
0.899659 0.048797 0.052993
0.969642 0.048012 0.049704
1.000000 0.047227 0.046415
0.000000 0.123869 0.092582
0.000000 0.123084 0.089293
0.062280 0.122299 0.086004
0.132263 0.121514 0.082715
0.202246 0.120729 0.079426
0.272230 0.119945 0.076137
0.342213 0.119160 0.072848
0.412197 0.118375 0.069559
0.482180 0.117590 0.066270
0.552163 0.116805 0.062981
0.622147 0.116020 0.059692
0.692130 0.115235 0.056403
0.762113 0.114450 0.053114
0.832097 0.113666 0.049825
0.902080 0.112881 0.046536
0.972064 0.112096 0.043247
1.000000 0.111311 0.039958
0.000000 0.187953 0.086125
0.000000 0.187168 0.082836
0.064701 0.186383 0.079547
0.134684 0.185598 0.076258
0.204668 0.184814 0.072969
0.274651 0.184029 0.069680
0.344635 0.183244 0.066391
0.414618 0.182459 0.063102
0.484601 0.181674 0.059813
0.554585 0.180889 0.056524
0.624568 0.180104 0.053235
0.694552 0.179320 0.049946
0.764535 0.178535 0.046657
0.834518 0.177750 0.043368
0.904502 0.176965 0.040079
0.974485 0.176180 0.036790
1.000000 0.175395 0.033501
0.000000 0.252037 0.079668
0.000000 0.251252 0.076379
0.067122 0.250468 0.073090
0.137106 0.249683 0.069801
0.207089 0.248898 0.066512
0.277073 0.248113 0.063223
0.347056 0.247328 0.059934
0.417039 0.246543 0.056645
0.487023 0.245758 0.053356
0.557006 0.244973 0.050067
0.626990 0.244188 0.046778
0.696973 0.243404 0.043489
0.766956 0.242619 0.040200
0.836940 0.241834 0.036911
0.906923 0.241049 0.033622
0.976906 0.240264 0.030333
1.000000 0.239479 0.027044
0.000000 0.316121 0.073211
0.000000 0.315337 0.069922
0.069544 0.314552 0.066633
0.139527 0.313767 0.063344
0.209511 0.312982 0.060055
0.279494 0.312197 0.056766
0.349477 0.311412 0.053477
0.419461 0.310627 0.050188
0.489444 0.309842 0.046899
0.559427 0.309057 0.043610
0.629411 0.308273 0.040321
0.699394 0.307488 0.037032
0.769378 0.306703 0.033743
0.839361 0.305918 0.030454
0.909344 0.305133 0.027165
0.979328 0.304348 0.023876
1.000000 0.303563 0.020587
0.000000 0.380205 0.066754
0.001982 0.379421 0.063465
0.071965 0.378636 0.060176
0.141949 0.377851 0.056887
0.211932 0.377066 0.053598
0.281915 0.376281 0.050309
0.351899 0.375496 0.047020
0.421882 0.374711 0.043731
0.491866 0.373926 0.040442
0.561849 0.373142 0.037153
0.631832 0.372357 0.033864
0.701816 0.371572 0.030575
0.771799 0.370787 0.027286
0.841782 0.370002 0.023997
0.911766 0.369217 0.020708
0.982581 0.368432 0.017752
1.000000 0.367648 0.015285
0.000000 0.444290 0.060297
0.004403 0.443505 0.057008
0.074387 0.442720 0.053719
0.144370 0.441935 0.050430
0.214353 0.441150 0.047141
0.284337 0.440365 0.043852
0.354320 0.439580 0.040563
0.424303 0.438796 0.037274
0.494287 0.438011 0.033985
0.564270 0.437226 0.030696
0.634254 0.436441 0.027407
0.704237 0.435656 0.024118
0.774220 0.434871 0.020829
0.844960 0.434086 0.017842
0.916999 0.433301 0.015376
0.989038 0.432516 0.012909
1.000000 0.431732 0.010442
0.000000 0.508374 0.053840
0.006825 0.507589 0.050551
0.076808 0.506804 0.047262
0.146791 0.506019 0.043973
0.216775 0.505234 0.040684
0.286758 0.504449 0.037395
0.356741 0.503664 0.034106
0.426725 0.502880 0.030817
0.496708 0.502095 0.027528
0.566692 0.501310 0.024239
0.636675 0.500525 0.020950
0.707339 0.499740 0.017933
0.779378 0.498955 0.015466
0.851417 0.498170 0.013000
0.923456 0.497386 0.010533
0.995495 0.496601 0.008066
1.000000 0.495816 0.005599
0.000000 0.572458 0.047383
0.009246 0.571673 0.044094
0.079229 0.570888 0.040805
0.149213 0.570103 0.037516
0.219196 0.569318 0.034227
0.289179 0.568534 0.030938
0.359163 0.567749 0.027649
0.429146 0.566964 0.024360
0.499130 0.566179 0.021071
0.569718 0.565394 0.018024
0.641757 0.564609 0.015557
0.713796 0.563824 0.013090
0.785835 0.563039 0.010624
0.857874 0.562254 0.008157
0.929913 0.561470 0.005690
1.000000 0.560685 0.003223
1.000000 0.559900 0.000757
0.000000 0.636542 0.040926
0.011667 0.635757 0.037637
0.081651 0.634972 0.034348
0.151634 0.634187 0.031059
0.221617 0.633402 0.027770
0.291601 0.632618 0.024481
0.361584 0.631833 0.021192
0.432097 0.631048 0.018115
0.504136 0.630263 0.015648
0.576175 0.629478 0.013181
0.648214 0.628693 0.010714
0.720253 0.627908 0.008248
0.792292 0.627124 0.005781
0.864331 0.626339 0.003314
0.936370 0.625554 0.000848
1.000000 0.624769 0.000000
1.000000 0.623984 0.000000
0.000000 0.700626 0.034469
0.014089 0.699841 0.031180
0.084072 0.699056 0.027891
0.154056 0.698272 0.024602
0.224039 0.697487 0.021313
0.294476 0.696702 0.018205
0.366515 0.695917 0.015739
0.438554 0.695132 0.013272
0.510593 0.694347 0.010805
0.582632 0.693562 0.008338
0.654671 0.692777 0.005872
0.726710 0.691993 0.003405
0.798749 0.691208 0.000938
0.870788 0.690423 0.000000
0.942827 0.689638 0.000000
1.000000 0.688853 0.000000
1.000000 0.688068 0.000000
0.000000 0.764710 0.028012
0.016510 0.763925 0.024723
0.086493 0.763140 0.021434
0.156855 0.762356 0.018296
0.228894 0.761571 0.015829
0.300933 0.760786 0.013363
0.372972 0.760001 0.010896
0.445011 0.759216 0.008429
0.517050 0.758431 0.005962
0.589089 0.757646 0.003496
0.661128 0.756862 0.001029
0.733167 0.756077 0.000000
0.805206 0.755292 0.000000
0.877245 0.754507 0.000000
0.949284 0.753722 0.000000
1.000000 0.752937 0.000000
1.000000 0.752152 0.000000
0.000000 0.828794 0.021555
0.019234 0.828009 0.018387
0.091273 0.827225 0.015920
0.163312 0.826440 0.013453
0.235351 0.825655 0.010987
0.307390 0.824870 0.008520
0.379429 0.824085 0.006053
0.451468 0.823300 0.003586
0.523507 0.822515 0.001120
0.595546 0.821730 0.000000
0.667585 0.820946 0.000000
0.739624 0.820161 0.000000
0.811663 0.819376 0.000000
0.883702 0.818591 0.000000
0.955741 0.817806 0.000000
1.000000 0.817021 0.000000
1.000000 0.816236 0.000000
0.000000 0.892879 0.016011
0.025691 0.892094 0.013544
0.097730 0.891309 0.011077
0.169769 0.890524 0.008611
0.241808 0.889739 0.006144
0.313847 0.888954 0.003677
0.385886 0.888169 0.001210
0.457925 0.887384 0.000000
0.529964 0.886599 0.000000
0.602003 0.885815 0.000000
0.674042 0.885030 0.000000
0.746081 0.884245 0.000000
0.818120 0.883460 0.000000
0.890159 0.882675 0.000000
0.962198 0.881890 0.000000
1.000000 0.881105 0.000000
1.000000 0.880321 0.000000
0.000000 0.956963 0.011168
0.032148 0.956178 0.008701
0.104187 0.955393 0.006235
0.176226 0.954608 0.003768
0.248265 0.953823 0.001301
0.320304 0.953038 0.000000
0.392343 0.952253 0.000000
0.464382 0.951469 0.000000
0.536421 0.950684 0.000000
0.608460 0.949899 0.000000
0.680499 0.949114 0.000000
0.752538 0.948329 0.000000
0.824577 0.947544 0.000000
0.896616 0.946759 0.000000
0.968655 0.945974 0.000000
1.000000 0.945190 0.000000
1.000000 0.944405 0.000000
0.000000 1.000000 0.006325
0.038605 1.000000 0.003859
0.110644 1.000000 0.001392
0.182683 1.000000 0.000000
0.254722 1.000000 0.000000
0.326761 1.000000 0.000000
0.398800 1.000000 0.000000
0.470839 1.000000 0.000000
0.542878 1.000000 0.000000
0.614917 1.000000 0.000000
0.686956 1.000000 0.000000
0.758995 1.000000 0.000000
0.831034 1.000000 0.000000
0.903073 1.000000 0.000000
0.975112 1.000000 0.000000
1.000000 1.000000 0.000000
1.000000 1.000000 0.000000
0.000000 0.000000 0.172992
0.000000 0.000000 0.169703
0.057907 0.000000 0.166414
0.127891 0.000000 0.163125
0.197874 0.000000 0.159836
0.267857 0.000000 0.156547
0.337841 0.000000 0.153258
0.407824 0.000000 0.149969
0.477807 0.000000 0.146680
0.547791 0.000000 0.143391
0.617774 0.000000 0.140102
0.687758 0.000000 0.136813
0.757741 0.000000 0.133524
0.827724 0.000000 0.130235
0.897708 0.000000 0.126946
0.967691 0.000000 0.123657
1.000000 0.000000 0.120368
0.000000 0.059486 0.166535
0.000000 0.058701 0.163246
0.060329 0.057916 0.159957
0.130312 0.057131 0.156668
0.200295 0.056346 0.153379
0.270279 0.055561 0.150090
0.340262 0.054776 0.146801
0.410246 0.053992 0.143512
0.480229 0.053207 0.140223
0.550212 0.052422 0.136934
0.620196 0.051637 0.133645
0.690179 0.050852 0.130356
0.760162 0.050067 0.127067
0.830146 0.049282 0.123778
0.900129 0.048497 0.120489
0.970112 0.047712 0.117200
1.000000 0.046928 0.113911
0.000000 0.123570 0.160078
0.000000 0.122785 0.156789
0.062750 0.122000 0.153500
0.132733 0.121215 0.150211
0.202717 0.120430 0.146922
0.272700 0.119645 0.143633
0.342683 0.118860 0.140344
0.412667 0.118076 0.137055
0.482650 0.117291 0.133766
0.552634 0.116506 0.130477
0.622617 0.115721 0.127188
0.692600 0.114936 0.123899
0.762584 0.114151 0.120610
0.832567 0.113366 0.117321
0.902551 0.112581 0.114032
0.972534 0.111797 0.110743
1.000000 0.111012 0.107454
0.000000 0.187654 0.153621
0.000000 0.186869 0.150332
0.065171 0.186084 0.147043
0.135155 0.185299 0.143754
0.205138 0.184514 0.140465
0.275122 0.183729 0.137176
0.345105 0.182945 0.133887
0.415088 0.182160 0.130598
0.485072 0.181375 0.127309
0.555055 0.180590 0.124020
0.625038 0.179805 0.120731
0.695022 0.179020 0.117442
0.765005 0.178235 0.114153
0.834989 0.177451 0.110864
0.904972 0.176666 0.107575
0.974955 0.175881 0.104286
1.000000 0.175096 0.100997
0.000000 0.251738 0.147164
0.000000 0.250953 0.143875
0.067593 0.250168 0.140586
0.137576 0.249383 0.137297
0.207559 0.248599 0.134008
0.277543 0.247814 0.130719
0.347526 0.247029 0.127430
0.417510 0.246244 0.124141
0.487493 0.245459 0.120852
0.557476 0.244674 0.117563
0.627460 0.243889 0.114274
0.697443 0.243104 0.110985
0.767427 0.242319 0.107696
0.837410 0.241535 0.104407
0.907393 0.240750 0.101118
0.977377 0.239965 0.097829
1.000000 0.239180 0.094540
0.000000 0.315822 0.140707
0.000031 0.315037 0.137418
0.070014 0.314252 0.134129
0.139997 0.313468 0.130840
0.209981 0.312683 0.127551
0.279964 0.311898 0.124262
0.349948 0.311113 0.120973
0.419931 0.310328 0.117684
0.489914 0.309543 0.114395
0.559898 0.308758 0.111106
0.629881 0.307973 0.107817
0.699865 0.307188 0.104528
0.769848 0.306404 0.101239
0.839831 0.305619 0.097950
0.909815 0.304834 0.094661
0.979798 0.304049 0.091372
1.000000 0.303264 0.088083
0.000000 0.379906 0.134250
0.002452 0.379121 0.130961
0.072435 0.378337 0.127672
0.142419 0.377552 0.124383
0.212402 0.376767 0.121094
0.282386 0.375982 0.117805
0.352369 0.375197 0.114516
0.422352 0.374412 0.111227
0.492336 0.373627 0.107938
0.562319 0.372842 0.104649
0.632302 0.372057 0.101360
0.702286 0.371273 0.098071
0.772269 0.370488 0.094782
0.842253 0.369703 0.091493
0.912236 0.368918 0.088204
0.983835 0.368133 0.085561
1.000000 0.367348 0.083094
0.000000 0.443990 0.127793
0.004873 0.443205 0.124504
0.074857 0.442421 0.121215
0.144840 0.441636 0.117926
0.214824 0.440851 0.114637
0.284807 0.440066 0.111348
0.354790 0.439281 0.108059
0.424774 0.438496 0.104770
0.494757 0.437711 0.101481
0.564740 0.436926 0.098192
0.634724 0.436142 0.094903
0.704707 0.435357 0.091614
0.774691 0.434572 0.088325
0.846214 0.433787 0.085652
0.918253 0.433002 0.083185
0.990292 0.432217 0.080718
1.000000 0.431432 0.078252
0.000000 0.508074 0.121336
0.007295 0.507290 0.118047
0.077278 0.506505 0.114758
0.147262 0.505720 0.111469
0.217245 0.504935 0.108180
0.287228 0.504150 0.104891
0.357212 0.503365 0.101602
0.427195 0.502580 0.098313
0.497179 0.501795 0.095024
0.567162 0.501011 0.091735
0.637145 0.500226 0.088446
0.708593 0.499441 0.085743
0.780632 0.498656 0.083276
0.852671 0.497871 0.080809
0.924710 0.497086 0.078342
0.996749 0.496301 0.075876
1.000000 0.495517 0.073409
0.000000 0.572159 0.114879
0.009716 0.571374 0.111590
0.079700 0.570589 0.108301
0.149683 0.569804 0.105012
0.219666 0.569019 0.101723
0.289650 0.568234 0.098434
0.359633 0.567449 0.095145
0.429616 0.566665 0.091856
0.499600 0.565880 0.088567
0.570972 0.565095 0.085833
0.643011 0.564310 0.083367
0.715050 0.563525 0.080900
0.787089 0.562740 0.078433
0.859128 0.561955 0.075966
0.931167 0.561170 0.073500
1.000000 0.560385 0.071033
1.000000 0.559601 0.068566
0.000000 0.636243 0.108422
0.012138 0.635458 0.105133
0.082121 0.634673 0.101844
0.152104 0.633888 0.098555
0.222088 0.633103 0.095266
0.292071 0.632318 0.091977
0.362055 0.631533 0.088688
0.433351 0.630749 0.085924
0.505390 0.629964 0.083457
0.577429 0.629179 0.080991
0.649468 0.628394 0.078524
0.721507 0.627609 0.076057
0.793546 0.626824 0.073590
0.865585 0.626039 0.071124
0.937624 0.625255 0.068657
1.000000 0.624470 0.066190
1.000000 0.623685 0.063723
0.000000 0.700327 0.101965
0.014559 0.699542 0.098676
0.084542 0.698757 0.095387
0.154526 0.697972 0.092098
0.224509 0.697187 0.088809
0.295730 0.696403 0.086015
0.367769 0.695618 0.083548
0.439808 0.694833 0.081081
0.511847 0.694048 0.078615
0.583886 0.693263 0.076148
0.655925 0.692478 0.073681
0.727964 0.691693 0.071215
0.800003 0.690908 0.068748
0.872042 0.690123 0.066281
0.944081 0.689339 0.063814
1.000000 0.688554 0.061347
1.000000 0.687769 0.058881
0.000000 0.764411 0.095508
0.016980 0.763626 0.092219
0.086964 0.762841 0.088930
0.158109 0.762056 0.086106
0.230148 0.761271 0.083639
0.302187 0.760487 0.081172
0.374226 0.759702 0.078705
0.446265 0.758917 0.076239
0.518304 0.758132 0.073772
0.590343 0.757347 0.071305
0.662382 0.756562 0.068838
0.734421 0.755777 0.066372
0.806460 0.754992 0.063905
0.878499 0.754208 0.061438
0.950538 0.753423 0.058971
1.000000 0.752638 0.056505
1.000000 0.751853 0.054038
0.000000 0.828495 0.089051
0.020488 0.827710 0.086196
0.092527 0.826925 0.083730
0.164566 0.826141 0.081263
0.236605 0.825356 0.078796
0.308644 0.824571 0.076329
0.380683 0.823786 0.073863
0.452722 0.823001 0.071396
0.524761 0.822216 0.068929
0.596800 0.821431 0.066462
0.668839 0.820646 0.063996
0.740878 0.819862 0.061529
0.812917 0.819077 0.059062
0.884956 0.818292 0.056595
0.956995 0.817507 0.054129
1.000000 0.816722 0.051662
1.000000 0.815937 0.049195
0.000000 0.892579 0.083820
0.026945 0.891794 0.081354
0.098984 0.891010 0.078887
0.171023 0.890225 0.076420
0.243062 0.889440 0.073954
0.315101 0.888655 0.071487
0.387140 0.887870 0.069020
0.459179 0.887085 0.066553
0.531218 0.886300 0.064086
0.603257 0.885515 0.061620
0.675296 0.884731 0.059153
0.747335 0.883946 0.056686
0.819374 0.883161 0.054219
0.891413 0.882376 0.051753
0.963452 0.881591 0.049286
1.000000 0.880806 0.046819
1.000000 0.880021 0.044353
0.000000 0.956663 0.078978
0.033402 0.955879 0.076511
0.105441 0.955094 0.074044
0.177480 0.954309 0.071577
0.249519 0.953524 0.069111
0.321558 0.952739 0.066644
0.393597 0.951954 0.064177
0.465636 0.951169 0.061710
0.537675 0.950384 0.059244
0.609714 0.949599 0.056777
0.681753 0.948815 0.054310
0.753792 0.948030 0.051843
0.825831 0.947245 0.049377
0.897870 0.946460 0.046910
0.969909 0.945675 0.044443
1.000000 0.944890 0.041976
1.000000 0.944105 0.039510
0.000000 1.000000 0.074135
0.039859 1.000000 0.071668
0.111898 1.000000 0.069201
0.183937 1.000000 0.066735
0.255976 1.000000 0.064268
0.328015 1.000000 0.061801
0.400054 1.000000 0.059334
0.472093 1.000000 0.056868
0.544132 1.000000 0.054401
0.616171 1.000000 0.051934
0.688210 1.000000 0.049467
0.760249 1.000000 0.047001
0.832288 1.000000 0.044534
0.904327 1.000000 0.042067
0.976366 1.000000 0.039600
1.000000 1.000000 0.037134
1.000000 1.000000 0.034667
0.000000 0.000000 0.240488
0.000000 0.000000 0.237199
0.058377 0.000000 0.233910
0.128361 0.000000 0.230621
0.198344 0.000000 0.227332
0.268328 0.000000 0.224043
0.338311 0.000000 0.220754
0.408294 0.000000 0.217465
0.478278 0.000000 0.214176
0.548261 0.000000 0.210887
0.618244 0.000000 0.207598
0.688228 0.000000 0.204309
0.758211 0.000000 0.201020
0.828195 0.000000 0.197731
0.898178 0.000000 0.194442
0.968161 0.000000 0.191153
1.000000 0.000000 0.187864
0.000000 0.059186 0.234031
