roles/videoref-engine/files/luts/warm-vintage.cube
TITLE "Warm Vintage Film"
LUT_3D_SIZE 5
DOMAIN_MIN 0.0 0.0 0.0
DOMAIN_MAX 1.0 1.0 1.0
0.125000 0.096000 0.067000
0.338750 0.096000 0.067000
0.552500 0.096000 0.067000
0.766250 0.096000 0.067000
0.980000 0.096000 0.067000
0.125000 0.303000 0.067000
0.338750 0.303000 0.067000
0.552500 0.303000 0.067000
0.766250 0.303000 0.067000
0.980000 0.303000 0.067000
0.125000 0.510000 0.067000
0.338750 0.510000 0.067000
0.552500 0.510000 0.067000
0.766250 0.510000 0.067000
0.980000 0.510000 0.067000
0.125000 0.717000 0.067000
0.338750 0.717000 0.067000
0.552500 0.717000 0.067000
0.766250 0.717000 0.067000
0.980000 0.717000 0.067000
0.125000 0.924000 0.067000
0.338750 0.924000 0.067000
0.552500 0.924000 0.067000
0.766250 0.924000 0.067000
0.980000 0.924000 0.067000
0.125000 0.096000 0.258250
0.338750 0.096000 0.258250
0.552500 0.096000 0.258250
0.766250 0.096000 0.258250
0.980000 0.096000 0.258250
0.125000 0.303000 0.258250
0.338750 0.303000 0.258250
0.552500 0.303000 0.258250
0.766250 0.303000 0.258250
0.980000 0.303000 0.258250
0.125000 0.510000 0.258250
0.338750 0.510000 0.258250
0.552500 0.510000 0.258250
0.766250 0.510000 0.258250
0.980000 0.510000 0.258250
0.125000 0.717000 0.258250
0.338750 0.717000 0.258250
0.552500 0.717000 0.258250
0.766250 0.717000 0.258250
0.980000 0.717000 0.258250
0.125000 0.924000 0.258250
0.338750 0.924000 0.258250
0.552500 0.924000 0.258250
0.766250 0.924000 0.258250
0.980000 0.924000 0.258250
0.125000 0.096000 0.449500
0.338750 0.096000 0.449500
0.552500 0.096000 0.449500
0.766250 0.096000 0.449500
0.980000 0.096000 0.449500
0.125000 0.303000 0.449500
0.338750 0.303000 0.449500
0.552500 0.303000 0.449500
0.766250 0.303000 0.449500
0.980000 0.303000 0.449500
0.125000 0.510000 0.449500
0.338750 0.510000 0.449500
0.552500 0.510000 0.449500
0.766250 0.510000 0.449500
0.980000 0.510000 0.449500
0.125000 0.717000 0.449500
0.338750 0.717000 0.449500
0.552500 0.717000 0.449500
0.766250 0.717000 0.449500
0.980000 0.717000 0.449500
0.125000 0.924000 0.449500
0.338750 0.924000 0.449500
0.552500 0.924000 0.449500
0.766250 0.924000 0.449500
0.980000 0.924000 0.449500
0.125000 0.096000 0.640750
0.338750 0.096000 0.640750
0.552500 0.096000 0.640750
0.766250 0.096000 0.640750
0.980000 0.096000 0.640750
0.125000 0.303000 0.640750
0.338750 0.303000 0.640750
0.552500 0.303000 0.640750
0.766250 0.303000 0.640750
0.980000 0.303000 0.640750
0.125000 0.510000 0.640750
0.338750 0.510000 0.640750
0.552500 0.510000 0.640750
0.766250 0.510000 0.640750
0.980000 0.510000 0.640750
0.125000 0.717000 0.640750
0.338750 0.717000 0.640750
0.552500 0.717000 0.640750
0.766250 0.717000 0.640750
0.980000 0.717000 0.640750
0.125000 0.924000 0.640750
0.338750 0.924000 0.640750
0.552500 0.924000 0.640750
0.766250 0.924000 0.640750
0.980000 0.924000 0.640750
0.125000 0.096000 0.832000
0.338750 0.096000 0.832000
0.552500 0.096000 0.832000
0.766250 0.096000 0.832000
0.980000 0.096000 0.832000
0.125000 0.303000 0.832000
0.338750 0.303000 0.832000
0.552500 0.303000 0.832000
0.766250 0.303000 0.832000
0.980000 0.303000 0.832000
0.125000 0.510000 0.832000
0.338750 0.510000 0.832000
0.552500 0.510000 0.832000
0.766250 0.510000 0.832000
0.980000 0.510000 0.832000
0.125000 0.717000 0.832000
0.338750 0.717000 0.832000
0.552500 0.717000 0.832000
0.766250 0.717000 0.832000
0.980000 0.717000 0.832000
0.125000 0.924000 0.832000
0.338750 0.924000 0.832000
0.552500 0.924000 0.832000
0.766250 0.924000 0.832000
0.980000 0.924000 0.832000
