roles/videoref-engine/files/luts/warm-vintage.cube
TITLE "Warm Vintage Film"
LUT_3D_SIZE 9
DOMAIN_MIN 0.0 0.0 0.0
DOMAIN_MAX 1.0 1.0 1.0
0.125000 0.096000 0.067000
0.231875 0.096000 0.067000
0.338750 0.096000 0.067000
0.445625 0.096000 0.067000
0.552500 0.096000 0.067000
0.659375 0.096000 0.067000
0.766250 0.096000 0.067000
0.873125 0.096000 0.067000
0.980000 0.096000 0.067000
0.125000 0.199500 0.067000
0.231875 0.199500 0.067000
0.338750 0.199500 0.067000
0.445625 0.199500 0.067000
0.552500 0.199500 0.067000
0.659375 0.199500 0.067000
0.766250 0.199500 0.067000
0.873125 0.199500 0.067000
0.980000 0.199500 0.067000
0.125000 0.303000 0.067000
0.231875 0.303000 0.067000
0.338750 0.303000 0.067000
0.445625 0.303000 0.067000
0.552500 0.303000 0.067000
0.659375 0.303000 0.067000
0.766250 0.303000 0.067000
0.873125 0.303000 0.067000
0.980000 0.303000 0.067000
0.125000 0.406500 0.067000
0.231875 0.406500 0.067000
0.338750 0.406500 0.067000
0.445625 0.406500 0.067000
0.552500 0.406500 0.067000
0.659375 0.406500 0.067000
0.766250 0.406500 0.067000
0.873125 0.406500 0.067000
0.980000 0.406500 0.067000
0.125000 0.510000 0.067000
0.231875 0.510000 0.067000
0.338750 0.510000 0.067000
0.445625 0.510000 0.067000
0.552500 0.510000 0.067000
0.659375 0.510000 0.067000
0.766250 0.510000 0.067000
0.873125 0.510000 0.067000
0.980000 0.510000 0.067000
0.125000 0.613500 0.067000
0.231875 0.613500 0.067000
0.338750 0.613500 0.067000
0.445625 0.613500 0.067000
0.552500 0.613500 0.067000
0.659375 0.613500 0.067000
0.766250 0.613500 0.067000
0.873125 0.613500 0.067000
0.980000 0.613500 0.067000
0.125000 0.717000 0.067000
0.231875 0.717000 0.067000
0.338750 0.717000 0.067000
0.445625 0.717000 0.067000
0.552500 0.717000 0.067000
0.659375 0.717000 0.067000
0.766250 0.717000 0.067000
0.873125 0.717000 0.067000
0.980000 0.717000 0.067000
0.125000 0.820500 0.067000
0.231875 0.820500 0.067000
0.338750 0.820500 0.067000
0.445625 0.820500 0.067000
0.552500 0.820500 0.067000
0.659375 0.820500 0.067000
0.766250 0.820500 0.067000
0.873125 0.820500 0.067000
0.980000 0.820500 0.067000
0.125000 0.924000 0.067000
0.231875 0.924000 0.067000
0.338750 0.924000 0.067000
0.445625 0.924000 0.067000
0.552500 0.924000 0.067000
0.659375 0.924000 0.067000
0.766250 0.924000 0.067000
0.873125 0.924000 0.067000
0.980000 0.924000 0.067000
0.125000 0.096000 0.162625
0.231875 0.096000 0.162625
0.338750 0.096000 0.162625
0.445625 0.096000 0.162625
0.552500 0.096000 0.162625
0.659375 0.096000 0.162625
0.766250 0.096000 0.162625
0.873125 0.096000 0.162625
0.980000 0.096000 0.162625
0.125000 0.199500 0.162625
0.231875 0.199500 0.162625
0.338750 0.199500 0.162625
0.445625 0.199500 0.162625
0.552500 0.199500 0.162625
0.659375 0.199500 0.162625
0.766250 0.199500 0.162625
0.873125 0.199500 0.162625
0.980000 0.199500 0.162625
0.125000 0.303000 0.162625
0.231875 0.303000 0.162625
0.338750 0.303000 0.162625
0.445625 0.303000 0.162625
0.552500 0.303000 0.162625
0.659375 0.303000 0.162625
0.766250 0.303000 0.162625
0.873125 0.303000 0.162625
0.980000 0.303000 0.162625
0.125000 0.406500 0.162625
0.231875 0.406500 0.162625
0.338750 0.406500 0.162625
0.445625 0.406500 0.162625
0.552500 0.406500 0.162625
0.659375 0.406500 0.162625
0.766250 0.406500 0.162625
0.873125 0.406500 0.162625
0.980000 0.406500 0.162625
0.125000 0.510000 0.162625
0.231875 0.510000 0.162625
0.338750 0.510000 0.162625
0.445625 0.510000 0.162625
0.552500 0.510000 0.162625
0.659375 0.510000 0.162625
0.766250 0.510000 0.162625
0.873125 0.510000 0.162625
0.980000 0.510000 0.162625
0.125000 0.613500 0.162625
0.231875 0.613500 0.162625
0.338750 0.613500 0.162625
0.445625 0.613500 0.162625
0.552500 0.613500 0.162625
0.659375 0.613500 0.162625
0.766250 0.613500 0.162625
0.873125 0.613500 0.162625
0.980000 0.613500 0.162625
0.125000 0.717000 0.162625
0.231875 0.717000 0.162625
0.338750 0.717000 0.162625
0.445625 0.717000 0.162625
0.552500 0.717000 0.162625
0.659375 0.717000 0.162625
0.766250 0.717000 0.162625
0.873125 0.717000 0.162625
0.980000 0.717000 0.162625
0.125000 0.820500 0.162625
0.231875 0.820500 0.162625
0.338750 0.820500 0.162625
0.445625 0.820500 0.162625
0.552500 0.820500 0.162625
0.659375 0.820500 0.162625
0.766250 0.820500 0.162625
0.873125 0.820500 0.162625
0.980000 0.820500 0.162625
0.125000 0.924000 0.162625
0.231875 0.924000 0.162625
0.338750 0.924000 0.162625
0.445625 0.924000 0.162625
0.552500 0.924000 0.162625
0.659375 0.924000 0.162625
0.766250 0.924000 0.162625
0.873125 0.924000 0.162625
0.980000 0.924000 0.162625
0.125000 0.096000 0.258250
0.231875 0.096000 0.258250
0.338750 0.096000 0.258250
0.445625 0.096000 0.258250
0.552500 0.096000 0.258250
0.659375 0.096000 0.258250
0.766250 0.096000 0.258250
0.873125 0.096000 0.258250
0.980000 0.096000 0.258250
0.125000 0.199500 0.258250
0.231875 0.199500 0.258250
0.338750 0.199500 0.258250
0.445625 0.199500 0.258250
0.552500 0.199500 0.258250
0.659375 0.199500 0.258250
0.766250 0.199500 0.258250
0.873125 0.199500 0.258250
0.980000 0.199500 0.258250
0.125000 0.303000 0.258250
0.231875 0.303000 0.258250
0.338750 0.303000 0.258250
0.445625 0.303000 0.258250
0.552500 0.303000 0.258250
0.659375 0.303000 0.258250
0.766250 0.303000 0.258250
0.873125 0.303000 0.258250
0.980000 0.303000 0.258250
0.125000 0.406500 0.258250
0.231875 0.406500 0.258250
0.338750 0.406500 0.258250
0.445625 0.406500 0.258250
0.552500 0.406500 0.258250
0.659375 0.406500 0.258250
0.766250 0.406500 0.258250
0.873125 0.406500 0.258250
0.980000 0.406500 0.258250
0.125000 0.510000 0.258250
0.231875 0.510000 0.258250
0.338750 0.510000 0.258250
0.445625 0.510000 0.258250
0.552500 0.510000 0.258250
0.659375 0.510000 0.258250
0.766250 0.510000 0.258250
0.873125 0.510000 0.258250
0.980000 0.510000 0.258250
0.125000 0.613500 0.258250
0.231875 0.613500 0.258250
0.338750 0.613500 0.258250
0.445625 0.613500 0.258250
0.552500 0.613500 0.258250
0.659375 0.613500 0.258250
0.766250 0.613500 0.258250
0.873125 0.613500 0.258250
0.980000 0.613500 0.258250
0.125000 0.717000 0.258250
0.231875 0.717000 0.258250
0.338750 0.717000 0.258250
0.445625 0.717000 0.258250
0.552500 0.717000 0.258250
0.659375 0.717000 0.258250
0.766250 0.717000 0.258250
0.873125 0.717000 0.258250
0.980000 0.717000 0.258250
0.125000 0.820500 0.258250
0.231875 0.820500 0.258250
0.338750 0.820500 0.258250
0.445625 0.820500 0.258250
0.552500 0.820500 0.258250
0.659375 0.820500 0.258250
0.766250 0.820500 0.258250
0.873125 0.820500 0.258250
0.980000 0.820500 0.258250
0.125000 0.924000 0.258250
0.231875 0.924000 0.258250
0.338750 0.924000 0.258250
0.445625 0.924000 0.258250
0.552500 0.924000 0.258250
0.659375 0.924000 0.258250
0.766250 0.924000 0.258250
0.873125 0.924000 0.258250
0.980000 0.924000 0.258250
0.125000 0.096000 0.353875
0.231875 0.096000 0.353875
0.338750 0.096000 0.353875
0.445625 0.096000 0.353875
0.552500 0.096000 0.353875
0.659375 0.096000 0.353875
0.766250 0.096000 0.353875
0.873125 0.096000 0.353875
0.980000 0.096000 0.353875
0.125000 0.199500 0.353875
0.231875 0.199500 0.353875
0.338750 0.199500 0.353875
0.445625 0.199500 0.353875
0.552500 0.199500 0.353875
0.659375 0.199500 0.353875
0.766250 0.199500 0.353875
0.873125 0.199500 0.353875
0.980000 0.199500 0.353875
0.125000 0.303000 0.353875
0.231875 0.303000 0.353875
0.338750 0.303000 0.353875
0.445625 0.303000 0.353875
0.552500 0.303000 0.353875
0.659375 0.303000 0.353875
0.766250 0.303000 0.353875
0.873125 0.303000 0.353875
0.980000 0.303000 0.353875
0.125000 0.406500 0.353875
0.231875 0.406500 0.353875
0.338750 0.406500 0.353875
0.445625 0.406500 0.353875
0.552500 0.406500 0.353875
0.659375 0.406500 0.353875
0.766250 0.406500 0.353875
0.873125 0.406500 0.353875
0.980000 0.406500 0.353875
0.125000 0.510000 0.353875
0.231875 0.510000 0.353875
0.338750 0.510000 0.353875
0.445625 0.510000 0.353875
0.552500 0.510000 0.353875
0.659375 0.510000 0.353875
0.766250 0.510000 0.353875
0.873125 0.510000 0.353875
0.980000 0.510000 0.353875
0.125000 0.613500 0.353875
0.231875 0.613500 0.353875
0.338750 0.613500 0.353875
0.445625 0.613500 0.353875
0.552500 0.613500 0.353875
0.659375 0.613500 0.353875
0.766250 0.613500 0.353875
0.873125 0.613500 0.353875
0.980000 0.613500 0.353875
0.125000 0.717000 0.353875
0.231875 0.717000 0.353875
0.338750 0.717000 0.353875
0.445625 0.717000 0.353875
0.552500 0.717000 0.353875
0.659375 0.717000 0.353875
0.766250 0.717000 0.353875
0.873125 0.717000 0.353875
0.980000 0.717000 0.353875
0.125000 0.820500 0.353875
0.231875 0.820500 0.353875
0.338750 0.820500 0.353875
0.445625 0.820500 0.353875
0.552500 0.820500 0.353875
0.659375 0.820500 0.353875
0.766250 0.820500 0.353875
0.873125 0.820500 0.353875
0.980000 0.820500 0.353875
0.125000 0.924000 0.353875
0.231875 0.924000 0.353875
0.338750 0.924000 0.353875
0.445625 0.924000 0.353875
0.552500 0.924000 0.353875
0.659375 0.924000 0.353875
0.766250 0.924000 0.353875
0.873125 0.924000 0.353875
0.980000 0.924000 0.353875
0.125000 0.096000 0.449500
0.231875 0.096000 0.449500
0.338750 0.096000 0.449500
0.445625 0.096000 0.449500
0.552500 0.096000 0.449500
0.659375 0.096000 0.449500
0.766250 0.096000 0.449500
0.873125 0.096000 0.449500
0.980000 0.096000 0.449500
0.125000 0.199500 0.449500
0.231875 0.199500 0.449500
0.338750 0.199500 0.449500
0.445625 0.199500 0.449500
0.552500 0.199500 0.449500
0.659375 0.199500 0.449500
0.766250 0.199500 0.449500
0.873125 0.199500 0.449500
0.980000 0.199500 0.449500
0.125000 0.303000 0.449500
0.231875 0.303000 0.449500
0.338750 0.303000 0.449500
0.445625 0.303000 0.449500
0.552500 0.303000 0.449500
0.659375 0.303000 0.449500
0.766250 0.303000 0.449500
0.873125 0.303000 0.449500
0.980000 0.303000 0.449500
0.125000 0.406500 0.449500
0.231875 0.406500 0.449500
0.338750 0.406500 0.449500
0.445625 0.406500 0.449500
0.552500 0.406500 0.449500
0.659375 0.406500 0.449500
0.766250 0.406500 0.449500
0.873125 0.406500 0.449500
0.980000 0.406500 0.449500
0.125000 0.510000 0.449500
0.231875 0.510000 0.449500
0.338750 0.510000 0.449500
0.445625 0.510000 0.449500
0.552500 0.510000 0.449500
0.659375 0.510000 0.449500
0.766250 0.510000 0.449500
0.873125 0.510000 0.449500
0.980000 0.510000 0.449500
0.125000 0.613500 0.449500
0.231875 0.613500 0.449500
0.338750 0.613500 0.449500
0.445625 0.613500 0.449500
0.552500 0.613500 0.449500
0.659375 0.613500 0.449500
0.766250 0.613500 0.449500
0.873125 0.613500 0.449500
0.980000 0.613500 0.449500
0.125000 0.717000 0.449500
0.231875 0.717000 0.449500
0.338750 0.717000 0.449500
0.445625 0.717000 0.449500
0.552500 0.717000 0.449500
0.659375 0.717000 0.449500
0.766250 0.717000 0.449500
0.873125 0.717000 0.449500
0.980000 0.717000 0.449500
0.125000 0.820500 0.449500
0.231875 0.820500 0.449500
0.338750 0.820500 0.449500
0.445625 0.820500 0.449500
0.552500 0.820500 0.449500
0.659375 0.820500 0.449500
0.766250 0.820500 0.449500
0.873125 0.820500 0.449500
0.980000 0.820500 0.449500
0.125000 0.924000 0.449500
0.231875 0.924000 0.449500
0.338750 0.924000 0.449500
0.445625 0.924000 0.449500
0.552500 0.924000 0.449500
0.659375 0.924000 0.449500
0.766250 0.924000 0.449500
0.873125 0.924000 0.449500
0.980000 0.924000 0.449500
0.125000 0.096000 0.545125
0.231875 0.096000 0.545125
0.338750 0.096000 0.545125
0.445625 0.096000 0.545125
0.552500 0.096000 0.545125
0.659375 0.096000 0.545125
0.766250 0.096000 0.545125
0.873125 0.096000 0.545125
0.980000 0.096000 0.545125
0.125000 0.199500 0.545125
0.231875 0.199500 0.545125
0.338750 0.199500 0.545125
0.445625 0.199500 0.545125
0.552500 0.199500 0.545125
0.659375 0.199500 0.545125
0.766250 0.199500 0.545125
0.873125 0.199500 0.545125
0.980000 0.199500 0.545125
0.125000 0.303000 0.545125
0.231875 0.303000 0.545125
0.338750 0.303000 0.545125
0.445625 0.303000 0.545125
0.552500 0.303000 0.545125
0.659375 0.303000 0.545125
0.766250 0.303000 0.545125
0.873125 0.303000 0.545125
0.980000 0.303000 0.545125
0.125000 0.406500 0.545125
0.231875 0.406500 0.545125
0.338750 0.406500 0.545125
0.445625 0.406500 0.545125
0.552500 0.406500 0.545125
0.659375 0.406500 0.545125
0.766250 0.406500 0.545125
0.873125 0.406500 0.545125
0.980000 0.406500 0.545125
0.125000 0.510000 0.545125
0.231875 0.510000 0.545125
0.338750 0.510000 0.545125
0.445625 0.510000 0.545125
0.552500 0.510000 0.545125
0.659375 0.510000 0.545125
0.766250 0.510000 0.545125
0.873125 0.510000 0.545125
0.980000 0.510000 0.545125
0.125000 0.613500 0.545125
0.231875 0.613500 0.545125
0.338750 0.613500 0.545125
0.445625 0.613500 0.545125
0.552500 0.613500 0.545125
0.659375 0.613500 0.545125
0.766250 0.613500 0.545125
0.873125 0.613500 0.545125
0.980000 0.613500 0.545125
0.125000 0.717000 0.545125
0.231875 0.717000 0.545125
0.338750 0.717000 0.545125
0.445625 0.717000 0.545125
0.552500 0.717000 0.545125
0.659375 0.717000 0.545125
0.766250 0.717000 0.545125
0.873125 0.717000 0.545125
0.980000 0.717000 0.545125
0.125000 0.820500 0.545125
0.231875 0.820500 0.545125
0.338750 0.820500 0.545125
0.445625 0.820500 0.545125
0.552500 0.820500 0.545125
0.659375 0.820500 0.545125
0.766250 0.820500 0.545125
0.873125 0.820500 0.545125
0.980000 0.820500 0.545125
0.125000 0.924000 0.545125
0.231875 0.924000 0.545125
0.338750 0.924000 0.545125
0.445625 0.924000 0.545125
0.552500 0.924000 0.545125
0.659375 0.924000 0.545125
0.766250 0.924000 0.545125
0.873125 0.924000 0.545125
0.980000 0.924000 0.545125
0.125000 0.096000 0.640750
0.231875 0.096000 0.640750
0.338750 0.096000 0.640750
0.445625 0.096000 0.640750
0.552500 0.096000 0.640750
0.659375 0.096000 0.640750
0.766250 0.096000 0.640750
0.873125 0.096000 0.640750
0.980000 0.096000 0.640750
0.125000 0.199500 0.640750
0.231875 0.199500 0.640750
0.338750 0.199500 0.640750
0.445625 0.199500 0.640750
0.552500 0.199500 0.640750
0.659375 0.199500 0.640750
0.766250 0.199500 0.640750
0.873125 0.199500 0.640750
0.980000 0.199500 0.640750
0.125000 0.303000 0.640750
0.231875 0.303000 0.640750
0.338750 0.303000 0.640750
0.445625 0.303000 0.640750
0.552500 0.303000 0.640750
0.659375 0.303000 0.640750
0.766250 0.303000 0.640750
0.873125 0.303000 0.640750
0.980000 0.303000 0.640750
0.125000 0.406500 0.640750
0.231875 0.406500 0.640750
0.338750 0.406500 0.640750
0.445625 0.406500 0.640750
0.552500 0.406500 0.640750
0.659375 0.406500 0.640750
0.766250 0.406500 0.640750
0.873125 0.406500 0.640750
0.980000 0.406500 0.640750
0.125000 0.510000 0.640750
0.231875 0.510000 0.640750
0.338750 0.510000 0.640750
0.445625 0.510000 0.640750
0.552500 0.510000 0.640750
0.659375 0.510000 0.640750
0.766250 0.510000 0.640750
0.873125 0.510000 0.640750
0.980000 0.510000 0.640750
0.125000 0.613500 0.640750
0.231875 0.613500 0.640750
0.338750 0.613500 0.640750
0.445625 0.613500 0.640750
0.552500 0.613500 0.640750
0.659375 0.613500 0.640750
0.766250 0.613500 0.640750
0.873125 0.613500 0.640750
0.980000 0.613500 0.640750
0.125000 0.717000 0.640750
0.231875 0.717000 0.640750
0.338750 0.717000 0.640750
0.445625 0.717000 0.640750
0.552500 0.717000 0.640750
0.659375 0.717000 0.640750
0.766250 0.717000 0.640750
0.873125 0.717000 0.640750
0.980000 0.717000 0.640750
0.125000 0.820500 0.640750
0.231875 0.820500 0.640750
0.338750 0.820500 0.640750
0.445625 0.820500 0.640750
0.552500 0.820500 0.640750
0.659375 0.820500 0.640750
0.766250 0.820500 0.640750
0.873125 0.820500 0.640750
0.980000 0.820500 0.640750
0.125000 0.924000 0.640750
0.231875 0.924000 0.640750
0.338750 0.924000 0.640750
0.445625 0.924000 0.640750
0.552500 0.924000 0.640750
0.659375 0.924000 0.640750
0.766250 0.924000 0.640750
0.873125 0.924000 0.640750
0.980000 0.924000 0.640750
0.125000 0.096000 0.736375
0.231875 0.096000 0.736375
0.338750 0.096000 0.736375
0.445625 0.096000 0.736375
0.552500 0.096000 0.736375
0.659375 0.096000 0.736375
0.766250 0.096000 0.736375
0.873125 0.096000 0.736375
0.980000 0.096000 0.736375
0.125000 0.199500 0.736375
0.231875 0.199500 0.736375
0.338750 0.199500 0.736375
0.445625 0.199500 0.736375
0.552500 0.199500 0.736375
0.659375 0.199500 0.736375
0.766250 0.199500 0.736375
0.873125 0.199500 0.736375
0.980000 0.199500 0.736375
0.125000 0.303000 0.736375
0.231875 0.303000 0.736375
0.338750 0.303000 0.736375
0.445625 0.303000 0.736375
0.552500 0.303000 0.736375
0.659375 0.303000 0.736375
0.766250 0.303000 0.736375
0.873125 0.303000 0.736375
0.980000 0.303000 0.736375
0.125000 0.406500 0.736375
0.231875 0.406500 0.736375
0.338750 0.406500 0.736375
0.445625 0.406500 0.736375
0.552500 0.406500 0.736375
0.659375 0.406500 0.736375
0.766250 0.406500 0.736375
0.873125 0.406500 0.736375
0.980000 0.406500 0.736375
0.125000 0.510000 0.736375
0.231875 0.510000 0.736375
0.338750 0.510000 0.736375
0.445625 0.510000 0.736375
0.552500 0.510000 0.736375
0.659375 0.510000 0.736375
0.766250 0.510000 0.736375
0.873125 0.510000 0.736375
0.980000 0.510000 0.736375
0.125000 0.613500 0.736375
0.231875 0.613500 0.736375
0.338750 0.613500 0.736375
0.445625 0.613500 0.736375
0.552500 0.613500 0.736375
0.659375 0.613500 0.736375
0.766250 0.613500 0.736375
0.873125 0.613500 0.736375
0.980000 0.613500 0.736375
0.125000 0.717000 0.736375
0.231875 0.717000 0.736375
0.338750 0.717000 0.736375
0.445625 0.717000 0.736375
0.552500 0.717000 0.736375
0.659375 0.717000 0.736375
0.766250 0.717000 0.736375
0.873125 0.717000 0.736375
0.980000 0.717000 0.736375
0.125000 0.820500 0.736375
0.231875 0.820500 0.736375
0.338750 0.820500 0.736375
0.445625 0.820500 0.736375
0.552500 0.820500 0.736375
0.659375 0.820500 0.736375
0.766250 0.820500 0.736375
0.873125 0.820500 0.736375
0.980000 0.820500 0.736375
0.125000 0.924000 0.736375
0.231875 0.924000 0.736375
0.338750 0.924000 0.736375
0.445625 0.924000 0.736375
0.552500 0.924000 0.736375
0.659375 0.924000 0.736375
0.766250 0.924000 0.736375
0.873125 0.924000 0.736375
0.980000 0.924000 0.736375
0.125000 0.096000 0.832000
0.231875 0.096000 0.832000
0.338750 0.096000 0.832000
0.445625 0.096000 0.832000
0.552500 0.096000 0.832000
0.659375 0.096000 0.832000
0.766250 0.096000 0.832000
0.873125 0.096000 0.832000
0.980000 0.096000 0.832000
0.125000 0.199500 0.832000
0.231875 0.199500 0.832000
0.338750 0.199500 0.832000
0.445625 0.199500 0.832000
0.552500 0.199500 0.832000
0.659375 0.199500 0.832000
0.766250 0.199500 0.832000
0.873125 0.199500 0.832000
0.980000 0.199500 0.832000
0.125000 0.303000 0.832000
0.231875 0.303000 0.832000
0.338750 0.303000 0.832000
0.445625 0.303000 0.832000
0.552500 0.303000 0.832000
0.659375 0.303000 0.832000
0.766250 0.303000 0.832000
0.873125 0.303000 0.832000
0.980000 0.303000 0.832000
0.125000 0.406500 0.832000
0.231875 0.406500 0.832000
0.338750 0.406500 0.832000
0.445625 0.406500 0.832000
0.552500 0.406500 0.832000
0.659375 0.406500 0.832000
0.766250 0.406500 0.832000
0.873125 0.406500 0.832000
0.980000 0.406500 0.832000
0.125000 0.510000 0.832000
0.231875 0.510000 0.832000
0.338750 0.510000 0.832000
0.445625 0.510000 0.832000
0.552500 0.510000 0.832000
0.659375 0.510000 0.832000
0.766250 0.510000 0.832000
0.873125 0.510000 0.832000
0.980000 0.510000 0.832000
0.125000 0.613500 0.832000
0.231875 0.613500 0.832000
0.338750 0.613500 0.832000
0.445625 0.613500 0.832000
0.552500 0.613500 0.832000
0.659375 0.613500 0.832000
0.766250 0.613500 0.832000
0.873125 0.613500 0.832000
0.980000 0.613500 0.832000
0.125000 0.717000 0.832000
0.231875 0.717000 0.832000
0.338750 0.717000 0.832000
0.445625 0.717000 0.832000
0.552500 0.717000 0.832000
0.659375 0.717000 0.832000
0.766250 0.717000 0.832000
0.873125 0.717000 0.832000
0.980000 0.717000 0.832000
0.125000 0.820500 0.832000
0.231875 0.820500 0.832000
0.338750 0.820500 0.832000
0.445625 0.820500 0.832000
0.552500 0.820500 0.832000
0.659375 0.820500 0.832000
0.766250 0.820500 0.832000
0.873125 0.820500 0.832000
0.980000 0.820500 0.832000
0.125000 0.924000 0.832000
0.231875 0.924000 0.832000
0.338750 0.924000 0.832000
0.445625 0.924000 0.832000
0.552500 0.924000 0.832000
0.659375 0.924000 0.832000
0.766250 0.924000 0.832000
0.873125 0.924000 0.832000
0.980000 0.924000 0.832000
