roles/videoref-engine/files/luts/warm-vintage.cube
TITLE "Warm Vintage Film"
LUT_3D_SIZE 17
DOMAIN_MIN 0.0 0.0 0.0
DOMAIN_MAX 1.0 1.0 1.0
0.125000 0.096000 0.067000
0.178437 0.096000 0.067000
0.231875 0.096000 0.067000
0.285312 0.096000 0.067000
0.338750 0.096000 0.067000
0.392188 0.096000 0.067000
0.445625 0.096000 0.067000
0.499062 0.096000 0.067000
0.552500 0.096000 0.067000
0.605937 0.096000 0.067000
0.659375 0.096000 0.067000
0.712812 0.096000 0.067000
0.766250 0.096000 0.067000
0.819688 0.096000 0.067000
0.873125 0.096000 0.067000
0.926563 0.096000 0.067000
0.980000 0.096000 0.067000
0.125000 0.147750 0.067000
0.178437 0.147750 0.067000
0.231875 0.147750 0.067000
0.285312 0.147750 0.067000
0.338750 0.147750 0.067000
0.392188 0.147750 0.067000
0.445625 0.147750 0.067000
0.499062 0.147750 0.067000
0.552500 0.147750 0.067000
0.605937 0.147750 0.067000
0.659375 0.147750 0.067000
0.712812 0.147750 0.067000
0.766250 0.147750 0.067000
0.819688 0.147750 0.067000
0.873125 0.147750 0.067000
0.926563 0.147750 0.067000
0.980000 0.147750 0.067000
0.125000 0.199500 0.067000
0.178437 0.199500 0.067000
0.231875 0.199500 0.067000
0.285312 0.199500 0.067000
0.338750 0.199500 0.067000
0.392188 0.199500 0.067000
0.445625 0.199500 0.067000
0.499062 0.199500 0.067000
0.552500 0.199500 0.067000
0.605937 0.199500 0.067000
0.659375 0.199500 0.067000
0.712812 0.199500 0.067000
0.766250 0.199500 0.067000
0.819688 0.199500 0.067000
0.873125 0.199500 0.067000
0.926563 0.199500 0.067000
0.980000 0.199500 0.067000
0.125000 0.251250 0.067000
0.178437 0.251250 0.067000
0.231875 0.251250 0.067000
0.285312 0.251250 0.067000
0.338750 0.251250 0.067000
0.392188 0.251250 0.067000
0.445625 0.251250 0.067000
0.499062 0.251250 0.067000
0.552500 0.251250 0.067000
0.605937 0.251250 0.067000
0.659375 0.251250 0.067000
0.712812 0.251250 0.067000
0.766250 0.251250 0.067000
0.819688 0.251250 0.067000
0.873125 0.251250 0.067000
0.926563 0.251250 0.067000
0.980000 0.251250 0.067000
0.125000 0.303000 0.067000
0.178437 0.303000 0.067000
0.231875 0.303000 0.067000
0.285312 0.303000 0.067000
0.338750 0.303000 0.067000
0.392188 0.303000 0.067000
0.445625 0.303000 0.067000
0.499062 0.303000 0.067000
0.552500 0.303000 0.067000
0.605937 0.303000 0.067000
0.659375 0.303000 0.067000
0.712812 0.303000 0.067000
0.766250 0.303000 0.067000
0.819688 0.303000 0.067000
0.873125 0.303000 0.067000
0.926563 0.303000 0.067000
0.980000 0.303000 0.067000
0.125000 0.354750 0.067000
0.178437 0.354750 0.067000
0.231875 0.354750 0.067000
0.285312 0.354750 0.067000
0.338750 0.354750 0.067000
0.392188 0.354750 0.067000
0.445625 0.354750 0.067000
0.499062 0.354750 0.067000
0.552500 0.354750 0.067000
0.605937 0.354750 0.067000
0.659375 0.354750 0.067000
0.712812 0.354750 0.067000
0.766250 0.354750 0.067000
0.819688 0.354750 0.067000
0.873125 0.354750 0.067000
0.926563 0.354750 0.067000
0.980000 0.354750 0.067000
0.125000 0.406500 0.067000
0.178437 0.406500 0.067000
0.231875 0.406500 0.067000
0.285312 0.406500 0.067000
0.338750 0.406500 0.067000
0.392188 0.406500 0.067000
0.445625 0.406500 0.067000
0.499062 0.406500 0.067000
0.552500 0.406500 0.067000
0.605937 0.406500 0.067000
0.659375 0.406500 0.067000
0.712812 0.406500 0.067000
0.766250 0.406500 0.067000
0.819688 0.406500 0.067000
0.873125 0.406500 0.067000
0.926563 0.406500 0.067000
0.980000 0.406500 0.067000
0.125000 0.458250 0.067000
0.178437 0.458250 0.067000
0.231875 0.458250 0.067000
0.285312 0.458250 0.067000
0.338750 0.458250 0.067000
0.392188 0.458250 0.067000
0.445625 0.458250 0.067000
0.499062 0.458250 0.067000
0.552500 0.458250 0.067000
0.605937 0.458250 0.067000
0.659375 0.458250 0.067000
0.712812 0.458250 0.067000
0.766250 0.458250 0.067000
0.819688 0.458250 0.067000
0.873125 0.458250 0.067000
0.926563 0.458250 0.067000
0.980000 0.458250 0.067000
0.125000 0.510000 0.067000
0.178437 0.510000 0.067000
0.231875 0.510000 0.067000
0.285312 0.510000 0.067000
0.338750 0.510000 0.067000
0.392188 0.510000 0.067000
0.445625 0.510000 0.067000
0.499062 0.510000 0.067000
0.552500 0.510000 0.067000
0.605937 0.510000 0.067000
0.659375 0.510000 0.067000
0.712812 0.510000 0.067000
0.766250 0.510000 0.067000
0.819688 0.510000 0.067000
0.873125 0.510000 0.067000
0.926563 0.510000 0.067000
0.980000 0.510000 0.067000
0.125000 0.561750 0.067000
0.178437 0.561750 0.067000
0.231875 0.561750 0.067000
0.285312 0.561750 0.067000
0.338750 0.561750 0.067000
0.392188 0.561750 0.067000
0.445625 0.561750 0.067000
0.499062 0.561750 0.067000
0.552500 0.561750 0.067000
0.605937 0.561750 0.067000
0.659375 0.561750 0.067000
0.712812 0.561750 0.067000
0.766250 0.561750 0.067000
0.819688 0.561750 0.067000
0.873125 0.561750 0.067000
0.926563 0.561750 0.067000
0.980000 0.561750 0.067000
0.125000 0.613500 0.067000
0.178437 0.613500 0.067000
0.231875 0.613500 0.067000
0.285312 0.613500 0.067000
0.338750 0.613500 0.067000
0.392188 0.613500 0.067000
0.445625 0.613500 0.067000
0.499062 0.613500 0.067000
0.552500 0.613500 0.067000
0.605937 0.613500 0.067000
0.659375 0.613500 0.067000
0.712812 0.613500 0.067000
0.766250 0.613500 0.067000
0.819688 0.613500 0.067000
0.873125 0.613500 0.067000
0.926563 0.613500 0.067000
0.980000 0.613500 0.067000
0.125000 0.665250 0.067000
0.178437 0.665250 0.067000
0.231875 0.665250 0.067000
0.285312 0.665250 0.067000
0.338750 0.665250 0.067000
0.392188 0.665250 0.067000
0.445625 0.665250 0.067000
0.499062 0.665250 0.067000
0.552500 0.665250 0.067000
0.605937 0.665250 0.067000
0.659375 0.665250 0.067000
0.712812 0.665250 0.067000
0.766250 0.665250 0.067000
0.819688 0.665250 0.067000
0.873125 0.665250 0.067000
0.926563 0.665250 0.067000
0.980000 0.665250 0.067000
0.125000 0.717000 0.067000
0.178437 0.717000 0.067000
0.231875 0.717000 0.067000
0.285312 0.717000 0.067000
0.338750 0.717000 0.067000
0.392188 0.717000 0.067000
0.445625 0.717000 0.067000
0.499062 0.717000 0.067000
0.552500 0.717000 0.067000
0.605937 0.717000 0.067000
0.659375 0.717000 0.067000
0.712812 0.717000 0.067000
0.766250 0.717000 0.067000
0.819688 0.717000 0.067000
0.873125 0.717000 0.067000
0.926563 0.717000 0.067000
0.980000 0.717000 0.067000
0.125000 0.768750 0.067000
0.178437 0.768750 0.067000
0.231875 0.768750 0.067000
0.285312 0.768750 0.067000
0.338750 0.768750 0.067000
0.392188 0.768750 0.067000
0.445625 0.768750 0.067000
0.499062 0.768750 0.067000
0.552500 0.768750 0.067000
0.605937 0.768750 0.067000
0.659375 0.768750 0.067000
0.712812 0.768750 0.067000
0.766250 0.768750 0.067000
0.819688 0.768750 0.067000
0.873125 0.768750 0.067000
0.926563 0.768750 0.067000
0.980000 0.768750 0.067000
0.125000 0.820500 0.067000
0.178437 0.820500 0.067000
0.231875 0.820500 0.067000
0.285312 0.820500 0.067000
0.338750 0.820500 0.067000
0.392188 0.820500 0.067000
0.445625 0.820500 0.067000
0.499062 0.820500 0.067000
0.552500 0.820500 0.067000
0.605937 0.820500 0.067000
0.659375 0.820500 0.067000
0.712812 0.820500 0.067000
0.766250 0.820500 0.067000
0.819688 0.820500 0.067000
0.873125 0.820500 0.067000
0.926563 0.820500 0.067000
0.980000 0.820500 0.067000
0.125000 0.872250 0.067000
0.178437 0.872250 0.067000
0.231875 0.872250 0.067000
0.285312 0.872250 0.067000
0.338750 0.872250 0.067000
0.392188 0.872250 0.067000
0.445625 0.872250 0.067000
0.499062 0.872250 0.067000
0.552500 0.872250 0.067000
0.605937 0.872250 0.067000
0.659375 0.872250 0.067000
0.712812 0.872250 0.067000
0.766250 0.872250 0.067000
0.819688 0.872250 0.067000
0.873125 0.872250 0.067000
0.926563 0.872250 0.067000
0.980000 0.872250 0.067000
0.125000 0.924000 0.067000
0.178437 0.924000 0.067000
0.231875 0.924000 0.067000
0.285312 0.924000 0.067000
0.338750 0.924000 0.067000
0.392188 0.924000 0.067000
0.445625 0.924000 0.067000
0.499062 0.924000 0.067000
0.552500 0.924000 0.067000
0.605937 0.924000 0.067000
0.659375 0.924000 0.067000
0.712812 0.924000 0.067000
0.766250 0.924000 0.067000
0.819688 0.924000 0.067000
0.873125 0.924000 0.067000
0.926563 0.924000 0.067000
0.980000 0.924000 0.067000
0.125000 0.096000 0.114813
0.178437 0.096000 0.114813
0.231875 0.096000 0.114813
0.285312 0.096000 0.114813
0.338750 0.096000 0.114813
0.392188 0.096000 0.114813
0.445625 0.096000 0.114813
0.499062 0.096000 0.114813
0.552500 0.096000 0.114813
0.605937 0.096000 0.114813
0.659375 0.096000 0.114813
0.712812 0.096000 0.114813
0.766250 0.096000 0.114813
0.819688 0.096000 0.114813
0.873125 0.096000 0.114813
0.926563 0.096000 0.114813
0.980000 0.096000 0.114813
0.125000 0.147750 0.114813
0.178437 0.147750 0.114813
0.231875 0.147750 0.114813
0.285312 0.147750 0.114813
0.338750 0.147750 0.114813
0.392188 0.147750 0.114813
0.445625 0.147750 0.114813
0.499062 0.147750 0.114813
0.552500 0.147750 0.114813
0.605937 0.147750 0.114813
0.659375 0.147750 0.114813
0.712812 0.147750 0.114813
0.766250 0.147750 0.114813
0.819688 0.147750 0.114813
0.873125 0.147750 0.114813
0.926563 0.147750 0.114813
0.980000 0.147750 0.114813
0.125000 0.199500 0.114813
0.178437 0.199500 0.114813
0.231875 0.199500 0.114813
0.285312 0.199500 0.114813
0.338750 0.199500 0.114813
0.392188 0.199500 0.114813
0.445625 0.199500 0.114813
0.499062 0.199500 0.114813
0.552500 0.199500 0.114813
0.605937 0.199500 0.114813
0.659375 0.199500 0.114813
0.712812 0.199500 0.114813
0.766250 0.199500 0.114813
0.819688 0.199500 0.114813
0.873125 0.199500 0.114813
0.926563 0.199500 0.114813
0.980000 0.199500 0.114813
0.125000 0.251250 0.114813
0.178437 0.251250 0.114813
0.231875 0.251250 0.114813
0.285312 0.251250 0.114813
0.338750 0.251250 0.114813
0.392188 0.251250 0.114813
0.445625 0.251250 0.114813
0.499062 0.251250 0.114813
0.552500 0.251250 0.114813
0.605937 0.251250 0.114813
0.659375 0.251250 0.114813
0.712812 0.251250 0.114813
0.766250 0.251250 0.114813
0.819688 0.251250 0.114813
0.873125 0.251250 0.114813
0.926563 0.251250 0.114813
0.980000 0.251250 0.114813
0.125000 0.303000 0.114813
0.178437 0.303000 0.114813
0.231875 0.303000 0.114813
0.285312 0.303000 0.114813
0.338750 0.303000 0.114813
0.392188 0.303000 0.114813
0.445625 0.303000 0.114813
0.499062 0.303000 0.114813
0.552500 0.303000 0.114813
0.605937 0.303000 0.114813
0.659375 0.303000 0.114813
0.712812 0.303000 0.114813
0.766250 0.303000 0.114813
0.819688 0.303000 0.114813
0.873125 0.303000 0.114813
0.926563 0.303000 0.114813
0.980000 0.303000 0.114813
0.125000 0.354750 0.114813
0.178437 0.354750 0.114813
0.231875 0.354750 0.114813
0.285312 0.354750 0.114813
0.338750 0.354750 0.114813
0.392188 0.354750 0.114813
0.445625 0.354750 0.114813
0.499062 0.354750 0.114813
0.552500 0.354750 0.114813
0.605937 0.354750 0.114813
0.659375 0.354750 0.114813
0.712812 0.354750 0.114813
0.766250 0.354750 0.114813
0.819688 0.354750 0.114813
0.873125 0.354750 0.114813
0.926563 0.354750 0.114813
0.980000 0.354750 0.114813
0.125000 0.406500 0.114813
0.178437 0.406500 0.114813
0.231875 0.406500 0.114813
0.285312 0.406500 0.114813
0.338750 0.406500 0.114813
0.392188 0.406500 0.114813
0.445625 0.406500 0.114813
0.499062 0.406500 0.114813
0.552500 0.406500 0.114813
0.605937 0.406500 0.114813
0.659375 0.406500 0.114813
0.712812 0.406500 0.114813
0.766250 0.406500 0.114813
0.819688 0.406500 0.114813
0.873125 0.406500 0.114813
0.926563 0.406500 0.114813
0.980000 0.406500 0.114813
0.125000 0.458250 0.114813
0.178437 0.458250 0.114813
0.231875 0.458250 0.114813
0.285312 0.458250 0.114813
0.338750 0.458250 0.114813
0.392188 0.458250 0.114813
0.445625 0.458250 0.114813
0.499062 0.458250 0.114813
0.552500 0.458250 0.114813
0.605937 0.458250 0.114813
0.659375 0.458250 0.114813
0.712812 0.458250 0.114813
0.766250 0.458250 0.114813
0.819688 0.458250 0.114813
0.873125 0.458250 0.114813
0.926563 0.458250 0.114813
0.980000 0.458250 0.114813
0.125000 0.510000 0.114813
0.178437 0.510000 0.114813
0.231875 0.510000 0.114813
0.285312 0.510000 0.114813
0.338750 0.510000 0.114813
0.392188 0.510000 0.114813
0.445625 0.510000 0.114813
0.499062 0.510000 0.114813
0.552500 0.510000 0.114813
0.605937 0.510000 0.114813
0.659375 0.510000 0.114813
0.712812 0.510000 0.114813
0.766250 0.510000 0.114813
0.819688 0.510000 0.114813
0.873125 0.510000 0.114813
0.926563 0.510000 0.114813
0.980000 0.510000 0.114813
0.125000 0.561750 0.114813
0.178437 0.561750 0.114813
0.231875 0.561750 0.114813
0.285312 0.561750 0.114813
0.338750 0.561750 0.114813
0.392188 0.561750 0.114813
0.445625 0.561750 0.114813
0.499062 0.561750 0.114813
0.552500 0.561750 0.114813
0.605937 0.561750 0.114813
0.659375 0.561750 0.114813
0.712812 0.561750 0.114813
0.766250 0.561750 0.114813
0.819688 0.561750 0.114813
0.873125 0.561750 0.114813
0.926563 0.561750 0.114813
0.980000 0.561750 0.114813
0.125000 0.613500 0.114813
0.178437 0.613500 0.114813
0.231875 0.613500 0.114813
0.285312 0.613500 0.114813
0.338750 0.613500 0.114813
0.392188 0.613500 0.114813
0.445625 0.613500 0.114813
0.499062 0.613500 0.114813
0.552500 0.613500 0.114813
0.605937 0.613500 0.114813
0.659375 0.613500 0.114813
0.712812 0.613500 0.114813
0.766250 0.613500 0.114813
0.819688 0.613500 0.114813
0.873125 0.613500 0.114813
0.926563 0.613500 0.114813
0.980000 0.613500 0.114813
0.125000 0.665250 0.114813
0.178437 0.665250 0.114813
0.231875 0.665250 0.114813
0.285312 0.665250 0.114813
0.338750 0.665250 0.114813
0.392188 0.665250 0.114813
0.445625 0.665250 0.114813
0.499062 0.665250 0.114813
0.552500 0.665250 0.114813
0.605937 0.665250 0.114813
0.659375 0.665250 0.114813
0.712812 0.665250 0.114813
0.766250 0.665250 0.114813
0.819688 0.665250 0.114813
0.873125 0.665250 0.114813
0.926563 0.665250 0.114813
0.980000 0.665250 0.114813
0.125000 0.717000 0.114813
0.178437 0.717000 0.114813
0.231875 0.717000 0.114813
0.285312 0.717000 0.114813
0.338750 0.717000 0.114813
0.392188 0.717000 0.114813
0.445625 0.717000 0.114813
0.499062 0.717000 0.114813
0.552500 0.717000 0.114813
0.605937 0.717000 0.114813
0.659375 0.717000 0.114813
0.712812 0.717000 0.114813
0.766250 0.717000 0.114813
0.819688 0.717000 0.114813
0.873125 0.717000 0.114813
0.926563 0.717000 0.114813
0.980000 0.717000 0.114813
0.125000 0.768750 0.114813
0.178437 0.768750 0.114813
0.231875 0.768750 0.114813
0.285312 0.768750 0.114813
0.338750 0.768750 0.114813
0.392188 0.768750 0.114813
0.445625 0.768750 0.114813
0.499062 0.768750 0.114813
0.552500 0.768750 0.114813
0.605937 0.768750 0.114813
0.659375 0.768750 0.114813
0.712812 0.768750 0.114813
0.766250 0.768750 0.114813
0.819688 0.768750 0.114813
0.873125 0.768750 0.114813
0.926563 0.768750 0.114813
0.980000 0.768750 0.114813
0.125000 0.820500 0.114813
0.178437 0.820500 0.114813
0.231875 0.820500 0.114813
0.285312 0.820500 0.114813
0.338750 0.820500 0.114813
0.392188 0.820500 0.114813
0.445625 0.820500 0.114813
0.499062 0.820500 0.114813
0.552500 0.820500 0.114813
0.605937 0.820500 0.114813
0.659375 0.820500 0.114813
0.712812 0.820500 0.114813
0.766250 0.820500 0.114813
0.819688 0.820500 0.114813
0.873125 0.820500 0.114813
0.926563 0.820500 0.114813
0.980000 0.820500 0.114813
0.125000 0.872250 0.114813
0.178437 0.872250 0.114813
0.231875 0.872250 0.114813
0.285312 0.872250 0.114813
0.338750 0.872250 0.114813
0.392188 0.872250 0.114813
0.445625 0.872250 0.114813
0.499062 0.872250 0.114813
0.552500 0.872250 0.114813
0.605937 0.872250 0.114813
0.659375 0.872250 0.114813
0.712812 0.872250 0.114813
0.766250 0.872250 0.114813
0.819688 0.872250 0.114813
0.873125 0.872250 0.114813
0.926563 0.872250 0.114813
0.980000 0.872250 0.114813
0.125000 0.924000 0.114813
0.178437 0.924000 0.114813
0.231875 0.924000 0.114813
0.285312 0.924000 0.114813
0.338750 0.924000 0.114813
0.392188 0.924000 0.114813
0.445625 0.924000 0.114813
0.499062 0.924000 0.114813
0.552500 0.924000 0.114813
0.605937 0.924000 0.114813
0.659375 0.924000 0.114813
0.712812 0.924000 0.114813
0.766250 0.924000 0.114813
0.819688 0.924000 0.114813
0.873125 0.924000 0.114813
0.926563 0.924000 0.114813
0.980000 0.924000 0.114813
0.125000 0.096000 0.162625
0.178437 0.096000 0.162625
0.231875 0.096000 0.162625
0.285312 0.096000 0.162625
0.338750 0.096000 0.162625
0.392188 0.096000 0.162625
0.445625 0.096000 0.162625
0.499062 0.096000 0.162625
0.552500 0.096000 0.162625
0.605937 0.096000 0.162625
0.659375 0.096000 0.162625
0.712812 0.096000 0.162625
0.766250 0.096000 0.162625
0.819688 0.096000 0.162625
0.873125 0.096000 0.162625
0.926563 0.096000 0.162625
0.980000 0.096000 0.162625
0.125000 0.147750 0.162625
0.178437 0.147750 0.162625
0.231875 0.147750 0.162625
0.285312 0.147750 0.162625
0.338750 0.147750 0.162625
0.392188 0.147750 0.162625
0.445625 0.147750 0.162625
0.499062 0.147750 0.162625
0.552500 0.147750 0.162625
0.605937 0.147750 0.162625
0.659375 0.147750 0.162625
0.712812 0.147750 0.162625
0.766250 0.147750 0.162625
0.819688 0.147750 0.162625
0.873125 0.147750 0.162625
0.926563 0.147750 0.162625
0.980000 0.147750 0.162625
0.125000 0.199500 0.162625
0.178437 0.199500 0.162625
0.231875 0.199500 0.162625
0.285312 0.199500 0.162625
0.338750 0.199500 0.162625
0.392188 0.199500 0.162625
0.445625 0.199500 0.162625
0.499062 0.199500 0.162625
0.552500 0.199500 0.162625
0.605937 0.199500 0.162625
0.659375 0.199500 0.162625
0.712812 0.199500 0.162625
0.766250 0.199500 0.162625
0.819688 0.199500 0.162625
0.873125 0.199500 0.162625
0.926563 0.199500 0.162625
0.980000 0.199500 0.162625
0.125000 0.251250 0.162625
0.178437 0.251250 0.162625
0.231875 0.251250 0.162625
0.285312 0.251250 0.162625
0.338750 0.251250 0.162625
0.392188 0.251250 0.162625
0.445625 0.251250 0.162625
0.499062 0.251250 0.162625
0.552500 0.251250 0.162625
0.605937 0.251250 0.162625
0.659375 0.251250 0.162625
0.712812 0.251250 0.162625
0.766250 0.251250 0.162625
0.819688 0.251250 0.162625
0.873125 0.251250 0.162625
0.926563 0.251250 0.162625
0.980000 0.251250 0.162625
0.125000 0.303000 0.162625
0.178437 0.303000 0.162625
0.231875 0.303000 0.162625
0.285312 0.303000 0.162625
0.338750 0.303000 0.162625
0.392188 0.303000 0.162625
0.445625 0.303000 0.162625
0.499062 0.303000 0.162625
0.552500 0.303000 0.162625
0.605937 0.303000 0.162625
0.659375 0.303000 0.162625
0.712812 0.303000 0.162625
0.766250 0.303000 0.162625
0.819688 0.303000 0.162625
0.873125 0.303000 0.162625
0.926563 0.303000 0.162625
0.980000 0.303000 0.162625
0.125000 0.354750 0.162625
0.178437 0.354750 0.162625
0.231875 0.354750 0.162625
0.285312 0.354750 0.162625
0.338750 0.354750 0.162625
0.392188 0.354750 0.162625
0.445625 0.354750 0.162625
0.499062 0.354750 0.162625
0.552500 0.354750 0.162625
0.605937 0.354750 0.162625
0.659375 0.354750 0.162625
0.712812 0.354750 0.162625
0.766250 0.354750 0.162625
0.819688 0.354750 0.162625
0.873125 0.354750 0.162625
0.926563 0.354750 0.162625
0.980000 0.354750 0.162625
0.125000 0.406500 0.162625
0.178437 0.406500 0.162625
0.231875 0.406500 0.162625
0.285312 0.406500 0.162625
0.338750 0.406500 0.162625
0.392188 0.406500 0.162625
0.445625 0.406500 0.162625
0.499062 0.406500 0.162625
0.552500 0.406500 0.162625
0.605937 0.406500 0.162625
0.659375 0.406500 0.162625
0.712812 0.406500 0.162625
0.766250 0.406500 0.162625
0.819688 0.406500 0.162625
0.873125 0.406500 0.162625
0.926563 0.406500 0.162625
0.980000 0.406500 0.162625
0.125000 0.458250 0.162625
0.178437 0.458250 0.162625
0.231875 0.458250 0.162625
0.285312 0.458250 0.162625
0.338750 0.458250 0.162625
0.392188 0.458250 0.162625
0.445625 0.458250 0.162625
0.499062 0.458250 0.162625
0.552500 0.458250 0.162625
0.605937 0.458250 0.162625
0.659375 0.458250 0.162625
0.712812 0.458250 0.162625
0.766250 0.458250 0.162625
0.819688 0.458250 0.162625
0.873125 0.458250 0.162625
0.926563 0.458250 0.162625
0.980000 0.458250 0.162625
0.125000 0.510000 0.162625
0.178437 0.510000 0.162625
0.231875 0.510000 0.162625
0.285312 0.510000 0.162625
0.338750 0.510000 0.162625
0.392188 0.510000 0.162625
0.445625 0.510000 0.162625
0.499062 0.510000 0.162625
0.552500 0.510000 0.162625
0.605937 0.510000 0.162625
0.659375 0.510000 0.162625
0.712812 0.510000 0.162625
0.766250 0.510000 0.162625
0.819688 0.510000 0.162625
0.873125 0.510000 0.162625
0.926563 0.510000 0.162625
0.980000 0.510000 0.162625
0.125000 0.561750 0.162625
0.178437 0.561750 0.162625
0.231875 0.561750 0.162625
0.285312 0.561750 0.162625
0.338750 0.561750 0.162625
0.392188 0.561750 0.162625
0.445625 0.561750 0.162625
0.499062 0.561750 0.162625
0.552500 0.561750 0.162625
0.605937 0.561750 0.162625
0.659375 0.561750 0.162625
0.712812 0.561750 0.162625
0.766250 0.561750 0.162625
0.819688 0.561750 0.162625
0.873125 0.561750 0.162625
0.926563 0.561750 0.162625
0.980000 0.561750 0.162625
0.125000 0.613500 0.162625
0.178437 0.613500 0.162625
0.231875 0.613500 0.162625
0.285312 0.613500 0.162625
0.338750 0.613500 0.162625
0.392188 0.613500 0.162625
0.445625 0.613500 0.162625
0.499062 0.613500 0.162625
0.552500 0.613500 0.162625
0.605937 0.613500 0.162625
0.659375 0.613500 0.162625
0.712812 0.613500 0.162625
0.766250 0.613500 0.162625
0.819688 0.613500 0.162625
0.873125 0.613500 0.162625
0.926563 0.613500 0.162625
0.980000 0.613500 0.162625
0.125000 0.665250 0.162625
0.178437 0.665250 0.162625
0.231875 0.665250 0.162625
0.285312 0.665250 0.162625
0.338750 0.665250 0.162625
0.392188 0.665250 0.162625
0.445625 0.665250 0.162625
0.499062 0.665250 0.162625
0.552500 0.665250 0.162625
0.605937 0.665250 0.162625
0.659375 0.665250 0.162625
0.712812 0.665250 0.162625
0.766250 0.665250 0.162625
0.819688 0.665250 0.162625
0.873125 0.665250 0.162625
0.926563 0.665250 0.162625
0.980000 0.665250 0.162625
0.125000 0.717000 0.162625
0.178437 0.717000 0.162625
0.231875 0.717000 0.162625
0.285312 0.717000 0.162625
0.338750 0.717000 0.162625
0.392188 0.717000 0.162625
0.445625 0.717000 0.162625
0.499062 0.717000 0.162625
0.552500 0.717000 0.162625
0.605937 0.717000 0.162625
0.659375 0.717000 0.162625
0.712812 0.717000 0.162625
0.766250 0.717000 0.162625
0.819688 0.717000 0.162625
0.873125 0.717000 0.162625
0.926563 0.717000 0.162625
0.980000 0.717000 0.162625
0.125000 0.768750 0.162625
0.178437 0.768750 0.162625
0.231875 0.768750 0.162625
0.285312 0.768750 0.162625
0.338750 0.768750 0.162625
0.392188 0.768750 0.162625
0.445625 0.768750 0.162625
0.499062 0.768750 0.162625
0.552500 0.768750 0.162625
0.605937 0.768750 0.162625
0.659375 0.768750 0.162625
0.712812 0.768750 0.162625
0.766250 0.768750 0.162625
0.819688 0.768750 0.162625
0.873125 0.768750 0.162625
0.926563 0.768750 0.162625
0.980000 0.768750 0.162625
0.125000 0.820500 0.162625
0.178437 0.820500 0.162625
0.231875 0.820500 0.162625
0.285312 0.820500 0.162625
0.338750 0.820500 0.162625
0.392188 0.820500 0.162625
0.445625 0.820500 0.162625
0.499062 0.820500 0.162625
0.552500 0.820500 0.162625
0.605937 0.820500 0.162625
0.659375 0.820500 0.162625
0.712812 0.820500 0.162625
0.766250 0.820500 0.162625
0.819688 0.820500 0.162625
0.873125 0.820500 0.162625
0.926563 0.820500 0.162625
0.980000 0.820500 0.162625
0.125000 0.872250 0.162625
0.178437 0.872250 0.162625
0.231875 0.872250 0.162625
0.285312 0.872250 0.162625
0.338750 0.872250 0.162625
0.392188 0.872250 0.162625
0.445625 0.872250 0.162625
0.499062 0.872250 0.162625
0.552500 0.872250 0.162625
0.605937 0.872250 0.162625
0.659375 0.872250 0.162625
0.712812 0.872250 0.162625
0.766250 0.872250 0.162625
0.819688 0.872250 0.162625
0.873125 0.872250 0.162625
0.926563 0.872250 0.162625
0.980000 0.872250 0.162625
0.125000 0.924000 0.162625
0.178437 0.924000 0.162625
0.231875 0.924000 0.162625
0.285312 0.924000 0.162625
0.338750 0.924000 0.162625
0.392188 0.924000 0.162625
0.445625 0.924000 0.162625
0.499062 0.924000 0.162625
0.552500 0.924000 0.162625
0.605937 0.924000 0.162625
0.659375 0.924000 0.162625
0.712812 0.924000 0.162625
0.766250 0.924000 0.162625
0.819688 0.924000 0.162625
0.873125 0.924000 0.162625
0.926563 0.924000 0.162625
0.980000 0.924000 0.162625
0.125000 0.096000 0.210437
0.178437 0.096000 0.210437
0.231875 0.096000 0.210437
0.285312 0.096000 0.210437
0.338750 0.096000 0.210437
0.392188 0.096000 0.210437
0.445625 0.096000 0.210437
0.499062 0.096000 0.210437
0.552500 0.096000 0.210437
0.605937 0.096000 0.210437
0.659375 0.096000 0.210437
0.712812 0.096000 0.210437
0.766250 0.096000 0.210437
0.819688 0.096000 0.210437
0.873125 0.096000 0.210437
0.926563 0.096000 0.210437
0.980000 0.096000 0.210437
0.125000 0.147750 0.210437
